;FLAVOR:Marlin
;TIME:762
;Filament used: 0.665099m
;Layer height: 0.3
;Generated with Cura_SteamEngine 3.4.1
M190 S64
M104 S200
M109 S200
M82 ;absolute extrusion mode
G21 ;metric values
G90 ;absolute positioning
M82 ;set extruder to absolute mode
M107 ;start with the fan off
G28 X0 Y0 ;move X/Y to min endstops
G28 Z0 ;move Z to min endstops
G1 Z15.0 F9000 ;move the platform down 15mm
G92 E0 ;zero the extruded length
G1 F200 E3 ;extrude 3mm of feed stock
G92 E0 ;zero the extruded length again
G1 F9000
;Put printing message on LCD screen
M117 Printing...
G92 E0
G1 F1500 E-5
;LAYER_COUNT:37
;LAYER:0
M107
G0 F3600 X105.274 Y99.008 Z0.3
;TYPE:WALL-INNER
G1 F1500 E0
G1 F1050 X103.611 Y100.04 E0.09764
G1 X102.165 Y101.357 E0.19522
G1 X100.985 Y102.918 E0.29285
G1 X100.113 Y104.67 E0.39048
G1 X99.578 Y106.552 E0.4881
G1 X99.397 Y108.5 E0.5857
G1 X99.578 Y110.448 E0.68331
G1 X100.113 Y112.33 E0.78092
G1 X100.985 Y114.082 E0.87856
G1 X102.165 Y115.643 E0.97618
G1 X103.611 Y116.96 E1.07376
G1 X105.274 Y117.992 E1.17141
G1 X107.098 Y118.697 E1.26897
G1 X109.021 Y119.057 E1.36657
G1 X110.979 Y119.057 E1.46426
G1 X112.902 Y118.697 E1.56186
G1 X114.726 Y117.992 E1.65942
G1 X116.389 Y116.96 E1.75707
G1 X117.835 Y115.643 E1.85465
G1 X119.015 Y114.082 E1.95227
G1 X119.887 Y112.33 E2.04991
G1 X120.422 Y110.448 E2.14752
G1 X120.603 Y108.5 E2.24513
G1 X120.422 Y106.552 E2.34273
G1 X119.887 Y104.67 E2.44034
G1 X119.015 Y102.918 E2.53798
G1 X117.835 Y101.357 E2.63561
G1 X116.389 Y100.04 E2.73318
G1 X114.726 Y99.008 E2.83083
G1 X112.902 Y98.303 E2.92839
G1 X110.979 Y97.943 E3.02599
G1 X109.021 Y97.943 E3.12368
G1 X107.098 Y98.303 E3.22128
G1 X105.274 Y99.008 E3.31885
G0 F3600 X105.23 Y98.919
G0 X112.083 Y95.365
G0 X112.098 Y95.267
G1 F1050 X114.132 Y95.755 E3.4232
G1 X116.083 Y96.563 E3.52855
G1 X117.878 Y97.663 E3.63359
G1 X119.473 Y99.027 E3.73829
G1 X120.837 Y100.622 E3.84299
G1 X121.937 Y102.417 E3.94802
G1 X122.745 Y104.368 E4.05338
G1 X123.233 Y106.402 E4.15773
G1 X123.402 Y108.543 E4.26488
G1 X124.352 Y124.689 E5.0718
G1 X124.364 Y124.9 E5.08235
G1 X124.153 Y124.9 E5.08904
G1 X124.152 Y124.9 E5.08909
G1 X95.849 Y124.9 E6.50114
G1 X95.848 Y124.9 E6.50119
G1 X95.637 Y124.9 E6.51171
G1 X95.649 Y124.689 E6.51842
G1 X96.607 Y108.433 E7.33084
G1 X96.767 Y106.402 E7.43248
G1 X97.255 Y104.368 E7.53684
G1 X98.063 Y102.417 E7.64219
G1 X99.163 Y100.622 E7.74722
G1 X100.527 Y99.027 E7.85193
G1 X102.122 Y97.663 E7.95663
G1 X103.917 Y96.563 E8.06166
G1 X105.868 Y95.755 E8.16702
G1 X107.902 Y95.267 E8.27137
G1 X110 Y95.101 E8.37637
G1 X112.098 Y95.267 E8.48137
G0 F3600 X112.159 Y94.87
;TYPE:WALL-OUTER
G1 F1050 X114.259 Y95.374 E8.58911
G1 X116.263 Y96.204 E8.69733
G1 X118.114 Y97.339 E8.80565
G1 X119.757 Y98.743 E8.91347
G1 X121.161 Y100.386 E9.0213
G1 X122.296 Y102.237 E9.12962
G1 X123.126 Y104.241 E9.23784
G1 X123.63 Y106.341 E9.34558
G1 X123.801 Y108.512 E9.45423
G1 X124.776 Y125.089 E10.28269
G1 X124.788 Y125.3 E10.29323
G1 X124.577 Y125.3 E10.29993
G1 X124.576 Y125.3 E10.29998
G1 X95.425 Y125.3 E11.75433
G1 X95.424 Y125.3 E11.75438
G1 X95.213 Y125.3 E11.7649
G1 X95.225 Y125.089 E11.77161
G1 X96.208 Y108.402 E12.60557
G1 X96.37 Y106.341 E12.70872
G1 X96.874 Y104.241 E12.81646
G1 X97.704 Y102.237 E12.92468
G1 X98.839 Y100.386 E13.033
G1 X100.243 Y98.743 E13.14082
G1 X101.886 Y97.339 E13.24864
G1 X103.737 Y96.204 E13.35697
G1 X105.741 Y95.374 E13.46518
G1 X107.841 Y94.87 E13.57293
G1 X110 Y94.7 E13.68098
G1 X112.159 Y94.87 E13.78902
G0 F3600 X112.353 Y94.916
G0 X112.236 Y95.402
G0 X105.191 Y98.943
G0 X105.453 Y99.368
G1 F1050 X103.853 Y100.36 E13.88294
G1 X102.462 Y101.628 E13.97685
G1 X101.327 Y103.13 E14.07077
G1 X100.488 Y104.815 E14.16468
G1 X99.973 Y106.626 E14.25861
G1 X99.799 Y108.5 E14.35251
G1 X99.973 Y110.374 E14.44641
G1 X100.488 Y112.185 E14.54034
G1 X101.327 Y113.87 E14.63425
G1 X102.462 Y115.372 E14.72817
G1 X103.853 Y116.64 E14.82208
G1 X105.453 Y117.632 E14.916
G1 X107.208 Y118.311 E15.00988
G1 X109.058 Y118.657 E15.10378
G1 X110.942 Y118.657 E15.19777
G1 X112.792 Y118.311 E15.29167
G1 X114.547 Y117.632 E15.38555
G1 X116.147 Y116.64 E15.47947
G1 X117.538 Y115.372 E15.57338
G1 X118.673 Y113.87 E15.6673
G1 X119.512 Y112.185 E15.76121
G1 X120.027 Y110.374 E15.85514
G1 X120.201 Y108.5 E15.94904
G1 X120.027 Y106.626 E16.04294
G1 X119.512 Y104.815 E16.13687
G1 X118.673 Y103.13 E16.23078
G1 X117.538 Y101.628 E16.3247
G1 X116.147 Y100.36 E16.41861
G1 X114.547 Y99.368 E16.51253
G1 X112.792 Y98.689 E16.60641
G1 X110.942 Y98.343 E16.70031
G1 X109.058 Y98.343 E16.7943
G1 X107.208 Y98.689 E16.8882
G1 X105.453 Y99.368 E16.98208
G0 F3600 X105.283 Y99.473
G0 X105.021 Y99.048
G0 X105.099 Y98.657
;TYPE:SKIN
G1 F1050 X103.375 Y99.728 E17.08334
G1 X101.876 Y101.093 E17.18448
G1 X100.652 Y102.711 E17.2857
G1 X99.748 Y104.528 E17.38695
G1 X99.193 Y106.48 E17.4882
G1 X99.005 Y108.5 E17.58941
G1 X99.193 Y110.52 E17.69062
G1 X99.748 Y112.472 E17.79187
G1 X100.652 Y114.289 E17.89312
G1 X101.876 Y115.907 E17.99434
G1 X103.375 Y117.272 E18.09548
G1 X105.099 Y118.343 E18.19674
G1 X106.991 Y119.074 E18.29793
G1 X108.984 Y119.447 E18.39909
G1 X111.016 Y119.447 E18.50047
G1 X113.009 Y119.074 E18.60162
G1 X114.901 Y118.343 E18.70282
G1 X116.625 Y117.272 E18.80407
G1 X118.124 Y115.907 E18.90522
G1 X119.348 Y114.289 E19.00644
G1 X120.252 Y112.472 E19.10769
G1 X120.807 Y110.52 E19.20893
G1 X120.995 Y108.5 E19.31015
G1 X120.807 Y106.48 E19.41136
G1 X120.252 Y104.528 E19.51261
G1 X119.348 Y102.711 E19.61386
G1 X118.124 Y101.093 E19.71507
G1 X116.625 Y99.728 E19.81622
G1 X114.901 Y98.657 E19.91748
G1 X113.009 Y97.926 E20.01867
G1 X111.016 Y97.553 E20.11983
G1 X108.984 Y97.553 E20.2212
G1 X106.991 Y97.926 E20.32236
G1 X105.099 Y98.657 E20.42355
G0 F3600 X104.093 Y96.913
G1 F1050 X105.996 Y96.125 E20.52631
G1 X107.966 Y95.653 E20.62738
G1 X110 Y95.491 E20.72918
G1 X112.034 Y95.653 E20.83097
G1 X114.004 Y96.125 E20.93204
G1 X115.907 Y96.913 E21.0348
G1 X117.654 Y97.984 E21.13703
G1 X119.197 Y99.303 E21.2383
G1 X120.516 Y100.846 E21.33958
G1 X121.587 Y102.593 E21.44181
G1 X122.375 Y104.496 E21.54457
G1 X122.847 Y106.466 E21.64563
G1 X123.006 Y108.475 E21.74618
G1 X123.95 Y124.51 E22.54755
G1 X96.051 Y124.51 E23.93944
G1 X97.003 Y108.365 E24.74631
G1 X97.153 Y106.466 E24.84135
G1 X97.625 Y104.496 E24.94242
G1 X98.413 Y102.593 E25.04518
G1 X99.484 Y100.846 E25.14741
G1 X100.803 Y99.303 E25.24868
G1 X102.346 Y97.984 E25.34996
G1 X104.093 Y96.913 E25.45219
G0 F3600 X110.982 Y97.904
G0 X112.912 Y98.265
G0 X120.658 Y101.425
G1 F1050 X117.074 Y97.841 E25.70506
G1 X117.004 Y97.771
G0 F3600 X115.683 Y97.015
G1 F1050 X121.484 Y102.816 E26.11435
G1 X121.554 Y102.886
G0 F3600 X121.883 Y103.782
G1 F1050 X114.717 Y96.615 E26.61999
G1 X114.647 Y96.545
G0 F3600 X113.796 Y96.259
G1 F1050 X122.239 Y104.703 E27.21572
G1 X122.309 Y104.773
G0 F3600 X122.417 Y105.447
G1 F1050 X119.235 Y102.265 E27.44023
G1 X119.165 Y102.195
G0 F3600 X119.976 Y103.571
G1 F1050 X122.596 Y106.191 E27.62508
G1 X122.666 Y106.261
G0 F3600 X122.697 Y106.858
G1 F1050 X120.466 Y104.627 E27.78249
G1 X120.396 Y104.557
G0 F3600 X120.691 Y105.417
G1 F1050 X122.746 Y107.473 E27.92752
G1 X122.816 Y107.543
G0 F3600 X122.795 Y108.087
G1 F1050 X120.915 Y106.207 E28.06016
G1 X120.845 Y106.137
G0 F3600 X121.023 Y106.881
G1 F1050 X122.837 Y108.695 E28.18815
G1 X122.907 Y108.765
G0 F3600 X122.872 Y109.296
G1 F1050 X121.082 Y107.505 E28.31448
G1 X121.012 Y107.435
G0 F3600 X121.14 Y108.13
G1 F1050 X122.907 Y109.897 E28.43915
G1 X122.977 Y109.967
G0 F3600 X122.943 Y110.498
G1 F1050 X121.154 Y108.709 E28.56538
G1 X121.084 Y108.639
G0 F3600 X121.106 Y109.227
G1 F1050 X122.979 Y111.099 E28.69749
G1 X123.049 Y111.169
G0 F3600 X123.014 Y111.7
G1 F1050 X121.058 Y109.745 E28.83546
G1 X120.988 Y109.675
G0 F3600 X121.01 Y110.261
G1 F1050 X123.05 Y112.301 E28.97939
G1 X123.12 Y112.371
G0 F3600 X123.085 Y112.903
G1 F1050 X120.928 Y110.746 E29.13158
G1 X120.858 Y110.676
G0 F3600 X120.803 Y111.186
G1 F1050 X123.12 Y113.504 E29.29509
G1 X123.19 Y113.574
G0 F3600 X123.156 Y114.105
G1 F1050 X120.678 Y111.627 E29.46993
G1 X120.608 Y111.557
G0 F3600 X120.553 Y112.067
G1 F1050 X123.192 Y114.706 E29.65613
G1 X123.262 Y114.776
G0 F3600 X123.227 Y115.307
G1 F1050 X120.428 Y112.508 E29.85361
G1 X120.358 Y112.438
G0 F3600 X120.244 Y112.89
G1 F1050 X123.262 Y115.908 E30.06655
G1 X123.332 Y115.978
G0 F3600 X123.298 Y116.509
G1 F1050 X120.056 Y113.267 E30.29529
G1 X119.986 Y113.197
G0 F3600 X119.868 Y113.646
G1 F1050 X123.333 Y117.111 E30.53976
G1 X123.403 Y117.181
G0 F3600 X123.368 Y117.712
G1 F1050 X119.68 Y114.023 E30.80001
G1 X119.61 Y113.953
G0 F3600 X119.49 Y114.399
G1 F1050 X123.404 Y118.313 E31.07616
G1 X123.474 Y118.383
G0 F3600 X123.44 Y118.914
G1 F1050 X119.246 Y114.721 E31.37203
G1 X119.176 Y114.651
G0 F3600 X119.002 Y115.042
G1 F1050 X123.475 Y119.515 E31.68763
G1 X123.545 Y119.585
G0 F3600 X123.511 Y120.116
G1 F1050 X118.759 Y115.365 E32.02287
G1 X118.689 Y115.295
G0 F3600 X118.515 Y115.686
G1 F1050 X123.546 Y120.717 E32.37784
G1 X123.616 Y120.787
G0 F3600 X123.581 Y121.319
G1 F1050 X118.271 Y116.008 E32.75252
G1 X118.201 Y115.938
G0 F3600 X117.979 Y116.282
G1 F1050 X123.617 Y121.92 E33.15031
G1 X123.687 Y121.99
G0 F3600 X123.653 Y122.521
G1 F1050 X117.683 Y116.551 E33.57153
G1 X117.613 Y116.481
G0 F3600 X117.387 Y116.821
G1 F1050 X123.688 Y123.122 E34.0161
G1 X123.758 Y123.192
G0 F3600 X123.723 Y123.723
G1 F1050 X117.091 Y117.091 E34.48402
G1 X117.021 Y117.021
G0 F3600 X116.794 Y117.36
G1 F1050 X123.759 Y124.324 E34.9754
G1 X123.829 Y124.394
G0 F3600 X123.197 Y124.329
G1 F1050 X116.456 Y117.588 E35.45102
G1 X116.386 Y117.518
G0 F3600 X116.108 Y117.805
G1 F1050 X122.632 Y124.329 E35.91132
G1 X122.702 Y124.399
G0 F3600 X122.066 Y124.329
G1 F1050 X115.759 Y118.021 E36.35635
G1 X115.689 Y117.951
G0 F3600 X115.41 Y118.238
G1 F1050 X121.5 Y124.329 E36.78607
G1 X121.57 Y124.399
G0 F3600 X120.935 Y124.329
G1 F1050 X115.061 Y118.455 E37.20051
G1 X114.991 Y118.385
G0 F3600 X114.666 Y118.626
G1 F1050 X120.369 Y124.329 E37.60289
G1 X120.439 Y124.399
G0 F3600 X119.803 Y124.329
G1 F1050 X114.258 Y118.784 E37.99412
G1 X114.188 Y118.714
G0 F3600 X113.85 Y118.941
G1 F1050 X119.238 Y124.329 E38.37427
G1 X119.308 Y124.399
G0 F3600 X118.672 Y124.329
G1 F1050 X113.441 Y119.098 E38.74334
G1 X113.371 Y119.028
G0 F3600 X113.029 Y119.252
G1 F1050 X118.106 Y124.329 E39.10155
G1 X118.176 Y124.399
G0 F3600 X117.54 Y124.329
G1 F1050 X112.553 Y119.341 E39.45345
G1 X112.483 Y119.271
G0 F3600 X112.076 Y119.43
G1 F1050 X116.975 Y124.329 E39.7991
G1 X117.045 Y124.399
G0 F3600 X116.409 Y124.329
G1 F1050 X111.6 Y119.52 E40.1384
G1 X111.53 Y119.45
G0 F3600 X111.123 Y119.609
G1 F1050 X115.843 Y124.329 E40.47142
G1 X115.913 Y124.399
G0 F3600 X115.278 Y124.329
G1 F1050 X110.575 Y119.626 E40.80324
G1 X110.505 Y119.556
G0 F3600 X110.009 Y119.626
G1 F1050 X114.712 Y124.329 E41.13507
G1 X114.782 Y124.399
G0 F3600 X114.146 Y124.329
G1 F1050 X109.443 Y119.626 E41.46689
G1 X109.373 Y119.556
G0 F3600 X108.857 Y119.605
G1 F1050 X113.581 Y124.329 E41.80019
G1 X113.651 Y124.399
G0 F3600 X113.015 Y124.329
G1 F1050 X108.161 Y119.475 E42.14267
G1 X108.091 Y119.405
G0 F3600 X107.466 Y119.345
G1 F1050 X112.449 Y124.329 E42.49428
G1 X112.519 Y124.399
G0 F3600 X111.884 Y124.329
G1 F1050 X106.714 Y119.159 E42.85905
G1 X106.644 Y119.089
G0 F3600 X105.793 Y118.803
G1 F1050 X111.318 Y124.329 E43.24891
G1 X111.388 Y124.399
G0 F3600 X110.752 Y124.329
G1 F1050 X104.779 Y118.355 E43.67037
G1 X104.709 Y118.285
G0 F3600 X103.284 Y117.426
G1 F1050 X110.187 Y124.329 E44.15741
G1 X110.257 Y124.399
G0 F3600 X109.621 Y124.329
G1 F1050 X96.987 Y111.695 E45.04881
G1 X96.917 Y111.625
G0 F3600 X96.955 Y112.229
G1 F1050 X109.055 Y124.329 E45.90253
G1 X109.125 Y124.399
G0 F3600 X108.489 Y124.329
G1 F1050 X96.923 Y112.763 E46.71857
G1 X96.853 Y112.693
G0 F3600 X96.892 Y113.297
G1 F1050 X107.924 Y124.329 E47.49694
G1 X107.994 Y124.399
G0 F3600 X107.358 Y124.329
G1 F1050 X96.86 Y113.831 E48.23763
G1 X96.79 Y113.761
G0 F3600 X96.829 Y114.366
G1 F1050 X106.792 Y124.329 E48.94058
G1 X106.862 Y124.399
G0 F3600 X106.227 Y124.329
G1 F1050 X96.797 Y114.899 E49.60591
G1 X96.727 Y114.829
G0 F3600 X96.766 Y115.434
G1 F1050 X105.661 Y124.329 E50.2335
G1 X105.731 Y124.399
G0 F3600 X105.095 Y124.329
G1 F1050 X96.735 Y115.968 E50.82338
G1 X96.665 Y115.898
G0 F3600 X96.703 Y116.502
G1 F1050 X104.53 Y124.329 E51.37562
G1 X104.6 Y124.399
G0 F3600 X103.964 Y124.329
G1 F1050 X96.672 Y117.036 E51.89014
G1 X96.602 Y116.966
G0 F3600 X96.64 Y117.571
G1 F1050 X103.398 Y124.329 E52.36696
G1 X103.468 Y124.399
G0 F3600 X102.833 Y124.329
G1 F1050 X96.609 Y118.105 E52.80609
G1 X96.539 Y118.035
G0 F3600 X96.578 Y118.639
G1 F1050 X102.267 Y124.329 E53.20752
G1 X102.337 Y124.399
G0 F3600 X101.701 Y124.329
G1 F1050 X96.546 Y119.173 E53.57127
G1 X96.476 Y119.103
G0 F3600 X96.515 Y119.708
G1 F1050 X101.136 Y124.329 E53.8973
G1 X101.206 Y124.399
G0 F3600 X100.57 Y124.329
G1 F1050 X96.483 Y120.242 E54.18566
G1 X96.413 Y120.172
G0 F3600 X96.452 Y120.776
G1 F1050 X100.004 Y124.329 E54.43631
G1 X100.074 Y124.399
G0 F3600 X99.439 Y124.329
G1 F1050 X96.42 Y121.31 E54.64932
G1 X96.35 Y121.24
G0 F3600 X96.389 Y121.845
G1 F1050 X98.873 Y124.329 E54.82458
G1 X98.943 Y124.399
G0 F3600 X98.307 Y124.329
G1 F1050 X96.357 Y122.378 E54.9622
G1 X96.287 Y122.308
G0 F3600 X96.325 Y122.912
G1 F1050 X97.741 Y124.329 E55.06214
G1 X97.811 Y124.399
G0 F3600 X97.176 Y124.329
G1 F1050 X96.294 Y123.447 E55.12437
G1 X96.224 Y123.377
G0 F3600 X96.262 Y123.981
G1 F1050 X96.61 Y124.329 E55.14892
G0 F3600 X101.297 Y115.44
G1 F1050 X97.018 Y111.16 E55.45086
G1 X96.948 Y111.09
G0 F3600 X97.05 Y110.626
G1 F1050 X100.192 Y113.769 E55.67258
G1 X100.262 Y113.839
G0 F3600 X99.634 Y112.644
G1 F1050 X97.081 Y110.092 E55.85268
G1 X97.011 Y110.022
G0 F3600 X97.113 Y109.558
G1 F1050 X99.376 Y111.821 E56.01234
G1 X99.446 Y111.891
G0 F3600 X99.151 Y111.031
G1 F1050 X97.144 Y109.023 E56.15398
G1 X97.074 Y108.953
G0 F3600 X97.176 Y108.489
G1 F1050 X98.993 Y110.307 E56.28222
G1 X99.063 Y110.377
G0 F3600 X98.934 Y109.682
G1 F1050 X97.213 Y107.961 E56.40364
G1 X97.143 Y107.891
G0 F3600 X97.255 Y107.437
G1 F1050 X98.876 Y109.058 E56.51801
G1 X98.946 Y109.128
G0 F3600 X98.829 Y108.446
G1 F1050 X97.297 Y106.913 E56.62614
G1 X97.227 Y106.843
G0 F3600 X97.352 Y106.403
G1 F1050 X98.877 Y107.928 E56.73374
G1 X98.947 Y107.998
G0 F3600 X98.925 Y107.41
G1 F1050 X97.461 Y105.947 E56.83699
G1 X97.391 Y105.877
G0 F3600 X97.57 Y105.49
G1 F1050 X98.973 Y106.893 E56.93598
G1 X99.043 Y106.963
G0 F3600 X99.032 Y106.386
G1 F1050 X97.68 Y105.034 E57.03138
G1 X97.61 Y104.964
G0 F3600 X97.789 Y104.577
G1 F1050 X99.157 Y105.945 E57.12789
G1 X99.227 Y106.015
G0 F3600 X99.282 Y105.505
G1 F1050 X97.952 Y104.175 E57.22173
G1 X97.882 Y104.105
G0 F3600 X98.118 Y103.774
G1 F1050 X99.408 Y105.065 E57.31279
G1 X99.478 Y105.135
G0 F3600 X99.533 Y104.624
G1 F1050 X98.283 Y103.374 E57.40098
G1 X98.213 Y103.304
G0 F3600 X98.449 Y102.974
G1 F1050 X99.698 Y104.224 E57.48914
G1 X99.768 Y104.294
G0 F3600 X99.886 Y103.846
G1 F1050 X98.627 Y102.587 E57.57797
G1 X98.557 Y102.517
G0 F3600 X98.842 Y102.236
G1 F1050 X100.073 Y103.468 E57.66486
G1 X100.143 Y103.538
G0 F3600 X100.262 Y103.09
G1 F1050 X99.057 Y101.886 E57.74984
G1 X98.987 Y101.816
G0 F3600 X99.272 Y101.535
G1 F1050 X100.45 Y102.712 E57.83292
G1 X100.52 Y102.782
G0 F3600 X100.679 Y102.376
G1 F1050 X99.487 Y101.184 E57.91702
G1 X99.417 Y101.114
G0 F3600 X99.717 Y100.848
G1 F1050 X100.923 Y102.054 E58.00211
G1 X100.993 Y102.124
G0 F3600 X101.166 Y101.732
G1 F1050 X99.977 Y100.543 E58.086
G1 X99.907 Y100.473
G0 F3600 X100.238 Y100.238
G1 F1050 X101.41 Y101.41 E58.16869
G1 X101.48 Y101.48
G0 F3600 X101.654 Y101.088
G1 F1050 X100.499 Y99.933 E58.25018
G1 X100.429 Y99.863
G0 F3600 X100.76 Y99.629
G1 F1050 X101.93 Y100.798 E58.3327
G1 X102 Y100.868
G0 F3600 X102.226 Y100.529
G1 F1050 X101.037 Y99.34 E58.41659
G1 X100.967 Y99.27
G0 F3600 X101.342 Y99.079
G1 F1050 X102.522 Y100.259 E58.49984
G1 X102.592 Y100.329
G0 F3600 X102.818 Y99.989
G1 F1050 X101.647 Y98.818 E58.58247
