;FLAVOR:Marlin
;TIME:441
;Filament used: 0.392425m
;Layer height: 0.3
;Generated with Cura_SteamEngine 3.4.1
M190 S64
M104 S200
M109 S200
M82 ;absolute extrusion mode
G21 ;metric values
G90 ;absolute positioning
M82 ;set extruder to absolute mode
M107 ;start with the fan off
G28 X0 Y0 ;move X/Y to min endstops
G28 Z0 ;move Z to min endstops
G1 Z15.0 F9000 ;move the platform down 15mm
G92 E0 ;zero the extruded length
G1 F200 E3 ;extrude 3mm of feed stock
G92 E0 ;zero the extruded length again
G1 F9000
;Put printing message on LCD screen
M117 Printing...
G92 E0
G1 F1500 E-5
;LAYER_COUNT:55
;LAYER:0
M107
G0 F3600 X107.193 Y106.87 Z0.3
;TYPE:WALL-INNER
G1 F1500 E0
G1 F1050 X106.63 Y107.527 E0.04317
G1 X106.296 Y108.065 E0.07476
G1 X106.046 Y108.648 E0.10641
G1 X105.889 Y109.261 E0.13798
G1 X105.824 Y109.892 E0.16962
G1 X105.857 Y110.526 E0.2013
G1 X105.985 Y111.146 E0.23288
G1 X106.206 Y111.741 E0.26455
G1 X106.514 Y112.294 E0.29613
G1 X106.901 Y112.796 E0.32775
G1 X107.362 Y113.232 E0.35941
G1 X107.881 Y113.595 E0.391
G1 X108.452 Y113.874 E0.42271
G1 X109.056 Y114.063 E0.45429
G1 X109.683 Y114.159 E0.48593
G1 X110.317 Y114.159 E0.51756
G1 X110.944 Y114.063 E0.54921
G1 X111.548 Y113.874 E0.58078
G1 X112.119 Y113.595 E0.61249
G1 X112.638 Y113.232 E0.64409
G1 X113.099 Y112.796 E0.67574
G1 X113.486 Y112.294 E0.70736
G1 X113.794 Y111.741 E0.73894
G1 X114.015 Y111.146 E0.77061
G1 X114.143 Y110.526 E0.8022
G1 X114.176 Y109.892 E0.83387
G1 X114.111 Y109.261 E0.86552
G1 X113.954 Y108.648 E0.89709
G1 X113.704 Y108.065 E0.92873
G1 X113.37 Y107.527 E0.96033
G1 X112.807 Y106.87 E1.00349
G1 X107.193 Y106.87 E1.28358
G0 F3600 X107.152 Y106.78
G0 X110.893 Y105.203
G0 X110.911 Y105.105
G1 F1050 X111.511 Y105.255 E1.31443
G1 X112.079 Y105.476 E1.34484
G1 X112.622 Y105.767 E1.37557
G1 X113.11 Y106.113 E1.40542
G1 X113.572 Y106.534 E1.4366
G1 X113.971 Y107 E1.46721
G1 X114.308 Y107.507 E1.49758
G1 X114.581 Y108.057 E1.52822
G1 X114.783 Y108.63 E1.55853
G1 X114.916 Y109.237 E1.58953
G1 X114.971 Y109.835 E1.61949
G1 X114.952 Y110.455 E1.65044
G1 X114.858 Y111.061 E1.68103
G1 X114.691 Y111.651 E1.71162
G1 X114.455 Y112.209 E1.74185
G1 X114.146 Y112.743 E1.77263
G1 X113.777 Y113.232 E1.80319
G1 X113.355 Y113.667 E1.83343
G1 X112.868 Y114.059 E1.86462
G1 X112.36 Y114.373 E1.89441
G1 X111.796 Y114.633 E1.9254
G1 X111.215 Y114.817 E1.9558
G1 X110.61 Y114.931 E1.98652
G1 X110 Y114.968 E2.017
G1 X109.39 Y114.931 E2.04749
G1 X108.785 Y114.817 E2.07821
G1 X108.204 Y114.633 E2.10861
G1 X107.64 Y114.373 E2.1396
G1 X107.132 Y114.059 E2.16939
G1 X106.645 Y113.667 E2.20058
G1 X106.223 Y113.232 E2.23082
G1 X105.854 Y112.743 E2.26138
G1 X105.545 Y112.209 E2.29216
G1 X105.309 Y111.651 E2.32239
G1 X105.142 Y111.061 E2.35298
G1 X105.048 Y110.455 E2.38357
G1 X105.029 Y109.835 E2.41452
G1 X105.084 Y109.237 E2.44448
G1 X105.217 Y108.63 E2.47548
G1 X105.419 Y108.057 E2.50579
G1 X105.692 Y107.507 E2.53643
G1 X106.029 Y107 E2.5668
G1 X106.428 Y106.534 E2.59741
G1 X106.89 Y106.113 E2.62859
G1 X107.378 Y105.767 E2.65844
G1 X107.921 Y105.476 E2.68917
G1 X108.489 Y105.255 E2.71958
G1 X109.089 Y105.105 E2.75043
G1 X109.692 Y105.03 E2.78075
G1 X110.308 Y105.03 E2.81148
G1 X110.911 Y105.105 E2.8418
G0 F3600 X110.983 Y104.711
;TYPE:WALL-OUTER
G1 F1050 X111.634 Y104.874 E2.87528
G1 X112.242 Y105.11 E2.90782
G1 X112.833 Y105.427 E2.94128
G1 X113.364 Y105.803 E2.97374
G1 X113.86 Y106.255 E3.00722
G1 X114.289 Y106.756 E3.04012
G1 X114.655 Y107.308 E3.07317
G1 X114.949 Y107.898 E3.10605
G1 X115.17 Y108.528 E3.13936
G1 X115.311 Y109.17 E3.17215
G1 X115.372 Y109.827 E3.20507
G1 X115.351 Y110.488 E3.23807
G1 X115.249 Y111.15 E3.27148
G1 X115.07 Y111.781 E3.30421
G1 X114.812 Y112.391 E3.33725
G1 X114.481 Y112.962 E3.37018
G1 X114.082 Y113.491 E3.40323
G1 X113.62 Y113.968 E3.43636
G1 X113.105 Y114.382 E3.46933
G1 X112.547 Y114.727 E3.50206
G1 X111.942 Y115.006 E3.5353
G1 X111.311 Y115.206 E3.56832
G1 X110.66 Y115.328 E3.60137
G1 X110 Y115.369 E3.63436
G1 X109.34 Y115.328 E3.66735
G1 X108.689 Y115.206 E3.70039
G1 X108.058 Y115.006 E3.73342
G1 X107.453 Y114.727 E3.76666
G1 X106.895 Y114.382 E3.79939
G1 X106.38 Y113.968 E3.83235
G1 X105.918 Y113.491 E3.86548
G1 X105.519 Y112.962 E3.89854
G1 X105.188 Y112.391 E3.93147
G1 X104.93 Y111.781 E3.96451
G1 X104.751 Y111.15 E3.99723
G1 X104.649 Y110.488 E4.03065
G1 X104.628 Y109.827 E4.06364
G1 X104.689 Y109.17 E4.09656
G1 X104.83 Y108.528 E4.12936
G1 X105.051 Y107.898 E4.16266
G1 X105.345 Y107.308 E4.19555
G1 X105.711 Y106.756 E4.2286
G1 X106.14 Y106.255 E4.2615
G1 X106.636 Y105.803 E4.29498
G1 X107.167 Y105.427 E4.32744
G1 X107.758 Y105.11 E4.3609
G1 X108.366 Y104.874 E4.39344
G1 X109.017 Y104.711 E4.42692
G1 X109.666 Y104.63 E4.45955
G1 X110.334 Y104.63 E4.49288
G1 X110.983 Y104.711 E4.52551
G0 F3600 X111.177 Y104.759
G0 X111.055 Y105.244
G0 X106.999 Y106.944
G0 X107.377 Y107.27
G1 F1050 X106.954 Y107.764 E4.55795
G1 X106.652 Y108.25 E4.5865
G1 X106.426 Y108.777 E4.61511
G1 X106.284 Y109.332 E4.64369
G1 X106.225 Y109.902 E4.67228
G1 X106.255 Y110.475 E4.7009
G1 X106.371 Y111.035 E4.72944
G1 X106.57 Y111.573 E4.75805
G1 X106.849 Y112.073 E4.78662
G1 X107.199 Y112.527 E4.81522
G1 X107.615 Y112.921 E4.8438
G1 X108.085 Y113.249 E4.8724
G1 X108.6 Y113.501 E4.901
G1 X109.147 Y113.672 E4.9296
G1 X109.714 Y113.759 E4.95821
G1 X110.286 Y113.759 E4.98675
G1 X110.853 Y113.672 E5.01537
G1 X111.4 Y113.501 E5.04396
G1 X111.915 Y113.249 E5.07257
G1 X112.385 Y112.921 E5.10116
G1 X112.801 Y112.527 E5.12975
G1 X113.151 Y112.073 E5.15835
G1 X113.43 Y111.573 E5.18691
G1 X113.629 Y111.035 E5.21553
G1 X113.745 Y110.475 E5.24406
G1 X113.775 Y109.902 E5.27269
G1 X113.716 Y109.332 E5.30128
G1 X113.574 Y108.777 E5.32986
G1 X113.348 Y108.25 E5.35847
G1 X113.046 Y107.764 E5.38701
G1 X112.623 Y107.27 E5.41946
G1 X107.377 Y107.27 E5.68118
G0 F3600 X107.247 Y107.422
G0 X106.869 Y107.096
G0 X106.709 Y106.805
;TYPE:SKIN
G1 F1050 X106.828 Y106.697 E5.6892
G1 X106.314 Y107.295 E5.72854
G1 X105.949 Y107.884 E5.76311
G1 X105.676 Y108.522 E5.79773
G1 X105.504 Y109.192 E5.83224
G1 X105.432 Y109.882 E5.86685
G1 X105.469 Y110.576 E5.90153
G1 X105.609 Y111.254 E5.93607
G1 X105.851 Y111.905 E5.97072
G1 X106.188 Y112.509 E6.00522
G1 X106.611 Y113.059 E6.03984
G1 X107.115 Y113.535 E6.07443
G1 X107.682 Y113.932 E6.10896
G1 X108.308 Y114.237 E6.1437
G1 X108.968 Y114.444 E6.17821
G1 X109.653 Y114.549 E6.21278
G1 X110.347 Y114.549 E6.24741
G1 X111.032 Y114.444 E6.28198
G1 X111.692 Y114.237 E6.31649
G1 X112.318 Y113.932 E6.35123
G1 X112.885 Y113.535 E6.38576
G1 X113.389 Y113.059 E6.42035
G1 X113.812 Y112.509 E6.45496
G1 X114.149 Y111.905 E6.48947
G1 X114.391 Y111.254 E6.52412
G1 X114.531 Y110.576 E6.55866
G1 X114.568 Y109.882 E6.59333
G1 X114.496 Y109.192 E6.62794
G1 X114.324 Y108.522 E6.66246
G1 X114.051 Y107.884 E6.69708
G1 X113.686 Y107.295 E6.73165
G1 X113.172 Y106.697 E6.77099
G1 X113.291 Y106.805 E6.779
G1 X113.658 Y107.236 E6.80725
G1 X113.973 Y107.708 E6.83556
G1 X114.219 Y108.206 E6.86327
G1 X114.406 Y108.736 E6.89131
G1 X114.53 Y109.301 E6.92017
G1 X114.581 Y109.843 E6.94733
G1 X114.562 Y110.415 E6.97588
G1 X114.475 Y110.985 E7.00465
G1 X114.323 Y111.521 E7.03244
G1 X114.104 Y112.039 E7.0605
G1 X113.824 Y112.523 E7.0884
G1 X113.479 Y112.98 E7.11696
G1 X113.093 Y113.377 E7.14459
G1 X112.645 Y113.738 E7.17329
G1 X112.181 Y114.025 E7.20051
G1 X111.647 Y114.272 E7.22987
G1 X111.126 Y114.436 E7.25712
G1 X110.562 Y114.543 E7.28576
G1 X110 Y114.576 E7.31384
G1 X109.438 Y114.543 E7.34193
G1 X108.874 Y114.436 E7.37057
G1 X108.353 Y114.272 E7.39782
G1 X107.819 Y114.025 E7.42717
G1 X107.355 Y113.738 E7.45439
G1 X106.907 Y113.377 E7.4831
G1 X106.521 Y112.98 E7.51072
G1 X106.176 Y112.523 E7.53929
G1 X105.896 Y112.039 E7.56719
G1 X105.677 Y111.521 E7.59524
G1 X105.525 Y110.985 E7.62304
G1 X105.438 Y110.415 E7.65181
G1 X105.419 Y109.843 E7.68036
G1 X105.47 Y109.301 E7.70752
G1 X105.594 Y108.736 E7.73638
G1 X105.781 Y108.206 E7.76442
G1 X106.027 Y107.708 E7.79213
G1 X106.342 Y107.236 E7.82044
G1 X106.709 Y106.805 E7.84868
G0 F3600 X107.066 Y106.48
M104 S195
G1 F1050 X107.134 Y106.418 E7.85327
G1 X107.584 Y106.099 E7.88079
G1 X108.087 Y105.83 E7.90925
G1 X108.608 Y105.627 E7.93714
G1 X109.159 Y105.489 E7.96548
G1 X109.716 Y105.42 E7.99348
G1 X110.284 Y105.42 E8.02182
G1 X110.841 Y105.489 E8.04982
G1 X111.392 Y105.627 E8.07816
G1 X111.913 Y105.83 E8.10606
G1 X112.416 Y106.099 E8.13452
G1 X112.866 Y106.418 E8.16204
G1 X112.934 Y106.48 E8.16663
G1 X107.066 Y106.48 E8.45938
G0 F3600 X107.854 Y106.157
G0 X107.925 Y106.228
G1 F1050 X108.396 Y106.133 E8.47616
G1 X108.882 Y106.054 E8.50515
G0 F3600 X109.694 Y106.3
G1 F1050 X109.086 Y105.692 E8.54805
G1 X109.016 Y105.622
G0 F3600 X109.578 Y105.618
G1 F1050 X110.259 Y106.3 E8.59613
G1 X110.329 Y106.37
G0 F3600 X110.825 Y106.3
G1 F1050 X110.125 Y105.6 E8.64552
G1 X110.055 Y105.53
G0 F3600 X110.749 Y105.658
G1 F1050 X111.391 Y106.3 E8.69082
G1 X111.461 Y106.37
G0 F3600 X111.532 Y105.875
G1 F1050 X111.956 Y106.3 E8.72077
G0 F3600 X107.152 Y106.78
G0 X107.193 Y106.87
;TIME_ELAPSED:24.264360
;LAYER:1
M140 S64
M106 S255
G0 F5400 X107.193 Y106.87 Z0.6
;TYPE:WALL-INNER
G1 F1575 X106.63 Y107.527 E8.76393
G1 X106.296 Y108.065 E8.79553
G1 X106.046 Y108.648 E8.82717
G1 X105.889 Y109.261 E8.85874
G1 X105.824 Y109.892 E8.89039
G1 X105.857 Y110.526 E8.92206
G1 X105.985 Y111.146 E8.95365
G1 X106.206 Y111.741 E8.98531
G1 X106.514 Y112.294 E9.01689
G1 X106.901 Y112.796 E9.04852
G1 X107.362 Y113.232 E9.08017
G1 X107.881 Y113.595 E9.11177
G1 X108.452 Y113.874 E9.14348
G1 X109.056 Y114.063 E9.17505
G1 X109.683 Y114.159 E9.2067
G1 X110.317 Y114.159 E9.23833
G1 X110.944 Y114.063 E9.26997
G1 X111.548 Y113.874 E9.30155
G1 X112.119 Y113.595 E9.33325
G1 X112.638 Y113.232 E9.36485
G1 X113.099 Y112.796 E9.39651
G1 X113.486 Y112.294 E9.42813
G1 X113.794 Y111.741 E9.45971
G1 X114.015 Y111.146 E9.49138
G1 X114.143 Y110.526 E9.52296
G1 X114.176 Y109.892 E9.55463
G1 X114.111 Y109.261 E9.58628
G1 X113.954 Y108.648 E9.61785
G1 X113.704 Y108.065 E9.6495
G1 X113.37 Y107.527 E9.68109
G1 X112.807 Y106.87 E9.72426
G1 X107.193 Y106.87 E10.00434
G0 F5400 X107.152 Y106.78
G0 X110.893 Y105.203
G0 X110.911 Y105.105
G1 F1575 X111.511 Y105.255 E10.0352
G1 X112.079 Y105.476 E10.0656
G1 X112.622 Y105.767 E10.09634
G1 X113.11 Y106.113 E10.12618
G1 X113.572 Y106.534 E10.15737
G1 X113.971 Y107 E10.18798
G1 X114.308 Y107.507 E10.21835
G1 X114.581 Y108.057 E10.24898
G1 X114.783 Y108.63 E10.27929
G1 X114.916 Y109.237 E10.31029
G1 X114.971 Y109.835 E10.34025
G1 X114.952 Y110.455 E10.3712
G1 X114.858 Y111.061 E10.4018
G1 X114.691 Y111.651 E10.43239
G1 X114.455 Y112.209 E10.46261
G1 X114.146 Y112.743 E10.49339
G1 X113.777 Y113.232 E10.52396
G1 X113.355 Y113.667 E10.55419
G1 X112.868 Y114.059 E10.58538
G1 X112.36 Y114.373 E10.61518
G1 X111.796 Y114.633 E10.64616
G1 X111.215 Y114.817 E10.67657
G1 X110.61 Y114.931 E10.70728
G1 X110 Y114.968 E10.73777
G1 X109.39 Y114.931 E10.76826
G1 X108.785 Y114.817 E10.79897
G1 X108.204 Y114.633 E10.82938
G1 X107.64 Y114.373 E10.86036
G1 X107.132 Y114.059 E10.89016
G1 X106.645 Y113.667 E10.92135
G1 X106.223 Y113.232 E10.95159
G1 X105.854 Y112.743 E10.98215
G1 X105.545 Y112.209 E11.01293
G1 X105.309 Y111.651 E11.04315
G1 X105.142 Y111.061 E11.07375
G1 X105.048 Y110.455 E11.10434
G1 X105.029 Y109.835 E11.13529
G1 X105.084 Y109.237 E11.16525
G1 X105.217 Y108.63 E11.19625
G1 X105.419 Y108.057 E11.22656
G1 X105.692 Y107.507 E11.25719
G1 X106.029 Y107 E11.28757
G1 X106.428 Y106.534 E11.31817
G1 X106.89 Y106.113 E11.34936
G1 X107.378 Y105.767 E11.3792
G1 X107.921 Y105.476 E11.40994
G1 X108.489 Y105.255 E11.44034
G1 X109.089 Y105.105 E11.4712
G1 X109.692 Y105.03 E11.50152
G1 X110.308 Y105.03 E11.53225
G1 X110.911 Y105.105 E11.56256
G0 F5400 X110.983 Y104.711
;TYPE:WALL-OUTER
G1 F1050 X111.634 Y104.874 E11.59605
G1 X112.242 Y105.11 E11.62858
G1 X112.833 Y105.427 E11.66204
G1 X113.364 Y105.803 E11.6945
G1 X113.86 Y106.255 E11.72798
G1 X114.289 Y106.756 E11.76089
G1 X114.655 Y107.308 E11.79393
G1 X114.949 Y107.898 E11.82682
G1 X115.17 Y108.528 E11.86013
G1 X115.311 Y109.17 E11.89292
G1 X115.372 Y109.827 E11.92584
G1 X115.351 Y110.488 E11.95883
G1 X115.249 Y111.15 E11.99225
G1 X115.07 Y111.781 E12.02497
G1 X114.812 Y112.391 E12.05802
G1 X114.481 Y112.962 E12.09094
G1 X114.082 Y113.491 E12.124
G1 X113.62 Y113.968 E12.15713
G1 X113.105 Y114.382 E12.1901
G1 X112.547 Y114.727 E12.22283
G1 X111.942 Y115.006 E12.25607
G1 X111.311 Y115.206 E12.28909
G1 X110.66 Y115.328 E12.32213
G1 X110 Y115.369 E12.35512
G1 X109.34 Y115.328 E12.38812
G1 X108.689 Y115.206 E12.42116
G1 X108.058 Y115.006 E12.45418
G1 X107.453 Y114.727 E12.48742
G1 X106.895 Y114.382 E12.52015
G1 X106.38 Y113.968 E12.55312
G1 X105.918 Y113.491 E12.58625
G1 X105.519 Y112.962 E12.61931
G1 X105.188 Y112.391 E12.65223
G1 X104.93 Y111.781 E12.68528
G1 X104.751 Y111.15 E12.718
G1 X104.649 Y110.488 E12.75142
G1 X104.628 Y109.827 E12.78441
G1 X104.689 Y109.17 E12.81733
G1 X104.83 Y108.528 E12.85012
G1 X105.051 Y107.898 E12.88343
G1 X105.345 Y107.308 E12.91632
G1 X105.711 Y106.756 E12.94936
G1 X106.14 Y106.255 E12.98227
G1 X106.636 Y105.803 E13.01575
G1 X107.167 Y105.427 E13.04821
G1 X107.758 Y105.11 E13.08167
G1 X108.366 Y104.874 E13.1142
G1 X109.017 Y104.711 E13.14769
G1 X109.666 Y104.63 E13.18032
G1 X110.334 Y104.63 E13.21364
G1 X110.983 Y104.711 E13.24627
G0 F5400 X111.177 Y104.759
G0 X111.055 Y105.244
G0 X106.999 Y106.944
G0 X107.377 Y107.27
G1 F1050 X106.954 Y107.764 E13.27872
G1 X106.652 Y108.25 E13.30727
G1 X106.426 Y108.777 E13.33587
G1 X106.284 Y109.332 E13.36445
G1 X106.225 Y109.902 E13.39304
G1 X106.255 Y110.475 E13.42167
G1 X106.371 Y111.035 E13.4502
G1 X106.57 Y111.573 E13.47882
G1 X106.849 Y112.073 E13.50739
G1 X107.199 Y112.527 E13.53599
G1 X107.615 Y112.921 E13.56457
G1 X108.085 Y113.249 E13.59316
G1 X108.6 Y113.501 E13.62177
G1 X109.147 Y113.672 E13.65036
G1 X109.714 Y113.759 E13.67898
G1 X110.286 Y113.759 E13.70752
G1 X110.853 Y113.672 E13.73614
G1 X111.4 Y113.501 E13.76473
G1 X111.915 Y113.249 E13.79333
G1 X112.385 Y112.921 E13.82193
G1 X112.801 Y112.527 E13.85051
G1 X113.151 Y112.073 E13.87911
G1 X113.43 Y111.573 E13.90768
G1 X113.629 Y111.035 E13.9363
G1 X113.745 Y110.475 E13.96483
G1 X113.775 Y109.902 E13.99345
G1 X113.716 Y109.332 E14.02204
G1 X113.574 Y108.777 E14.05062
G1 X113.348 Y108.25 E14.07923
G1 X113.046 Y107.764 E14.10778
G1 X112.623 Y107.27 E14.14023
G1 X107.377 Y107.27 E14.40195
G0 F5400 X107.247 Y107.422
G0 X106.869 Y107.096
G0 X106.709 Y106.805
;TYPE:SKIN
G1 F1050 X106.828 Y106.697 E14.40997
G1 X106.314 Y107.295 E14.44931
G1 X105.949 Y107.884 E14.48388
G1 X105.676 Y108.522 E14.5185
G1 X105.504 Y109.192 E14.55301
G1 X105.432 Y109.882 E14.58762
G1 X105.469 Y110.576 E14.62229
G1 X105.609 Y111.254 E14.65683
G1 X105.851 Y111.905 E14.69148
G1 X106.188 Y112.509 E14.72599
G1 X106.611 Y113.059 E14.76061
G1 X107.115 Y113.535 E14.79519
G1 X107.682 Y113.932 E14.82972
G1 X108.308 Y114.237 E14.86447
G1 X108.968 Y114.444 E14.89897
G1 X109.653 Y114.549 E14.93355
G1 X110.347 Y114.549 E14.96817
G1 X111.032 Y114.444 E15.00275
G1 X111.692 Y114.237 E15.03725
G1 X112.318 Y113.932 E15.072
G1 X112.885 Y113.535 E15.10653
G1 X113.389 Y113.059 E15.14111
G1 X113.812 Y112.509 E15.17573
G1 X114.149 Y111.905 E15.21024
G1 X114.391 Y111.254 E15.24489
G1 X114.531 Y110.576 E15.27943
G1 X114.568 Y109.882 E15.3141
G1 X114.496 Y109.192 E15.34871
G1 X114.324 Y108.522 E15.38322
G1 X114.051 Y107.884 E15.41784
G1 X113.686 Y107.295 E15.45241
G1 X113.172 Y106.697 E15.49175
G1 X113.291 Y106.805 E15.49977
G1 X113.658 Y107.236 E15.52801
G1 X113.973 Y107.708 E15.55632
G1 X114.219 Y108.206 E15.58403
G1 X114.406 Y108.736 E15.61207
G1 X114.53 Y109.301 E15.64093
G1 X114.581 Y109.843 E15.66809
G1 X114.562 Y110.415 E15.69665
G1 X114.475 Y110.985 E15.72541
G1 X114.323 Y111.521 E15.75321
G1 X114.104 Y112.039 E15.78127
G1 X113.824 Y112.523 E15.80916
G1 X113.479 Y112.98 E15.83773
G1 X113.093 Y113.377 E15.86536
G1 X112.645 Y113.738 E15.89406
G1 X112.181 Y114.025 E15.92128
G1 X111.647 Y114.272 E15.95063
G1 X111.126 Y114.436 E15.97788
