;FLAVOR:Marlin
;TIME:1581
;Filament used: 1.62957m
;Layer height: 0.3
;Generated with Cura_SteamEngine 3.4.1
M190 S64
M104 S200
M109 S200
M82 ;absolute extrusion mode
G21 ;metric values
G90 ;absolute positioning
M82 ;set extruder to absolute mode
M107 ;start with the fan off
G28 X0 Y0 ;move X/Y to min endstops
G28 Z0 ;move Z to min endstops
G1 Z15.0 F9000 ;move the platform down 15mm
G92 E0 ;zero the extruded length
G1 F200 E3 ;extrude 3mm of feed stock
G92 E0 ;zero the extruded length again
G1 F9000
;Put printing message on LCD screen
M117 Printing...
G92 E0
G1 F1500 E-5
;LAYER_COUNT:126
;LAYER:0
M107
G0 F3600 X107.239 Y106.8 Z0.3
;TYPE:WALL-INNER
G1 F1500 E0
G1 F1050 X106.622 Y107.5 E0.04655
G1 X106.249 Y108.107 E0.0821
G1 X105.982 Y108.768 E0.11766
G1 X105.832 Y109.465 E0.15323
G1 X105.801 Y110.178 E0.18884
G1 X105.893 Y110.885 E0.22441
G1 X106.1 Y111.566 E0.25992
G1 X106.421 Y112.202 E0.29546
G1 X106.845 Y112.776 E0.33106
G1 X107.36 Y113.269 E0.36663
G1 X107.95 Y113.669 E0.40219
G1 X108.6 Y113.962 E0.43776
G1 X109.29 Y114.142 E0.47334
G1 X110 Y114.202 E0.50889
G1 X110.711 Y114.142 E0.54449
G1 X111.4 Y113.961 E0.58003
G1 X112.05 Y113.669 E0.61558
G1 X112.64 Y113.269 E0.65114
G1 X113.155 Y112.776 E0.68671
G1 X113.579 Y112.202 E0.72231
G1 X113.9 Y111.566 E0.75785
G1 X114.107 Y110.885 E0.79336
G1 X114.199 Y110.178 E0.82893
G1 X114.168 Y109.465 E0.86454
G1 X114.018 Y108.768 E0.90011
G1 X113.751 Y108.107 E0.93568
G1 X113.378 Y107.5 E0.97122
G1 X112.761 Y106.8 E1.01777
G1 X107.239 Y106.8 E1.29327
G0 F3600 X107.198 Y106.709
G0 X110.842 Y105.174
G0 X110.859 Y105.076
G1 F1050 X111.707 Y105.303 E1.33706
G1 X112.499 Y105.673 E1.38067
G1 X113.215 Y106.175 E1.4243
G1 X113.828 Y106.789 E1.46759
G1 X114.33 Y107.505 E1.51121
G1 X114.695 Y108.291 E1.55445
G1 X114.928 Y109.171 E1.59987
G1 X114.999 Y110.005 E1.64162
G1 X114.924 Y110.86 E1.68444
G1 X114.697 Y111.706 E1.72814
G1 X114.327 Y112.499 E1.7718
G1 X113.825 Y113.215 E1.81543
G1 X113.211 Y113.828 E1.85871
G1 X112.495 Y114.33 E1.90234
G1 X111.707 Y114.697 E1.94571
G1 X110.859 Y114.924 E1.9895
G1 X110 Y114.999 E2.03252
G1 X109.141 Y114.924 E2.07554
G1 X108.293 Y114.697 E2.11934
G1 X107.501 Y114.327 E2.16295
G1 X106.785 Y113.825 E2.20658
G1 X106.172 Y113.211 E2.24986
G1 X105.67 Y112.495 E2.29349
G1 X105.305 Y111.709 E2.33673
G1 X105.072 Y110.829 E2.38214
G1 X105.001 Y109.995 E2.4239
G1 X105.076 Y109.141 E2.46667
G1 X105.303 Y108.293 E2.51047
G1 X105.673 Y107.5 E2.55412
G1 X106.175 Y106.785 E2.59771
G1 X106.789 Y106.172 E2.641
G1 X107.505 Y105.67 E2.68462
G1 X108.291 Y105.305 E2.72786
G1 X109.171 Y105.072 E2.77327
G1 X110.005 Y105.001 E2.81503
G1 X110.859 Y105.076 E2.8578
G0 F3600 X110.93 Y104.681
;TYPE:WALL-OUTER
G1 F1050 X111.848 Y104.927 E2.90522
G1 X112.697 Y105.323 E2.95196
G1 X113.475 Y105.869 E2.99938
G1 X114.134 Y106.529 E3.04591
G1 X114.68 Y107.307 E3.09333
G1 X115.073 Y108.153 E3.13986
G1 X115.324 Y109.104 E3.18894
G1 X115.4 Y110 E3.2338
G1 X115.319 Y110.929 E3.28032
G1 X115.073 Y111.848 E3.32778
G1 X114.677 Y112.697 E3.37452
G1 X114.131 Y113.475 E3.42194
G1 X113.471 Y114.134 E3.46847
G1 X112.693 Y114.68 E3.51589
G1 X111.848 Y115.073 E3.56239
G1 X110.93 Y115.319 E3.6098
G1 X110 Y115.4 E3.65637
G1 X109.07 Y115.319 E3.70295
G1 X108.152 Y115.073 E3.75036
G1 X107.303 Y114.677 E3.7971
G1 X106.525 Y114.131 E3.84452
G1 X105.866 Y113.471 E3.89105
G1 X105.32 Y112.693 E3.93847
G1 X104.927 Y111.847 E3.98501
G1 X104.676 Y110.896 E4.03408
G1 X104.6 Y110 E4.07894
G1 X104.681 Y109.07 E4.12552
G1 X104.927 Y108.152 E4.17293
G1 X105.323 Y107.303 E4.21967
G1 X105.869 Y106.525 E4.26709
G1 X106.529 Y105.866 E4.31362
G1 X107.307 Y105.32 E4.36104
G1 X108.153 Y104.927 E4.40758
G1 X109.104 Y104.676 E4.45665
G1 X110 Y104.6 E4.50151
G1 X110.93 Y104.681 E4.54808
G0 F3600 X111.123 Y104.732
G0 X110.994 Y105.214
G0 X107.42 Y106.7
G0 X107.42 Y107.2
G1 F1050 X106.945 Y107.739 E4.58393
G1 X106.607 Y108.288 E4.61609
G1 X106.366 Y108.886 E4.64826
G1 X106.23 Y109.516 E4.68041
G1 X106.202 Y110.161 E4.71262
G1 X106.285 Y110.8 E4.74477
G1 X106.473 Y111.417 E4.77695
G1 X106.763 Y111.992 E4.80908
G1 X107.146 Y112.511 E4.84126
G1 X107.612 Y112.957 E4.87344
G1 X108.146 Y113.318 E4.9056
G1 X108.734 Y113.583 E4.93777
G1 X109.358 Y113.746 E4.96995
G1 X110 Y113.801 E5.0021
G1 X110.643 Y113.746 E5.03429
G1 X111.266 Y113.583 E5.06642
G1 X111.854 Y113.318 E5.0986
G1 X112.388 Y112.957 E5.13076
G1 X112.854 Y112.511 E5.16294
G1 X113.237 Y111.992 E5.19512
G1 X113.527 Y111.417 E5.22725
G1 X113.715 Y110.8 E5.25942
G1 X113.798 Y110.161 E5.29157
G1 X113.77 Y109.516 E5.32378
G1 X113.634 Y108.886 E5.35594
G1 X113.393 Y108.288 E5.3881
G1 X113.055 Y107.739 E5.42027
G1 X112.58 Y107.2 E5.45611
G1 X107.42 Y107.2 E5.71354
G0 F3600 X107.288 Y107.35
G0 X106.777 Y106.735
;TYPE:SKIN
G1 F1050 X106.331 Y107.242 E5.74723
G1 X106.476 Y107.036 E5.7598
G1 X106.777 Y106.735 E5.78104
G0 F3600 X107.13 Y106.41
G1 F1050 X107.707 Y106.006 E5.81618
G1 X108.42 Y105.675 E5.8554
G1 X109.242 Y105.457 E5.89782
G1 X110.004 Y105.391 E5.93598
G1 X110.786 Y105.46 E5.97515
G1 X111.577 Y105.672 E6.016
G1 X112.298 Y106.009 E6.05571
G1 X112.87 Y106.41 E6.09056
G1 X107.13 Y106.41 E6.37693
G0 F3600 X106.276 Y107.321
G1 F1050 X105.907 Y107.92 E6.41203
G1 X106.011 Y107.696 E6.42435
G1 X106.276 Y107.321 E6.44726
G0 F3600 X105.889 Y107.958
G1 F1050 X105.615 Y108.636 E6.48374
G1 X105.672 Y108.423 E6.49474
G1 X105.889 Y107.958 E6.52035
G0 F3600 X105.599 Y108.696
G1 F1050 X105.444 Y109.415 E6.55704
G1 X105.409 Y110.195 E6.59599
G1 X105.509 Y110.956 E6.63429
G1 X105.457 Y110.758 E6.6445
G1 X105.391 Y109.995 E6.68271
G1 X105.46 Y109.214 E6.72182
G1 X105.599 Y108.696 E6.74858
G0 F3600 X105.523 Y111.006
M104 S195
G1 F1050 X105.737 Y111.712 E6.78539
G1 X106.088 Y112.407 E6.82423
G1 X106.551 Y113.035 E6.86316
G1 X107.114 Y113.573 E6.90201
G1 X107.759 Y114.01 E6.94088
G1 X108.469 Y114.331 E6.97975
G1 X109.224 Y114.528 E7.01868
G1 X110 Y114.594 E7.05753
G1 X110.777 Y114.528 E7.09644
G1 X111.531 Y114.33 E7.13533
G1 X112.241 Y114.011 E7.17416
G1 X112.886 Y113.573 E7.21306
G1 X113.449 Y113.035 E7.25191
G1 X113.912 Y112.407 E7.29084
G1 X114.263 Y111.712 E7.32968
G1 X114.489 Y110.967 E7.36852
G1 X114.591 Y110.195 E7.40737
G1 X114.556 Y109.415 E7.44633
G1 X114.414 Y108.757 E7.47991
G1 X114.543 Y109.242 E7.50495
G1 X114.609 Y110.004 E7.54311
G1 X114.54 Y110.787 E7.58232
G1 X114.328 Y111.576 E7.62308
G1 X113.991 Y112.298 E7.66283
G1 X113.521 Y112.968 E7.70366
G1 X112.964 Y113.524 E7.74293
G1 X112.293 Y113.995 E7.78383
G1 X111.579 Y114.327 E7.82311
G1 X110.786 Y114.54 E7.86408
G1 X110 Y114.609 E7.90344
G1 X109.214 Y114.54 E7.94281
G1 X108.423 Y114.328 E7.98366
G1 X107.702 Y113.991 E8.02337
G1 X107.032 Y113.521 E8.0642
G1 X106.476 Y112.964 E8.10346
G1 X106.006 Y112.293 E8.14434
G1 X105.675 Y111.58 E8.18355
G1 X105.523 Y111.006 E8.21318
G0 F3600 X105.944 Y108.757
G0 X106.214 Y108.089
G0 X106.59 Y107.477
G0 X107.223 Y106.764
G0 X113.219 Y106.73
G1 F1050 X113.524 Y107.036 E8.23473
G1 X113.666 Y107.238 E8.24705
G1 X113.219 Y106.73 E8.28081
G0 F3600 X113.731 Y107.331
G1 F1050 X113.994 Y107.707 E8.3037
G1 X114.093 Y107.92 E8.31542
G1 X113.731 Y107.331 E8.34991
G0 F3600 X114.112 Y107.96
G1 F1050 X114.325 Y108.42 E8.3752
G1 X114.377 Y108.616 E8.38532
G1 X114.112 Y107.96 E8.42062
G0 F3600 X112.911 Y106.884
G0 X111.886 Y106.23
G0 X111.688 Y106.032
G1 F1050 X111.023 Y105.932 E8.45559
G1 X110.655 Y105.564
G0 F3600 X110.755 Y106.23
G1 F1050 X110.106 Y105.58 E8.50142
G1 X110.036 Y105.51
G0 F3600 X109.569 Y105.609
G1 F1050 X110.189 Y106.23 E8.5452
G1 X110.259 Y106.3
G0 F3600 X109.352 Y105.958
G1 F1050 X108.845 Y106.017 E8.57939
G1 X108.359 Y106.096 E8.60377
G1 X107.883 Y106.186 E8.61621
G0 F3600 X107.84 Y106.143
G0 X107.198 Y106.709
G0 X107.239 Y106.8
;TIME_ELAPSED:24.498825
;LAYER:1
M140 S64
M106 S255
G0 F5400 X107.239 Y106.8 Z0.6
;TYPE:WALL-INNER
G1 F1575 X106.622 Y107.5 E8.66277
G1 X106.249 Y108.107 E8.69831
G1 X105.982 Y108.768 E8.73388
G1 X105.832 Y109.465 E8.76945
G1 X105.801 Y110.178 E8.80505
G1 X105.893 Y110.885 E8.84062
G1 X106.1 Y111.566 E8.87613
G1 X106.421 Y112.202 E8.91167
G1 X106.845 Y112.776 E8.94728
G1 X107.36 Y113.269 E8.98284
G1 X107.95 Y113.669 E9.01841
G1 X108.6 Y113.962 E9.05398
G1 X109.29 Y114.142 E9.08955
G1 X110 Y114.202 E9.1251
G1 X110.711 Y114.142 E9.1607
G1 X111.4 Y113.961 E9.19624
G1 X112.05 Y113.669 E9.23179
G1 X112.64 Y113.269 E9.26735
G1 X113.155 Y112.776 E9.30292
G1 X113.579 Y112.202 E9.33852
G1 X113.9 Y111.566 E9.37407
G1 X114.107 Y110.885 E9.40958
G1 X114.199 Y110.178 E9.44515
G1 X114.168 Y109.465 E9.48075
G1 X114.018 Y108.768 E9.51632
G1 X113.751 Y108.107 E9.55189
G1 X113.378 Y107.5 E9.58743
G1 X112.761 Y106.8 E9.63399
G1 X107.239 Y106.8 E9.90948
G0 F5400 X107.198 Y106.709
G0 X110.282 Y105.116
G0 X110.289 Y105.017
G1 F1575 X110.852 Y105.074 E9.93771
G1 X111.52 Y105.245 E9.97211
G1 X111.692 Y105.297 E9.98108
G1 X112.494 Y105.67 E10.0252
G1 X113.218 Y106.177 E10.0693
G1 X113.833 Y106.794 E10.11276
G1 X114.329 Y107.503 E10.15593
G1 X114.7 Y108.301 E10.19984
G1 X114.745 Y108.442 E10.20722
G1 X114.935 Y109.195 E10.24596
G1 X114.999 Y110.008 E10.28665
G1 X114.984 Y110.283 E10.30039
G1 X114.928 Y110.84 E10.32832
G1 X114.756 Y111.517 E10.36317
G1 X114.703 Y111.692 E10.37229
G1 X114.33 Y112.494 E10.41642
G1 X113.823 Y113.218 E10.46052
G1 X113.206 Y113.833 E10.50398
G1 X112.497 Y114.329 E10.54715
G1 X111.699 Y114.7 E10.59105
G1 X111.558 Y114.745 E10.59844
G1 X110.862 Y114.924 E10.63429
G1 X110.749 Y114.941 E10.63999
G1 X109.994 Y114.999 E10.67777
G1 X109.711 Y114.983 E10.69191
G1 X109.148 Y114.926 E10.72014
G1 X108.48 Y114.755 E10.75454
G1 X108.308 Y114.703 E10.76351
G1 X107.506 Y114.33 E10.80763
G1 X106.782 Y113.823 E10.85173
G1 X106.167 Y113.206 E10.89519
G1 X105.671 Y112.497 E10.93836
G1 X105.3 Y111.699 E10.98227
G1 X105.255 Y111.558 E10.98965
G1 X105.065 Y110.805 E11.0284
G1 X105.001 Y109.992 E11.06908
G1 X105.016 Y109.717 E11.08282
G1 X105.059 Y109.248 E11.10632
G1 X105.075 Y109.144 E11.11157
G1 X105.245 Y108.48 E11.14576
G1 X105.297 Y108.308 E11.15473
G1 X105.671 Y107.503 E11.19901
G1 X106.176 Y106.782 E11.24293
G1 X106.794 Y106.167 E11.28643
G1 X107.503 Y105.671 E11.3296
G1 X108.301 Y105.3 E11.3735
G1 X108.442 Y105.255 E11.38088
G1 X109.147 Y105.073 E11.41721
G1 X110.008 Y105.001 E11.46032
G1 X110.289 Y105.017 E11.47436
G0 F5400 X110.282 Y105.116
G0 X107.42 Y106.7
G0 X107.42 Y107.2
;TYPE:WALL-OUTER
G1 F1050 X106.945 Y107.739 E11.5102
G1 X106.607 Y108.288 E11.54236
G1 X106.366 Y108.886 E11.57453
G1 X106.23 Y109.516 E11.60669
G1 X106.202 Y110.161 E11.63889
G1 X106.285 Y110.8 E11.67104
G1 X106.473 Y111.417 E11.70322
G1 X106.763 Y111.992 E11.73535
G1 X107.146 Y112.511 E11.76753
G1 X107.612 Y112.957 E11.79971
G1 X108.146 Y113.318 E11.83187
G1 X108.734 Y113.583 E11.86405
G1 X109.358 Y113.746 E11.89622
G1 X110 Y113.801 E11.92837
G1 X110.643 Y113.746 E11.96057
G1 X111.266 Y113.583 E11.99269
G1 X111.854 Y113.318 E12.02487
G1 X112.388 Y112.957 E12.05703
G1 X112.854 Y112.511 E12.08921
G1 X113.237 Y111.992 E12.12139
G1 X113.527 Y111.417 E12.15352
G1 X113.715 Y110.8 E12.1857
G1 X113.798 Y110.161 E12.21785
G1 X113.77 Y109.516 E12.25006
G1 X113.634 Y108.886 E12.28221
G1 X113.393 Y108.288 E12.31438
G1 X113.055 Y107.739 E12.34654
G1 X112.58 Y107.2 E12.38238
G1 X107.42 Y107.2 E12.63982
G0 F5400 X107.288 Y107.35
G0 X106.913 Y107.019
G0 X107.223 Y106.764
G0 X112.777 Y106.764
G0 X113.41 Y107.477
G0 X113.786 Y108.089
G0 X114.056 Y108.757
G0 X114.207 Y109.46
G0 X114.238 Y110.179
G0 X114.146 Y110.893
G0 X113.937 Y111.58
G0 X113.613 Y112.222
G0 X113.185 Y112.802
G0 X113.038 Y112.943
G0 X110.738 Y114.842
G0 X110.794 Y115.339
G1 F1050 X110.003 Y115.4 E12.6794
G1 X109.681 Y115.382 E12.69549
G1 X109.188 Y115.337 E12.72019
G1 X109.069 Y115.319 E12.72619
G1 X108.381 Y115.143 E12.76162
G1 X108.163 Y115.077 E12.77298
G1 X107.304 Y114.678 E12.82024
G1 X106.528 Y114.134 E12.86752
G1 X105.857 Y113.461 E12.91493
G1 X105.322 Y112.696 E12.9615
G1 X104.928 Y111.849 E13.00811
G1 X104.871 Y111.669 E13.01753
G1 X104.68 Y110.928 E13.05571
G1 X104.668 Y110.856 E13.05935
G1 X104.6 Y110.002 E13.10209
G1 X104.618 Y109.681 E13.11813
G1 X104.663 Y109.188 E13.14283
G1 X104.681 Y109.069 E13.14883
G1 X104.857 Y108.381 E13.18426
G1 X104.923 Y108.162 E13.19567
G1 X105.322 Y107.304 E13.24288
G1 X105.867 Y106.526 E13.29027
G1 X106.539 Y105.857 E13.33758
G1 X107.304 Y105.322 E13.38415
G1 X108.151 Y104.928 E13.43076
G1 X108.331 Y104.871 E13.44018
G1 X109.071 Y104.68 E13.4783
G1 X109.144 Y104.668 E13.482
G1 X109.998 Y104.6 E13.52474
G1 X110.319 Y104.618 E13.54078
G1 X110.812 Y104.663 E13.56547
G1 X110.931 Y104.681 E13.57148
G1 X111.619 Y104.857 E13.60691
G1 X111.837 Y104.923 E13.61827
G1 X112.696 Y105.322 E13.66553
G1 X113.472 Y105.866 E13.71281
G1 X114.143 Y106.539 E13.76022
G1 X114.678 Y107.304 E13.80679
G1 X115.072 Y108.151 E13.8534
G1 X115.129 Y108.331 E13.86282
G1 X115.32 Y109.072 E13.90099
G1 X115.332 Y109.144 E13.90464
G1 X115.4 Y109.998 E13.94738
G1 X115.382 Y110.319 E13.96342
G1 X115.337 Y110.812 E13.98812
G1 X115.319 Y110.928 E13.99397
G1 X115.143 Y111.619 E14.02955
G1 X115.077 Y111.837 E14.04091
G1 X114.678 Y112.696 E14.08816
G1 X114.134 Y113.472 E14.13544
G1 X113.461 Y114.143 E14.18286
G1 X112.696 Y114.678 E14.22943
G1 X111.849 Y115.072 E14.27604
G1 X111.669 Y115.129 E14.28546
G1 X110.937 Y115.318 E14.32317
G1 X110.794 Y115.339 E14.33038
G0 F5400 X110.595 Y115.354
G0 X110.558 Y114.856
G0 X110.691 Y114.555
;TYPE:SKIN
G1 F1050 X110.001 Y114.609 E14.36491
G1 X109.733 Y114.593 E14.37831
G1 X109.218 Y114.541 E14.40413
G1 X108.444 Y114.337 E14.44407
G1 X107.708 Y113.995 E14.48455
G1 X107.032 Y113.521 E14.52575
G1 X106.468 Y112.955 E14.56561
G1 X106.006 Y112.295 E14.6058
G1 X105.666 Y111.565 E14.64598
G1 X105.627 Y111.44 E14.65251
G1 X105.45 Y110.737 E14.68868
G1 X105.391 Y109.998 E14.72567
G1 X105.406 Y109.739 E14.73861
G1 X105.458 Y109.221 E14.76458
G1 X105.663 Y108.444 E14.80467
G1 X105.89 Y107.956 E14.83152
G1 X105.608 Y108.653 E14.86904
G1 X105.444 Y109.415 E14.90792
G1 X105.409 Y110.195 E14.94688
G1 X105.511 Y110.967 E14.98573
G1 X105.737 Y111.712 E15.02457
G1 X106.088 Y112.407 E15.06341
G1 X106.551 Y113.035 E15.10234
G1 X107.114 Y113.573 E15.14119
G1 X107.759 Y114.01 E15.18006
G1 X108.469 Y114.331 E15.21893
G1 X109.224 Y114.528 E15.25786
G1 X110 Y114.594 E15.29671
G1 X110.777 Y114.528 E15.33562
G1 X111.531 Y114.33 E15.37451
G1 X112.241 Y114.011 E15.41334
G1 X112.886 Y113.573 E15.45224
G1 X113.449 Y113.035 E15.49109
G1 X113.912 Y112.407 E15.53002
G1 X114.263 Y111.712 E15.56886
G1 X114.489 Y110.967 E15.6077
G1 X114.591 Y110.195 E15.64655
G1 X114.556 Y109.415 E15.68551
G1 X114.392 Y108.653 E15.72439
G1 X114.11 Y107.956 E15.76191
G1 X114.332 Y108.433 E15.78815
G1 X114.373 Y108.561 E15.79486
G1 X114.55 Y109.263 E15.83098
G1 X114.609 Y110.002 E15.86797
G1 X114.594 Y110.261 E15.88091
G1 X114.544 Y110.77 E15.90642
G1 X114.38 Y111.413 E15.93953
G1 X114.338 Y111.553 E15.94682
G1 X113.995 Y112.292 E15.98747
G1 X113.521 Y112.968 E16.02866
G1 X112.956 Y113.531 E16.06845
G1 X112.295 Y113.994 E16.10872
G1 X111.565 Y114.334 E16.14889
G1 X111.453 Y114.369 E16.15475
G1 X110.785 Y114.541 E16.18916
G1 X110.691 Y114.555 E16.1939
G0 F5400 X112.665 Y113.3
G0 X113.185 Y112.802
G0 X113.613 Y112.222
G0 X113.937 Y111.58
G0 X114.146 Y110.893
G0 X114.219 Y110.316
G0 X114.094 Y107.921
G1 F1050 X113.723 Y107.319 E16.22918
G1 X113.993 Y107.705 E16.25268
G1 X114.094 Y107.921 E16.26458
G0 F5400 X113.671 Y107.244
G1 F1050 X113.222 Y106.734 E16.29848
G1 X113.531 Y107.044 E16.32032
G1 X113.671 Y107.244 E16.33249
G0 F5400 X112.87 Y106.41
G1 F1050 X107.128 Y106.41 E16.61896
G1 X107.705 Y106.006 E16.65411
G1 X108.435 Y105.666 E16.69428
G1 X108.548 Y105.631 E16.70018
G1 X109.219 Y105.457 E16.73477
G1 X110.005 Y105.392 E16.77412
G1 X110.267 Y105.407 E16.78721
G1 X110.782 Y105.459 E16.81303
G1 X111.556 Y105.663 E16.85297
G1 X112.292 Y106.005 E16.89346
G1 X112.87 Y106.41 E16.92867
G0 F5400 X107.223 Y106.764
G0 X106.332 Y107.241
G1 F1050 X106.479 Y107.031 E16.94146
G1 X106.78 Y106.732 E16.96262
G1 X106.332 Y107.241 E16.99645
