;FLAVOR:Marlin
;TIME:436
;Filament used: 0.386566m
;Layer height: 0.3
;Generated with Cura_SteamEngine 3.4.1
M190 S64
M104 S200
M109 S200
M82 ;absolute extrusion mode
G21 ;metric values
G90 ;absolute positioning
M82 ;set extruder to absolute mode
M107 ;start with the fan off
G28 X0 Y0 ;move X/Y to min endstops
G28 Z0 ;move Z to min endstops
G1 Z15.0 F9000 ;move the platform down 15mm
G92 E0 ;zero the extruded length
G1 F200 E3 ;extrude 3mm of feed stock
G92 E0 ;zero the extruded length again
G1 F9000
;Put printing message on LCD screen
M117 Printing...
G92 E0
G1 F1500 E-5
;LAYER_COUNT:55
;LAYER:0
M107
G0 F3600 X107.278 Y106.9 Z0.3
;TYPE:WALL-INNER
G1 F1500 E0
G1 F1050 X106.718 Y107.541 E0.04246
G1 X106.381 Y108.069 E0.07372
G1 X106.13 Y108.642 E0.10492
G1 X105.969 Y109.245 E0.13606
G1 X105.901 Y109.867 E0.16728
G1 X105.928 Y110.492 E0.19849
G1 X106.051 Y111.106 E0.22973
G1 X106.263 Y111.694 E0.26091
G1 X106.565 Y112.243 E0.29217
G1 X106.946 Y112.739 E0.32338
G1 X107.399 Y113.171 E0.35461
G1 X107.912 Y113.53 E0.38585
G1 X108.471 Y113.806 E0.41695
G1 X109.068 Y113.995 E0.44819
G1 X109.687 Y114.09 E0.47943
G1 X110.313 Y114.09 E0.51066
G1 X110.932 Y113.995 E0.54191
G1 X111.529 Y113.806 E0.57315
G1 X112.088 Y113.53 E0.60425
G1 X112.601 Y113.171 E0.63549
G1 X113.054 Y112.739 E0.66672
G1 X113.435 Y112.243 E0.69792
G1 X113.737 Y111.694 E0.72918
G1 X113.949 Y111.106 E0.76037
G1 X114.072 Y110.492 E0.79161
G1 X114.099 Y109.867 E0.82282
G1 X114.031 Y109.245 E0.85404
G1 X113.87 Y108.642 E0.88517
G1 X113.619 Y108.069 E0.91638
G1 X113.282 Y107.541 E0.94763
G1 X112.722 Y106.9 E0.9901
G1 X107.278 Y106.9 E1.2617
G0 F3600 X107.237 Y106.809
G0 X110.605 Y105.239
G0 X110.617 Y105.14
G1 F1050 X111.22 Y105.255 E1.29233
G1 X111.802 Y105.444 E1.32286
G1 X112.359 Y105.706 E1.35356
G1 X112.88 Y106.036 E1.38433
G1 X113.35 Y106.426 E1.4148
G1 X113.774 Y106.878 E1.44572
G1 X114.142 Y107.385 E1.47698
G1 X114.431 Y107.908 E1.50679
G1 X114.66 Y108.489 E1.53794
G1 X114.812 Y109.082 E1.56849
G1 X114.889 Y109.69 E1.59906
G1 X114.889 Y110.31 E1.62999
G1 X114.812 Y110.918 E1.66057
G1 X114.66 Y111.511 E1.69111
G1 X114.431 Y112.092 E1.72227
G1 X114.142 Y112.615 E1.75208
G1 X113.774 Y113.122 E1.78333
G1 X113.35 Y113.574 E1.81425
G1 X112.88 Y113.964 E1.84472
G1 X112.359 Y114.294 E1.87549
G1 X111.802 Y114.556 E1.9062
G1 X111.22 Y114.745 E1.93673
G1 X110.617 Y114.86 E1.96735
G1 X110 Y114.898 E1.9982
G1 X109.383 Y114.86 E2.02904
G1 X108.78 Y114.745 E2.05966
G1 X108.198 Y114.556 E2.09019
G1 X107.641 Y114.294 E2.1209
G1 X107.12 Y113.964 E2.15167
G1 X106.65 Y113.574 E2.18214
G1 X106.226 Y113.122 E2.21306
G1 X105.858 Y112.615 E2.24431
G1 X105.569 Y112.092 E2.27412
G1 X105.34 Y111.511 E2.30528
G1 X105.188 Y110.918 E2.33582
G1 X105.111 Y110.31 E2.3664
G1 X105.111 Y109.69 E2.39733
G1 X105.188 Y109.082 E2.4279
G1 X105.34 Y108.489 E2.45845
G1 X105.569 Y107.908 E2.4896
G1 X105.858 Y107.385 E2.51941
G1 X106.226 Y106.878 E2.55067
G1 X106.65 Y106.426 E2.58159
G1 X107.12 Y106.036 E2.61206
G1 X107.641 Y105.706 E2.64283
G1 X108.198 Y105.444 E2.67353
G1 X108.78 Y105.255 E2.70406
G1 X109.383 Y105.14 E2.73469
G1 X110 Y105.102 E2.76553
G1 X110.617 Y105.14 E2.79637
G0 F3600 X110.669 Y104.743
;TYPE:WALL-OUTER
G1 F1050 X111.317 Y104.866 E2.82928
G1 X111.951 Y105.072 E2.86253
G1 X112.553 Y105.355 E2.89572
G1 X113.114 Y105.711 E2.92887
G1 X113.628 Y106.137 E2.96218
G1 X114.082 Y106.621 E2.99528
G1 X114.478 Y107.166 E3.02889
G1 X114.794 Y107.739 E3.06154
G1 X115.04 Y108.361 E3.09491
G1 X115.207 Y109.012 E3.12844
G1 X115.289 Y109.664 E3.16122
G1 X115.289 Y110.336 E3.19475
G1 X115.207 Y110.988 E3.22754
G1 X115.04 Y111.639 E3.26107
G1 X114.794 Y112.261 E3.29444
G1 X114.478 Y112.834 E3.32708
G1 X114.082 Y113.379 E3.36069
G1 X113.628 Y113.863 E3.3938
G1 X113.114 Y114.289 E3.42711
G1 X112.553 Y114.645 E3.46025
G1 X111.951 Y114.928 E3.49344
G1 X111.317 Y115.134 E3.5267
G1 X110.669 Y115.257 E3.55961
G1 X110 Y115.299 E3.59305
G1 X109.331 Y115.257 E3.62649
G1 X108.683 Y115.134 E3.6594
G1 X108.049 Y114.928 E3.69265
G1 X107.447 Y114.645 E3.72584
G1 X106.886 Y114.289 E3.75899
G1 X106.372 Y113.863 E3.7923
G1 X105.918 Y113.379 E3.8254
G1 X105.522 Y112.834 E3.85901
G1 X105.206 Y112.261 E3.89166
G1 X104.96 Y111.639 E3.92503
G1 X104.793 Y110.988 E3.95856
G1 X104.711 Y110.336 E3.99134
G1 X104.711 Y109.664 E4.02487
G1 X104.793 Y109.012 E4.05765
G1 X104.96 Y108.361 E4.09119
G1 X105.206 Y107.739 E4.12456
G1 X105.522 Y107.166 E4.1572
G1 X105.918 Y106.621 E4.19081
G1 X106.372 Y106.137 E4.22392
G1 X106.886 Y105.711 E4.25723
G1 X107.447 Y105.355 E4.29037
G1 X108.049 Y105.072 E4.32356
G1 X108.683 Y104.866 E4.35682
G1 X109.331 Y104.743 E4.38972
G1 X110 Y104.701 E4.42317
G1 X110.669 Y104.743 E4.45661
G0 F3600 X110.865 Y104.78
G0 X110.772 Y105.271
G0 X107.46 Y106.8
G0 X107.46 Y107.3
G1 F1050 X107.039 Y107.782 E4.48854
G1 X106.735 Y108.258 E4.51672
G1 X106.509 Y108.775 E4.54487
G1 X106.363 Y109.319 E4.57297
G1 X106.302 Y109.88 E4.60112
G1 X106.326 Y110.444 E4.62928
G1 X106.437 Y110.998 E4.65747
G1 X106.629 Y111.529 E4.68564
G1 X106.901 Y112.023 E4.71378
G1 X107.245 Y112.471 E4.74196
G1 X107.653 Y112.861 E4.77011
G1 X108.116 Y113.185 E4.79831
G1 X108.621 Y113.434 E4.8264
G1 X109.159 Y113.604 E4.85455
G1 X109.718 Y113.69 E4.88276
G1 X110.282 Y113.69 E4.9109
G1 X110.841 Y113.604 E4.93912
G1 X111.379 Y113.434 E4.96727
G1 X111.884 Y113.185 E4.99536
G1 X112.347 Y112.861 E5.02355
G1 X112.755 Y112.471 E5.05171
G1 X113.099 Y112.023 E5.07989
G1 X113.371 Y111.529 E5.10803
G1 X113.563 Y110.998 E5.1362
G1 X113.674 Y110.444 E5.16438
G1 X113.698 Y109.88 E5.19255
G1 X113.637 Y109.319 E5.2207
G1 X113.491 Y108.775 E5.2488
G1 X113.265 Y108.258 E5.27695
G1 X112.961 Y107.782 E5.30513
G1 X112.54 Y107.3 E5.33706
G1 X107.46 Y107.3 E5.5905
G0 F3600 X107.329 Y107.45
G0 X106.953 Y107.121
G0 X106.948 Y106.684
;TYPE:SKIN
G1 F1050 X106.404 Y107.307 E5.63176
G1 X106.036 Y107.885 E5.66595
G1 X105.761 Y108.513 E5.70015
G1 X105.585 Y109.173 E5.73423
G1 X105.511 Y109.854 E5.76841
G1 X105.54 Y110.539 E5.80261
G1 X105.674 Y111.211 E5.8368
G1 X105.906 Y111.855 E5.87095
G1 X106.238 Y112.457 E5.90525
G1 X106.655 Y113 E5.9394
G1 X107.151 Y113.473 E5.9736
G1 X107.713 Y113.867 E6.00784
G1 X108.325 Y114.169 E6.04189
G1 X108.979 Y114.376 E6.07611
G1 X109.657 Y114.48 E6.11033
G1 X110.343 Y114.48 E6.14456
G1 X111.021 Y114.376 E6.17878
G1 X111.675 Y114.169 E6.213
G1 X112.287 Y113.867 E6.24705
G1 X112.849 Y113.473 E6.28129
G1 X113.345 Y113 E6.31549
G1 X113.762 Y112.457 E6.34964
G1 X114.094 Y111.855 E6.38394
G1 X114.326 Y111.211 E6.41809
G1 X114.46 Y110.539 E6.45228
G1 X114.489 Y109.854 E6.48648
G1 X114.415 Y109.173 E6.52066
G1 X114.239 Y108.513 E6.55474
G1 X113.964 Y107.885 E6.58894
G1 X113.596 Y107.307 E6.62312
G1 X113.052 Y106.684 E6.66439
G1 X113.473 Y107.129 E6.69495
G1 X113.814 Y107.598 E6.72388
G1 X114.077 Y108.072 E6.75092
G1 X114.288 Y108.609 E6.77971
G1 X114.43 Y109.165 E6.80834
G1 X114.499 Y109.707 E6.8356
G1 X114.499 Y110.293 E6.86483
G1 X114.43 Y110.835 E6.89209
G1 X114.288 Y111.391 E6.92072
G1 X114.077 Y111.928 E6.94951
G1 X113.814 Y112.402 E6.97655
G1 X113.473 Y112.871 E7.00548
G1 X113.078 Y113.293 E7.03432
G1 X112.655 Y113.644 E7.06174
G1 X112.167 Y113.954 E7.09058
G1 X111.66 Y114.192 E7.11853
G1 X111.119 Y114.368 E7.14691
G1 X110.576 Y114.471 E7.17448
G1 X110 Y114.506 E7.20327
G1 X109.424 Y114.471 E7.23206
G1 X108.881 Y114.368 E7.25964
G1 X108.34 Y114.192 E7.28802
G1 X107.833 Y113.954 E7.31596
G1 X107.345 Y113.644 E7.3448
G1 X106.922 Y113.293 E7.37223
G1 X106.527 Y112.871 E7.40106
G1 X106.186 Y112.402 E7.42999
G1 X105.923 Y111.928 E7.45704
G1 X105.712 Y111.391 E7.48582
G1 X105.57 Y110.835 E7.51445
G1 X105.501 Y110.293 E7.54171
G1 X105.501 Y109.707 E7.57095
G1 X105.57 Y109.165 E7.59821
G1 X105.712 Y108.609 E7.62684
G1 X105.923 Y108.072 E7.65562
G1 X106.186 Y107.598 E7.68266
G1 X106.527 Y107.129 E7.71159
G1 X106.948 Y106.684 E7.74216
G0 F3600 X107.159 Y106.51
M104 S195
G1 F1050 X107.345 Y106.356 E7.7542
G1 X107.833 Y106.046 E7.78305
G1 X108.34 Y105.808 E7.81099
G1 X108.881 Y105.632 E7.83937
G1 X109.424 Y105.529 E7.86695
G1 X110 Y105.494 E7.89574
G1 X110.576 Y105.529 E7.92453
G1 X111.119 Y105.632 E7.9521
G1 X111.66 Y105.808 E7.98048
G1 X112.167 Y106.046 E8.00842
G1 X112.655 Y106.356 E8.03727
G1 X112.841 Y106.51 E8.04932
G1 X107.159 Y106.51 E8.33279
G0 F3600 X107.907 Y106.21
G0 X107.966 Y106.269
G1 F1050 X108.441 Y106.178 E8.34763
G1 X108.932 Y106.103 E8.37421
G1 X109.439 Y106.045 E8.41004
G1 X109.086 Y105.692
G0 F3600 X109.655 Y105.696
G1 F1050 X110.289 Y106.329 E8.45474
G1 X110.359 Y106.399
G0 F3600 X110.855 Y106.329
G1 F1050 X110.213 Y105.688 E8.5
G1 X110.143 Y105.618
G0 F3600 X111.138 Y106.047
G1 F1050 X111.826 Y106.169 E8.53111
G0 F3600 X111.986 Y106.329
G0 X107.237 Y106.809
G0 X107.278 Y106.9
;TIME_ELAPSED:24.003763
;LAYER:1
M140 S64
M106 S255
G0 F5400 X107.278 Y106.9 Z0.6
;TYPE:WALL-INNER
G1 F1575 X106.718 Y107.541 E8.57358
G1 X106.381 Y108.069 E8.60483
G1 X106.13 Y108.642 E8.63604
G1 X105.969 Y109.245 E8.66717
G1 X105.901 Y109.867 E8.69839
G1 X105.928 Y110.492 E8.7296
G1 X106.051 Y111.106 E8.76084
G1 X106.263 Y111.694 E8.79203
G1 X106.565 Y112.243 E8.82329
G1 X106.946 Y112.739 E8.85449
G1 X107.399 Y113.171 E8.88572
G1 X107.912 Y113.53 E8.91696
G1 X108.471 Y113.806 E8.94806
G1 X109.068 Y113.995 E8.9793
G1 X109.687 Y114.09 E9.01055
G1 X110.313 Y114.09 E9.04178
G1 X110.932 Y113.995 E9.07302
G1 X111.529 Y113.806 E9.10426
G1 X112.088 Y113.53 E9.13536
G1 X112.601 Y113.171 E9.1666
G1 X113.054 Y112.739 E9.19783
G1 X113.435 Y112.243 E9.22904
G1 X113.737 Y111.694 E9.2603
G1 X113.949 Y111.106 E9.29148
G1 X114.072 Y110.492 E9.32272
G1 X114.099 Y109.867 E9.35393
G1 X114.031 Y109.245 E9.38515
G1 X113.87 Y108.642 E9.41629
G1 X113.619 Y108.069 E9.4475
G1 X113.282 Y107.541 E9.47875
G1 X112.722 Y106.9 E9.52121
G1 X107.278 Y106.9 E9.79281
G0 F5400 X107.237 Y106.809
G0 X110.605 Y105.239
G0 X110.617 Y105.14
G1 F1575 X111.22 Y105.255 E9.82344
G1 X111.802 Y105.444 E9.85397
G1 X112.359 Y105.706 E9.88468
G1 X112.88 Y106.036 E9.91545
G1 X113.35 Y106.426 E9.94592
G1 X113.774 Y106.878 E9.97683
G1 X114.142 Y107.385 E10.00809
G1 X114.431 Y107.908 E10.0379
G1 X114.66 Y108.489 E10.06906
G1 X114.812 Y109.082 E10.0996
G1 X114.889 Y109.69 E10.13017
G1 X114.889 Y110.31 E10.16111
G1 X114.812 Y110.918 E10.19168
G1 X114.66 Y111.511 E10.22222
G1 X114.431 Y112.092 E10.25338
G1 X114.142 Y112.615 E10.28319
G1 X113.774 Y113.122 E10.31445
G1 X113.35 Y113.574 E10.34536
G1 X112.88 Y113.964 E10.37583
G1 X112.359 Y114.294 E10.4066
G1 X111.802 Y114.556 E10.43731
G1 X111.22 Y114.745 E10.46784
G1 X110.617 Y114.86 E10.49847
G1 X110 Y114.898 E10.52931
G1 X109.383 Y114.86 E10.56015
G1 X108.78 Y114.745 E10.59077
G1 X108.198 Y114.556 E10.6213
G1 X107.641 Y114.294 E10.65201
G1 X107.12 Y113.964 E10.68278
G1 X106.65 Y113.574 E10.71325
G1 X106.226 Y113.122 E10.74417
G1 X105.858 Y112.615 E10.77542
G1 X105.569 Y112.092 E10.80524
G1 X105.34 Y111.511 E10.83639
G1 X105.188 Y110.918 E10.86693
G1 X105.111 Y110.31 E10.89751
G1 X105.111 Y109.69 E10.92844
G1 X105.188 Y109.082 E10.95902
G1 X105.34 Y108.489 E10.98956
G1 X105.569 Y107.908 E11.02071
G1 X105.858 Y107.385 E11.05053
G1 X106.226 Y106.878 E11.08178
G1 X106.65 Y106.426 E11.1127
G1 X107.12 Y106.036 E11.14317
G1 X107.641 Y105.706 E11.17394
G1 X108.198 Y105.444 E11.20465
G1 X108.78 Y105.255 E11.23518
G1 X109.383 Y105.14 E11.2658
G1 X110 Y105.102 E11.29664
G1 X110.617 Y105.14 E11.32748
G0 F5400 X110.669 Y104.743
;TYPE:WALL-OUTER
G1 F1050 X111.317 Y104.866 E11.36039
G1 X111.951 Y105.072 E11.39365
G1 X112.553 Y105.355 E11.42683
G1 X113.114 Y105.711 E11.45998
G1 X113.628 Y106.137 E11.49329
G1 X114.082 Y106.621 E11.5264
G1 X114.478 Y107.166 E11.56001
G1 X114.794 Y107.739 E11.59265
G1 X115.04 Y108.361 E11.62602
G1 X115.207 Y109.012 E11.65955
G1 X115.289 Y109.664 E11.69234
G1 X115.289 Y110.336 E11.72586
G1 X115.207 Y110.988 E11.75865
G1 X115.04 Y111.639 E11.79218
G1 X114.794 Y112.261 E11.82555
G1 X114.478 Y112.834 E11.85819
G1 X114.082 Y113.379 E11.8918
G1 X113.628 Y113.863 E11.92491
G1 X113.114 Y114.289 E11.95822
G1 X112.553 Y114.645 E11.99137
G1 X111.951 Y114.928 E12.02455
G1 X111.317 Y115.134 E12.05781
G1 X110.669 Y115.257 E12.09072
G1 X110 Y115.299 E12.12416
G1 X109.331 Y115.257 E12.1576
G1 X108.683 Y115.134 E12.19051
G1 X108.049 Y114.928 E12.22377
G1 X107.447 Y114.645 E12.25695
G1 X106.886 Y114.289 E12.2901
G1 X106.372 Y113.863 E12.32341
G1 X105.918 Y113.379 E12.35652
G1 X105.522 Y112.834 E12.39013
G1 X105.206 Y112.261 E12.42277
G1 X104.96 Y111.639 E12.45614
G1 X104.793 Y110.988 E12.48967
G1 X104.711 Y110.336 E12.52246
G1 X104.711 Y109.664 E12.55598
G1 X104.793 Y109.012 E12.58877
G1 X104.96 Y108.361 E12.6223
G1 X105.206 Y107.739 E12.65567
G1 X105.522 Y107.166 E12.68831
G1 X105.918 Y106.621 E12.72192
G1 X106.372 Y106.137 E12.75503
G1 X106.886 Y105.711 E12.78834
G1 X107.447 Y105.355 E12.82149
G1 X108.049 Y105.072 E12.85467
G1 X108.683 Y104.866 E12.88793
G1 X109.331 Y104.743 E12.92084
G1 X110 Y104.701 E12.95428
G1 X110.669 Y104.743 E12.98772
G0 F5400 X110.865 Y104.78
G0 X110.772 Y105.271
G0 X107.46 Y106.8
G0 X107.46 Y107.3
G1 F1050 X107.039 Y107.782 E13.01965
G1 X106.735 Y108.258 E13.04783
G1 X106.509 Y108.775 E13.07598
G1 X106.363 Y109.319 E13.10408
G1 X106.302 Y109.88 E13.13223
G1 X106.326 Y110.444 E13.1604
G1 X106.437 Y110.998 E13.18858
G1 X106.629 Y111.529 E13.21675
G1 X106.901 Y112.023 E13.24489
G1 X107.245 Y112.471 E13.27307
G1 X107.653 Y112.861 E13.30123
G1 X108.116 Y113.185 E13.32942
G1 X108.621 Y113.434 E13.35751
G1 X109.159 Y113.604 E13.38566
G1 X109.718 Y113.69 E13.41388
G1 X110.282 Y113.69 E13.44201
G1 X110.841 Y113.604 E13.47023
G1 X111.379 Y113.434 E13.49838
G1 X111.884 Y113.185 E13.52647
G1 X112.347 Y112.861 E13.55466
G1 X112.755 Y112.471 E13.58282
G1 X113.099 Y112.023 E13.611
G1 X113.371 Y111.529 E13.63914
G1 X113.563 Y110.998 E13.66731
G1 X113.674 Y110.444 E13.6955
G1 X113.698 Y109.88 E13.72366
G1 X113.637 Y109.319 E13.75181
G1 X113.491 Y108.775 E13.77991
G1 X113.265 Y108.258 E13.80806
G1 X112.961 Y107.782 E13.83624
G1 X112.54 Y107.3 E13.86817
G1 X107.46 Y107.3 E14.12161
G0 F5400 X107.329 Y107.45
G0 X106.953 Y107.121
G0 X106.948 Y106.684
;TYPE:SKIN
G1 F1050 X106.404 Y107.307 E14.16288
G1 X106.036 Y107.885 E14.19706
G1 X105.761 Y108.513 E14.23126
G1 X105.585 Y109.173 E14.26534
G1 X105.511 Y109.854 E14.29952
G1 X105.54 Y110.539 E14.33372
G1 X105.674 Y111.211 E14.36791
G1 X105.906 Y111.855 E14.40206
G1 X106.238 Y112.457 E14.43636
G1 X106.655 Y113 E14.47052
G1 X107.151 Y113.473 E14.50471
G1 X107.713 Y113.867 E14.53895
G1 X108.325 Y114.169 E14.573
G1 X108.979 Y114.376 E14.60722
G1 X109.657 Y114.48 E14.64144
G1 X110.343 Y114.48 E14.67567
G1 X111.021 Y114.376 E14.70989
G1 X111.675 Y114.169 E14.74411
G1 X112.287 Y113.867 E14.77816
G1 X112.849 Y113.473 E14.8124
G1 X113.345 Y113 E14.8466
G1 X113.762 Y112.457 E14.88075
G1 X114.094 Y111.855 E14.91505
G1 X114.326 Y111.211 E14.9492
G1 X114.46 Y110.539 E14.98339
G1 X114.489 Y109.854 E15.0176
G1 X114.415 Y109.173 E15.05177
G1 X114.239 Y108.513 E15.08585
G1 X113.964 Y107.885 E15.12005
G1 X113.596 Y107.307 E15.15424
G1 X113.052 Y106.684 E15.1955
G1 X113.473 Y107.129 E15.22606
G1 X113.814 Y107.598 E15.25499
G1 X114.077 Y108.072 E15.28204
G1 X114.288 Y108.609 E15.31082
G1 X114.43 Y109.165 E15.33945
G1 X114.499 Y109.707 E15.36671
G1 X114.499 Y110.293 E15.39595
G1 X114.43 Y110.835 E15.4232
G1 X114.288 Y111.391 E15.45183
G1 X114.077 Y111.928 E15.48062
G1 X113.814 Y112.402 E15.50766
G1 X113.473 Y112.871 E15.53659
G1 X113.078 Y113.293 E15.56543
G1 X112.655 Y113.644 E15.59285
G1 X112.167 Y113.954 E15.6217
G1 X111.66 Y114.192 E15.64964
G1 X111.119 Y114.368 E15.67802
G1 X110.576 Y114.471 E15.70559
G1 X110 Y114.506 E15.73438
G1 X109.424 Y114.471 E15.76317
G1 X108.881 Y114.368 E15.79075
G1 X108.34 Y114.192 E15.81913
G1 X107.833 Y113.954 E15.84707
G1 X107.345 Y113.644 E15.87592
G1 X106.922 Y113.293 E15.90334
G1 X106.527 Y112.871 E15.93218
G1 X106.186 Y112.402 E15.96111
G1 X105.923 Y111.928 E15.98815
G1 X105.712 Y111.391 E16.01694
G1 X105.57 Y110.835 E16.04557
G1 X105.501 Y110.293 E16.07282
