;FLAVOR:Marlin
;TIME:474
;Filament used: 0.420537m
;Layer height: 0.3
;Generated with Cura_SteamEngine 3.4.1
M190 S64
M104 S200
M109 S200
M82 ;absolute extrusion mode
G21 ;metric values
G90 ;absolute positioning
M82 ;set extruder to absolute mode
M107 ;start with the fan off
G28 X0 Y0 ;move X/Y to min endstops
G28 Z0 ;move Z to min endstops
G1 Z15.0 F9000 ;move the platform down 15mm
G92 E0 ;zero the extruded length
G1 F200 E3 ;extrude 3mm of feed stock
G92 E0 ;zero the extruded length again
G1 F9000
;Put printing message on LCD screen
M117 Printing...
G92 E0
G1 F1500 E-5
;LAYER_COUNT:55
;LAYER:0
M107
G0 F3600 X107.341 Y106.369 Z0.3
;TYPE:WALL-INNER
G1 F1500 E0
G1 F1050 X106.713 Y106.956 E0.04289
G1 X106.297 Y107.478 E0.07619
G1 X105.963 Y108.059 E0.10962
G1 X105.72 Y108.682 E0.14298
G1 X105.573 Y109.332 E0.17623
G1 X105.523 Y109.999 E0.2096
G1 X105.574 Y110.666 E0.24298
G1 X105.723 Y111.317 E0.27629
G1 X105.968 Y111.94 E0.30969
G1 X106.303 Y112.519 E0.34307
G1 X106.72 Y113.042 E0.37644
G1 X107.211 Y113.496 E0.4098
G1 X107.763 Y113.872 E0.44312
G1 X108.365 Y114.162 E0.47646
G1 X109.004 Y114.359 E0.50982
G1 X109.666 Y114.459 E0.54322
G1 X110.334 Y114.459 E0.57655
G1 X110.996 Y114.359 E0.60995
G1 X111.635 Y114.162 E0.64331
G1 X112.237 Y113.872 E0.67665
G1 X112.789 Y113.496 E0.70997
G1 X113.28 Y113.042 E0.74333
G1 X113.697 Y112.519 E0.7767
G1 X114.032 Y111.94 E0.81008
G1 X114.277 Y111.317 E0.84347
G1 X114.426 Y110.666 E0.87679
G1 X114.477 Y109.999 E0.91017
G1 X114.427 Y109.332 E0.94354
G1 X114.28 Y108.682 E0.97678
G1 X114.037 Y108.059 E1.01015
G1 X113.703 Y107.478 E1.04358
G1 X113.287 Y106.956 E1.07688
G1 X112.659 Y106.369 E1.11977
G1 X107.341 Y106.369 E1.38509
G0 F3600 X107.305 Y106.276
G0 X110.953 Y104.909
G0 X110.971 Y104.811
G1 F1050 X111.596 Y104.968 E1.41724
G1 X112.206 Y105.205 E1.44988
G1 X112.782 Y105.513 E1.48247
G1 X113.302 Y105.882 E1.51428
G1 X113.788 Y106.324 E1.54706
G1 X114.207 Y106.816 E1.5793
G1 X114.57 Y107.361 E1.61197
G1 X114.854 Y107.934 E1.64387
G1 X115.074 Y108.555 E1.67674
G1 X115.212 Y109.187 E1.70902
G1 X115.271 Y109.827 E1.74108
G1 X115.251 Y110.483 E1.77382
G1 X115.151 Y111.125 E1.80624
G1 X114.974 Y111.749 E1.8386
G1 X114.721 Y112.346 E1.87095
G1 X114.398 Y112.906 E1.9032
G1 X114.005 Y113.426 E1.93572
G1 X113.552 Y113.892 E1.96814
G1 X113.046 Y114.3 E2.00057
G1 X112.502 Y114.637 E2.0325
G1 X111.903 Y114.913 E2.0654
G1 X111.288 Y115.108 E2.09759
G1 X110.646 Y115.229 E2.13018
G1 X110 Y115.268 E2.16247
G1 X109.354 Y115.229 E2.19476
G1 X108.712 Y115.108 E2.22735
G1 X108.097 Y114.913 E2.25954
G1 X107.498 Y114.637 E2.29244
G1 X106.954 Y114.3 E2.32437
G1 X106.448 Y113.892 E2.3568
G1 X105.995 Y113.426 E2.38922
G1 X105.602 Y112.906 E2.42174
G1 X105.279 Y112.346 E2.45399
G1 X105.026 Y111.749 E2.48634
G1 X104.849 Y111.125 E2.5187
G1 X104.749 Y110.483 E2.55112
G1 X104.729 Y109.827 E2.58386
G1 X104.788 Y109.187 E2.61593
G1 X104.926 Y108.555 E2.6482
G1 X105.146 Y107.934 E2.68107
G1 X105.43 Y107.361 E2.71297
G1 X105.793 Y106.816 E2.74564
G1 X106.212 Y106.324 E2.77788
G1 X106.698 Y105.882 E2.81066
G1 X107.218 Y105.513 E2.84247
G1 X107.794 Y105.205 E2.87506
G1 X108.404 Y104.968 E2.90771
G1 X109.029 Y104.811 E2.93986
G1 X109.679 Y104.731 E2.97253
G1 X110.321 Y104.731 E3.00456
G1 X110.971 Y104.811 E3.03723
G0 F3600 X111.046 Y104.417
;TYPE:WALL-OUTER
G1 F1050 X111.718 Y104.586 E3.0718
G1 X112.375 Y104.841 E3.10696
G1 X112.987 Y105.169 E3.1416
G1 X113.556 Y105.572 E3.17639
G1 X114.076 Y106.046 E3.21149
G1 X114.525 Y106.572 E3.246
G1 X114.917 Y107.162 E3.28134
G1 X115.223 Y107.778 E3.31565
G1 X115.46 Y108.448 E3.35111
G1 X115.607 Y109.122 E3.38552
G1 X115.672 Y109.819 E3.42045
G1 X115.65 Y110.516 E3.45524
G1 X115.542 Y111.214 E3.49048
G1 X115.353 Y111.879 E3.52497
G1 X115.08 Y112.524 E3.55991
G1 X114.731 Y113.128 E3.59471
G1 X114.307 Y113.69 E3.62984
G1 X113.826 Y114.185 E3.66427
G1 X113.278 Y114.627 E3.6994
G1 X112.689 Y114.991 E3.73394
G1 X112.05 Y115.286 E3.76905
G1 X111.384 Y115.497 E3.80391
G1 X110.697 Y115.626 E3.83878
G1 X110 Y115.668 E3.87362
G1 X109.303 Y115.626 E3.90845
G1 X108.616 Y115.497 E3.94333
G1 X107.95 Y115.286 E3.97818
G1 X107.311 Y114.991 E4.01329
G1 X106.722 Y114.627 E4.04784
G1 X106.174 Y114.185 E4.08296
G1 X105.693 Y113.69 E4.1174
G1 X105.269 Y113.128 E4.15252
G1 X104.92 Y112.524 E4.18732
G1 X104.647 Y111.879 E4.22227
G1 X104.458 Y111.214 E4.25676
G1 X104.35 Y110.516 E4.29199
G1 X104.328 Y109.819 E4.32679
G1 X104.393 Y109.122 E4.36171
G1 X104.54 Y108.448 E4.39613
G1 X104.777 Y107.778 E4.43158
G1 X105.083 Y107.162 E4.4659
G1 X105.475 Y106.572 E4.50124
G1 X105.924 Y106.046 E4.53574
G1 X106.444 Y105.572 E4.57084
G1 X107.013 Y105.169 E4.60563
G1 X107.625 Y104.841 E4.64027
G1 X108.282 Y104.586 E4.67543
G1 X108.954 Y104.417 E4.71
G1 X109.654 Y104.331 E4.74519
G1 X110.346 Y104.331 E4.77971
G1 X111.046 Y104.417 E4.8149
G0 F3600 X111.24 Y104.465
G0 X111.117 Y104.95
G0 X107.159 Y106.403
G0 X107.499 Y106.769
G1 F1050 X107.008 Y107.228 E4.84843
G1 X106.629 Y107.704 E4.87879
G1 X106.325 Y108.232 E4.90918
G1 X106.104 Y108.799 E4.93954
G1 X105.97 Y109.392 E4.96987
G1 X105.924 Y109.999 E5.00024
G1 X105.971 Y110.606 E5.03062
G1 X106.106 Y111.199 E5.06096
G1 X106.329 Y111.766 E5.09136
G1 X106.634 Y112.293 E5.12173
G1 X107.014 Y112.769 E5.15212
G1 X107.461 Y113.182 E5.18248
G1 X107.964 Y113.525 E5.21286
G1 X108.512 Y113.789 E5.24321
G1 X109.093 Y113.968 E5.27354
G1 X109.696 Y114.059 E5.30396
G1 X110.304 Y114.059 E5.33429
G1 X110.907 Y113.968 E5.36472
G1 X111.488 Y113.789 E5.39505
G1 X112.036 Y113.525 E5.4254
G1 X112.539 Y113.182 E5.45577
G1 X112.986 Y112.769 E5.48613
G1 X113.366 Y112.293 E5.51652
G1 X113.671 Y111.766 E5.5469
G1 X113.894 Y111.199 E5.57729
G1 X114.029 Y110.606 E5.60764
G1 X114.076 Y109.999 E5.63801
G1 X114.03 Y109.392 E5.66838
G1 X113.896 Y108.799 E5.69871
G1 X113.675 Y108.232 E5.72907
G1 X113.371 Y107.704 E5.75947
G1 X112.992 Y107.228 E5.78982
G1 X112.501 Y106.769 E5.82336
G1 X107.499 Y106.769 E6.07291
G0 F3600 X107.353 Y106.905
G0 X107.013 Y106.539
G0 X106.947 Y106.184
;TYPE:SKIN
G1 F1050 X107.036 Y106.121 E6.07835
G1 X106.426 Y106.691 E6.12
G1 X105.973 Y107.258 E6.15621
G1 X105.61 Y107.89 E6.19257
G1 X105.346 Y108.567 E6.22882
G1 X105.187 Y109.274 E6.26497
G1 X105.131 Y109.999 E6.30125
G1 X105.188 Y110.725 E6.33758
G1 X105.349 Y111.432 E6.37376
G1 X105.615 Y112.11 E6.4101
G1 X105.98 Y112.739 E6.44638
G1 X106.433 Y113.309 E6.4827
G1 X106.967 Y113.802 E6.51896
G1 X107.568 Y114.211 E6.55523
G1 X108.222 Y114.526 E6.59144
G1 X108.917 Y114.741 E6.62774
G1 X109.637 Y114.849 E6.66406
G1 X110.363 Y114.849 E6.70028
G1 X111.083 Y114.741 E6.73661
G1 X111.778 Y114.526 E6.7729
G1 X112.432 Y114.211 E6.80912
G1 X113.033 Y113.802 E6.84538
G1 X113.567 Y113.309 E6.88164
G1 X114.02 Y112.739 E6.91797
G1 X114.385 Y112.11 E6.95425
G1 X114.651 Y111.432 E6.99059
G1 X114.812 Y110.725 E7.02676
G1 X114.869 Y109.999 E7.06309
G1 X114.813 Y109.274 E7.09937
G1 X114.654 Y108.567 E7.13552
G1 X114.39 Y107.89 E7.17178
G1 X114.027 Y107.258 E7.20814
G1 X113.574 Y106.691 E7.24435
G1 X112.964 Y106.121 E7.286
G1 X113.053 Y106.184 E7.29144
G1 X113.511 Y106.599 E7.32227
G1 X113.899 Y107.057 E7.35222
G1 X114.232 Y107.556 E7.38215
G1 X114.49 Y108.077 E7.41115
G1 X114.699 Y108.667 E7.44238
G1 X114.826 Y109.249 E7.4721
G1 X114.881 Y109.835 E7.50146
G1 X114.861 Y110.443 E7.53181
G1 X114.768 Y111.047 E7.5623
G1 X114.606 Y111.621 E7.59206
G1 X114.373 Y112.169 E7.62177
G1 X114.073 Y112.687 E7.65163
G1 X113.7 Y113.182 E7.68255
G1 X113.3 Y113.593 E7.71117
G1 X112.813 Y113.987 E7.74242
G1 X112.329 Y114.286 E7.7708
G1 X111.754 Y114.552 E7.80241
G1 X111.198 Y114.727 E7.83149
G1 X110.598 Y114.841 E7.86196
G1 X110 Y114.876 E7.89185
G1 X109.402 Y114.841 E7.92173
G1 X108.802 Y114.727 E7.9522
G1 X108.246 Y114.552 E7.98128
G1 X107.671 Y114.286 E8.01289
G1 X107.187 Y113.987 E8.04127
G1 X106.7 Y113.593 E8.07252
G1 X106.3 Y113.182 E8.10114
G1 X105.927 Y112.687 E8.13206
G1 X105.627 Y112.169 E8.16192
G1 X105.394 Y111.621 E8.19163
G1 X105.232 Y111.047 E8.22139
G1 X105.139 Y110.443 E8.25188
G1 X105.119 Y109.835 E8.28223
G1 X105.174 Y109.249 E8.31159
G1 X105.301 Y108.667 E8.34131
G1 X105.51 Y108.077 E8.37254
G1 X105.768 Y107.556 E8.40154
G1 X106.101 Y107.057 E8.43147
G1 X106.489 Y106.599 E8.46142
G1 X106.947 Y106.184 E8.49225
M104 S195
G0 F3600 X107.235 Y105.979
G1 F1050 X107.424 Y105.845 E8.50381
G1 X107.962 Y105.557 E8.53426
G1 X108.52 Y105.34 E8.56413
G1 X109.092 Y105.197 E8.59354
G1 X109.71 Y105.121 E8.62461
G1 X110.29 Y105.121 E8.65354
G1 X110.908 Y105.197 E8.68461
G1 X111.48 Y105.34 E8.71402
G1 X112.038 Y105.557 E8.74389
G1 X112.576 Y105.845 E8.77434
G1 X112.765 Y105.979 E8.7859
G1 X107.235 Y105.979 E9.06179
G0 F3600 X108.002 Y105.739
G0 X108.031 Y105.768
G1 F1050 X108.516 Y105.687 E9.07166
G1 X109.015 Y105.621 E9.09188
G1 X109.534 Y105.574 E9.12009
G1 X110.075 Y105.549 E9.15339
G1 X110.649 Y105.557 E9.1879
G1 X111.269 Y105.612 E9.21787
G1 X111.976 Y105.753 E9.23414
G0 F3600 X112.021 Y105.798
G0 X107.305 Y106.276
G0 X107.341 Y106.369
;TIME_ELAPSED:24.715900
;LAYER:1
M140 S64
M106 S255
G0 F5400 X107.341 Y106.369 Z0.6
;TYPE:WALL-INNER
G1 F1575 X106.713 Y106.956 E9.27703
G1 X106.297 Y107.478 E9.31033
G1 X105.963 Y108.059 E9.34376
G1 X105.72 Y108.682 E9.37713
G1 X105.573 Y109.332 E9.41037
G1 X105.523 Y109.999 E9.44374
G1 X105.574 Y110.666 E9.47712
G1 X105.723 Y111.317 E9.51044
G1 X105.968 Y111.94 E9.54383
G1 X106.303 Y112.519 E9.57721
G1 X106.72 Y113.042 E9.61058
G1 X107.211 Y113.496 E9.64394
G1 X107.763 Y113.872 E9.67726
G1 X108.365 Y114.162 E9.7106
G1 X109.004 Y114.359 E9.74396
G1 X109.666 Y114.459 E9.77736
G1 X110.334 Y114.459 E9.81069
G1 X110.996 Y114.359 E9.84409
G1 X111.635 Y114.162 E9.87745
G1 X112.237 Y113.872 E9.91079
G1 X112.789 Y113.496 E9.94411
G1 X113.28 Y113.042 E9.97747
G1 X113.697 Y112.519 E10.01084
G1 X114.032 Y111.94 E10.04422
G1 X114.277 Y111.317 E10.07762
G1 X114.426 Y110.666 E10.11093
G1 X114.477 Y109.999 E10.14431
G1 X114.427 Y109.332 E10.17768
G1 X114.28 Y108.682 E10.21093
G1 X114.037 Y108.059 E10.24429
G1 X113.703 Y107.478 E10.27772
G1 X113.287 Y106.956 E10.31102
G1 X112.659 Y106.369 E10.35391
G1 X107.341 Y106.369 E10.61923
G0 F5400 X107.305 Y106.276
G0 X110.953 Y104.909
G0 X110.971 Y104.811
G1 F1575 X111.596 Y104.968 E10.65138
G1 X112.206 Y105.205 E10.68403
G1 X112.782 Y105.513 E10.71661
G1 X113.302 Y105.882 E10.74842
G1 X113.788 Y106.324 E10.7812
G1 X114.207 Y106.816 E10.81344
G1 X114.57 Y107.361 E10.84611
G1 X114.854 Y107.934 E10.87801
G1 X115.074 Y108.555 E10.91088
G1 X115.212 Y109.187 E10.94316
G1 X115.271 Y109.827 E10.97522
G1 X115.251 Y110.483 E11.00796
G1 X115.151 Y111.125 E11.04038
G1 X114.974 Y111.749 E11.07274
G1 X114.721 Y112.346 E11.10509
G1 X114.398 Y112.906 E11.13734
G1 X114.005 Y113.426 E11.16986
G1 X113.552 Y113.892 E11.20228
G1 X113.046 Y114.3 E11.23471
G1 X112.502 Y114.637 E11.26664
G1 X111.903 Y114.913 E11.29954
G1 X111.288 Y115.108 E11.33173
G1 X110.646 Y115.229 E11.36432
G1 X110 Y115.268 E11.39661
G1 X109.354 Y115.229 E11.4289
G1 X108.712 Y115.108 E11.46149
G1 X108.097 Y114.913 E11.49368
G1 X107.498 Y114.637 E11.52658
G1 X106.954 Y114.3 E11.55851
G1 X106.448 Y113.892 E11.59094
G1 X105.995 Y113.426 E11.62336
G1 X105.602 Y112.906 E11.65588
G1 X105.279 Y112.346 E11.68813
G1 X105.026 Y111.749 E11.72048
G1 X104.849 Y111.125 E11.75284
G1 X104.749 Y110.483 E11.78526
G1 X104.729 Y109.827 E11.818
G1 X104.788 Y109.187 E11.85007
G1 X104.926 Y108.555 E11.88234
G1 X105.146 Y107.934 E11.91521
G1 X105.43 Y107.361 E11.94711
G1 X105.793 Y106.816 E11.97978
G1 X106.212 Y106.324 E12.01202
G1 X106.698 Y105.882 E12.0448
G1 X107.218 Y105.513 E12.07661
G1 X107.794 Y105.205 E12.1092
G1 X108.404 Y104.968 E12.14185
G1 X109.029 Y104.811 E12.174
G1 X109.679 Y104.731 E12.20667
G1 X110.321 Y104.731 E12.2387
G1 X110.971 Y104.811 E12.27137
G0 F5400 X111.046 Y104.417
;TYPE:WALL-OUTER
G1 F1050 X111.718 Y104.586 E12.30594
G1 X112.375 Y104.841 E12.3411
G1 X112.987 Y105.169 E12.37574
G1 X113.556 Y105.572 E12.41053
G1 X114.076 Y106.046 E12.44563
G1 X114.525 Y106.572 E12.48014
G1 X114.917 Y107.162 E12.51548
G1 X115.223 Y107.778 E12.54979
G1 X115.46 Y108.448 E12.58525
G1 X115.607 Y109.122 E12.61966
G1 X115.672 Y109.819 E12.65459
G1 X115.65 Y110.516 E12.68938
G1 X115.542 Y111.214 E12.72462
G1 X115.353 Y111.879 E12.75911
G1 X115.08 Y112.524 E12.79405
G1 X114.731 Y113.128 E12.82885
G1 X114.307 Y113.69 E12.86398
G1 X113.826 Y114.185 E12.89841
G1 X113.278 Y114.627 E12.93354
G1 X112.689 Y114.991 E12.96808
G1 X112.05 Y115.286 E13.00319
G1 X111.384 Y115.497 E13.03805
G1 X110.697 Y115.626 E13.07292
G1 X110 Y115.668 E13.10776
G1 X109.303 Y115.626 E13.14259
G1 X108.616 Y115.497 E13.17747
G1 X107.95 Y115.286 E13.21232
G1 X107.311 Y114.991 E13.24744
G1 X106.722 Y114.627 E13.28198
G1 X106.174 Y114.185 E13.3171
G1 X105.693 Y113.69 E13.35154
G1 X105.269 Y113.128 E13.38666
G1 X104.92 Y112.524 E13.42146
G1 X104.647 Y111.879 E13.45641
G1 X104.458 Y111.214 E13.4909
G1 X104.35 Y110.516 E13.52613
G1 X104.328 Y109.819 E13.56093
G1 X104.393 Y109.122 E13.59585
G1 X104.54 Y108.448 E13.63027
G1 X104.777 Y107.778 E13.66572
G1 X105.083 Y107.162 E13.70004
G1 X105.475 Y106.572 E13.73538
G1 X105.924 Y106.046 E13.76988
G1 X106.444 Y105.572 E13.80498
G1 X107.013 Y105.169 E13.83977
G1 X107.625 Y104.841 E13.87441
G1 X108.282 Y104.586 E13.90957
G1 X108.954 Y104.417 E13.94414
G1 X109.654 Y104.331 E13.97933
G1 X110.346 Y104.331 E14.01385
G1 X111.046 Y104.417 E14.04904
G0 F5400 X111.24 Y104.465
G0 X111.117 Y104.95
G0 X107.159 Y106.403
G0 X107.499 Y106.769
G1 F1050 X107.008 Y107.228 E14.08257
G1 X106.629 Y107.704 E14.11293
G1 X106.325 Y108.232 E14.14332
G1 X106.104 Y108.799 E14.17368
G1 X105.97 Y109.392 E14.20401
G1 X105.924 Y109.999 E14.23438
G1 X105.971 Y110.606 E14.26476
G1 X106.106 Y111.199 E14.2951
G1 X106.329 Y111.766 E14.3255
G1 X106.634 Y112.293 E14.35588
G1 X107.014 Y112.769 E14.38626
G1 X107.461 Y113.182 E14.41662
G1 X107.964 Y113.525 E14.447
G1 X108.512 Y113.789 E14.47735
G1 X109.093 Y113.968 E14.50768
G1 X109.696 Y114.059 E14.5381
G1 X110.304 Y114.059 E14.56843
G1 X110.907 Y113.968 E14.59886
G1 X111.488 Y113.789 E14.62919
G1 X112.036 Y113.525 E14.65954
G1 X112.539 Y113.182 E14.68991
G1 X112.986 Y112.769 E14.72027
G1 X113.366 Y112.293 E14.75066
G1 X113.671 Y111.766 E14.78104
G1 X113.894 Y111.199 E14.81143
G1 X114.029 Y110.606 E14.84178
G1 X114.076 Y109.999 E14.87215
G1 X114.03 Y109.392 E14.90252
G1 X113.896 Y108.799 E14.93285
G1 X113.675 Y108.232 E14.96321
G1 X113.371 Y107.704 E14.99361
G1 X112.992 Y107.228 E15.02396
G1 X112.501 Y106.769 E15.0575
G1 X107.499 Y106.769 E15.30705
G0 F5400 X107.353 Y106.905
G0 X107.013 Y106.539
G0 X106.947 Y106.184
;TYPE:SKIN
G1 F1050 X107.036 Y106.121 E15.31249
G1 X106.426 Y106.691 E15.35414
G1 X105.973 Y107.258 E15.39035
G1 X105.61 Y107.89 E15.42671
G1 X105.346 Y108.567 E15.46296
G1 X105.187 Y109.274 E15.49911
G1 X105.131 Y109.999 E15.53539
G1 X105.188 Y110.725 E15.57172
G1 X105.349 Y111.432 E15.6079
G1 X105.615 Y112.11 E15.64424
G1 X105.98 Y112.739 E15.68052
G1 X106.433 Y113.309 E15.71684
G1 X106.967 Y113.802 E15.7531
G1 X107.568 Y114.211 E15.78937
G1 X108.222 Y114.526 E15.82558
G1 X108.917 Y114.741 E15.86188
G1 X109.637 Y114.849 E15.8982
G1 X110.363 Y114.849 E15.93442
G1 X111.083 Y114.741 E15.97075
G1 X111.778 Y114.526 E16.00704
G1 X112.432 Y114.211 E16.04326
G1 X113.033 Y113.802 E16.07952
G1 X113.567 Y113.309 E16.11578
G1 X114.02 Y112.739 E16.15211
G1 X114.385 Y112.11 E16.18839
G1 X114.651 Y111.432 E16.22473
G1 X114.812 Y110.725 E16.2609
G1 X114.869 Y109.999 E16.29723
G1 X114.813 Y109.274 E16.33351
G1 X114.654 Y108.567 E16.36966
G1 X114.39 Y107.89 E16.40592
G1 X114.027 Y107.258 E16.44228
G1 X113.574 Y106.691 E16.47849
G1 X112.964 Y106.121 E16.52014
G1 X113.053 Y106.184 E16.52558
G1 X113.511 Y106.599 E16.55641
G1 X113.899 Y107.057 E16.58636
G1 X114.232 Y107.556 E16.61629
G1 X114.49 Y108.077 E16.64529
G1 X114.699 Y108.667 E16.67652
G1 X114.826 Y109.249 E16.70624
G1 X114.881 Y109.835 E16.7356
G1 X114.861 Y110.443 E16.76595
G1 X114.768 Y111.047 E16.79644
G1 X114.606 Y111.621 E16.8262
G1 X114.373 Y112.169 E16.85591
