;FLAVOR:Marlin
;TIME:1591
;Filament used: 1.63674m
;Layer height: 0.3
;Generated with Cura_SteamEngine 3.4.1
M190 S64
M104 S200
M109 S200
M82 ;absolute extrusion mode
G21 ;metric values
G90 ;absolute positioning
M82 ;set extruder to absolute mode
M107 ;start with the fan off
G28 X0 Y0 ;move X/Y to min endstops
G28 Z0 ;move Z to min endstops
G1 Z15.0 F9000 ;move the platform down 15mm
G92 E0 ;zero the extruded length
G1 F200 E3 ;extrude 3mm of feed stock
G92 E0 ;zero the extruded length again
G1 F9000
;Put printing message on LCD screen
M117 Printing...
G92 E0
G1 F1500 E-5
;LAYER_COUNT:126
;LAYER:0
M107
G0 F3600 X107.12 Y106.77 Z0.3
;TYPE:WALL-INNER
G1 F1500 E0
G1 F1050 X106.504 Y107.493 E0.04739
G1 X106.133 Y108.116 E0.08356
G1 X105.871 Y108.792 E0.11973
G1 X105.727 Y109.503 E0.15593
G1 X105.704 Y110.227 E0.19206
G1 X105.802 Y110.944 E0.22817
G1 X106.021 Y111.636 E0.26438
G1 X106.353 Y112.28 E0.30053
G1 X106.787 Y112.86 E0.33667
G1 X107.313 Y113.359 E0.37284
G1 X107.916 Y113.763 E0.40905
G1 X108.576 Y114.059 E0.44514
G1 X109.277 Y114.241 E0.48127
G1 X110 Y114.302 E0.51747
G1 X110.723 Y114.241 E0.55367
G1 X111.424 Y114.059 E0.5898
G1 X112.084 Y113.763 E0.62589
G1 X112.687 Y113.359 E0.6621
G1 X113.213 Y112.86 E0.69827
G1 X113.647 Y112.28 E0.73441
G1 X113.979 Y111.636 E0.77056
G1 X114.198 Y110.944 E0.80677
G1 X114.296 Y110.227 E0.84288
G1 X114.273 Y109.503 E0.87901
G1 X114.129 Y108.792 E0.91521
G1 X113.867 Y108.116 E0.95138
G1 X113.496 Y107.493 E0.98755
G1 X112.88 Y106.77 E1.03494
G1 X107.12 Y106.77 E1.32231
G0 F3600 X107.079 Y106.68
G0 X110.86 Y105.076
G0 X110.877 Y104.978
G1 F1050 X111.741 Y105.209 E1.36693
G1 X112.542 Y105.582 E1.41101
G1 X113.28 Y106.098 E1.45594
G1 X113.903 Y106.721 E1.49989
G1 X114.416 Y107.455 E1.54457
G1 X114.789 Y108.255 E1.58861
G1 X115.029 Y109.174 E1.63599
G1 X115.099 Y110.005 E1.6776
G1 X115.022 Y110.877 E1.72127
G1 X114.791 Y111.741 E1.76589
G1 X114.418 Y112.542 E1.80997
G1 X113.902 Y113.28 E1.8549
G1 X113.279 Y113.903 E1.89885
G1 X112.545 Y114.416 E1.94353
G1 X111.742 Y114.79 E1.98773
G1 X110.857 Y115.024 E2.0334
G1 X110 Y115.099 E2.07632
G1 X109.123 Y115.022 E2.12024
G1 X108.259 Y114.791 E2.16486
G1 X107.458 Y114.418 E2.20894
G1 X106.72 Y113.902 E2.25386
G1 X106.097 Y113.279 E2.29782
G1 X105.584 Y112.545 E2.3425
G1 X105.211 Y111.745 E2.38654
G1 X104.971 Y110.826 E2.43392
G1 X104.901 Y109.995 E2.47553
G1 X104.978 Y109.123 E2.5192
G1 X105.209 Y108.259 E2.56382
G1 X105.582 Y107.458 E2.6079
G1 X106.098 Y106.72 E2.65283
G1 X106.721 Y106.097 E2.69678
G1 X107.455 Y105.584 E2.74146
G1 X108.255 Y105.211 E2.7855
G1 X109.174 Y104.971 E2.83289
G1 X110.005 Y104.901 E2.87449
G1 X110.877 Y104.978 E2.91816
G0 F3600 X110.946 Y104.583
;TYPE:WALL-OUTER
G1 F1050 X111.883 Y104.833 E2.96655
G1 X112.741 Y105.233 E3.01378
G1 X113.539 Y105.791 E3.06236
G1 X114.21 Y106.462 E3.1097
G1 X114.765 Y107.256 E3.15803
G1 X115.166 Y108.116 E3.20537
G1 X115.425 Y109.109 E3.25657
G1 X115.5 Y110 E3.30118
G1 X115.417 Y110.946 E3.34856
G1 X115.167 Y111.883 E3.39694
G1 X114.767 Y112.741 E3.44417
G1 X114.209 Y113.539 E3.49275
G1 X113.538 Y114.21 E3.54009
G1 X112.744 Y114.765 E3.58842
G1 X111.88 Y115.168 E3.63598
G1 X110.93 Y115.419 E3.68501
G1 X110 Y115.5 E3.73158
G1 X109.054 Y115.417 E3.77896
G1 X108.117 Y115.167 E3.82734
G1 X107.259 Y114.767 E3.87457
G1 X106.461 Y114.209 E3.92315
G1 X105.79 Y113.538 E3.97049
G1 X105.235 Y112.744 E4.01882
G1 X104.834 Y111.884 E4.06616
G1 X104.575 Y110.891 E4.11736
G1 X104.5 Y110 E4.16197
G1 X104.583 Y109.054 E4.20935
G1 X104.833 Y108.117 E4.25773
G1 X105.233 Y107.259 E4.30496
G1 X105.791 Y106.461 E4.35354
G1 X106.462 Y105.79 E4.40088
G1 X107.256 Y105.235 E4.44921
G1 X108.116 Y104.834 E4.49655
G1 X109.109 Y104.575 E4.54775
G1 X110 Y104.5 E4.59236
G1 X110.946 Y104.583 E4.63974
G0 F3600 X111.139 Y104.634
G0 X111.01 Y105.116
G0 X107.305 Y106.67
G0 X107.305 Y107.17
G1 F1050 X106.83 Y107.727 E4.67626
G1 X106.494 Y108.292 E4.70906
G1 X106.256 Y108.905 E4.74186
G1 X106.126 Y109.549 E4.77464
G1 X106.105 Y110.206 E4.80743
G1 X106.194 Y110.856 E4.84017
G1 X106.392 Y111.483 E4.87297
G1 X106.693 Y112.067 E4.90575
G1 X107.087 Y112.593 E4.93854
G1 X107.564 Y113.046 E4.97135
G1 X108.11 Y113.412 E5.00415
G1 X108.709 Y113.68 E5.03689
G1 X109.345 Y113.845 E5.06967
G1 X110 Y113.901 E5.10246
G1 X110.655 Y113.845 E5.13526
G1 X111.291 Y113.68 E5.16804
G1 X111.89 Y113.412 E5.20078
G1 X112.436 Y113.046 E5.23358
G1 X112.913 Y112.593 E5.26639
G1 X113.307 Y112.067 E5.29918
G1 X113.608 Y111.483 E5.33196
G1 X113.806 Y110.856 E5.36476
G1 X113.895 Y110.206 E5.3975
G1 X113.874 Y109.549 E5.43029
G1 X113.744 Y108.905 E5.46307
G1 X113.506 Y108.292 E5.49587
G1 X113.17 Y107.727 E5.52867
G1 X112.695 Y107.17 E5.56519
G1 X107.305 Y107.17 E5.8341
G0 F3600 X107.176 Y107.322
G0 X106.795 Y106.998
G0 X106.664 Y106.704
;TYPE:SKIN
G1 F1050 X106.229 Y107.215 E5.86758
G1 X106.404 Y106.964 E5.88285
G1 X106.664 Y106.704 E5.90119
G0 F3600 X106.998 Y106.38
G1 F1050 X107.655 Y105.92 E5.9412
G1 X108.382 Y105.581 E5.98122
G1 X109.248 Y105.355 E6.02588
G1 X110.004 Y105.292 E6.06372
G1 X110.805 Y105.362 E6.10384
G1 X111.613 Y105.579 E6.14558
G1 X112.34 Y105.917 E6.18558
G1 X113.002 Y106.38 E6.22588
G1 X106.998 Y106.38 E6.52542
G0 F3600 X106.142 Y107.339
G1 F1050 X105.797 Y107.919 E6.55909
G1 X105.917 Y107.66 E6.57333
G1 X106.142 Y107.339 E6.59289
G0 F3600 X105.765 Y107.987
G1 F1050 X105.51 Y108.643 E6.628
G1 X105.579 Y108.387 E6.64123
G1 X105.765 Y107.987 E6.66324
G0 F3600 X105.481 Y108.752
G1 F1050 X105.339 Y109.458 E6.69916
G1 X105.314 Y110.247 E6.73855
G1 X105.411 Y110.967 E6.77479
G1 X105.355 Y110.752 E6.78588
G1 X105.292 Y109.996 E6.82372
G1 X105.362 Y109.195 E6.86384
G1 X105.481 Y108.752 E6.88672
G0 F3600 X105.465 Y111.174
G1 F1050 X105.657 Y111.781 E6.91849
G1 X105.581 Y111.618 E6.92746
G1 X105.465 Y111.174 E6.95035
G0 F3600 X105.667 Y111.802
G1 F1050 X106.021 Y112.487 E6.98882
G1 X106.495 Y113.12 E7.02828
G1 X107.069 Y113.665 E7.06776
G1 X107.727 Y114.106 E7.10728
G1 X108.446 Y114.428 E7.14659
G1 X109.211 Y114.627 E7.18602
G1 X110 Y114.694 E7.22553
G1 X110.789 Y114.627 E7.26503
G1 X111.554 Y114.428 E7.30447
G1 X112.273 Y114.106 E7.34377
G1 X112.931 Y113.665 E7.38329
G1 X113.505 Y113.12 E7.42278
G1 X113.979 Y112.487 E7.46223
G1 X114.341 Y111.786 E7.5016
G1 X114.563 Y111.082 E7.53842
G1 X114.421 Y111.613 E7.56585
G1 X114.083 Y112.34 E7.60584
G1 X113.596 Y113.036 E7.64822
G1 X113.035 Y113.597 E7.68781
G1 X112.343 Y114.081 E7.72994
G1 X111.613 Y114.42 E7.77009
G1 X110.786 Y114.639 E7.81277
G1 X110 Y114.708 E7.85214
G1 X109.196 Y114.638 E7.8924
G1 X108.387 Y114.421 E7.93419
G1 X107.66 Y114.083 E7.97419
G1 X106.964 Y113.596 E8.01657
G1 X106.403 Y113.035 E8.05615
G1 X105.92 Y112.345 E8.09817
G1 X105.667 Y111.802 E8.12805
G0 F3600 X105.688 Y109.499
G0 X105.833 Y108.781
G0 X106.098 Y108.099
G0 X106.472 Y107.47
G0 X107.104 Y106.734
G0 X113.336 Y106.704
G1 F1050 X113.597 Y106.965 E8.14647
G1 X113.773 Y107.217 E8.1618
G1 X113.336 Y106.704 E8.19543
M104 S195
G0 F3600 X113.856 Y107.335
G1 F1050 X114.08 Y107.655 E8.21491
G1 X114.201 Y107.915 E8.22922
G1 X113.856 Y107.335 E8.26289
G0 F3600 X114.237 Y107.992
G1 F1050 X114.419 Y108.382 E8.28436
G1 X114.48 Y108.619 E8.29657
G1 X114.237 Y107.992 E8.33012
G0 F3600 X114.532 Y108.817
G1 F1050 X114.645 Y109.248 E8.35235
G1 X114.708 Y110.004 E8.3902
G1 X114.638 Y110.805 E8.43031
G1 X114.583 Y111.011 E8.44095
G1 X114.686 Y110.247 E8.47941
G1 X114.661 Y109.458 E8.51879
G1 X114.532 Y108.817 E8.55141
G0 F3600 X113.528 Y107.47
G0 X112.96 Y106.808
G0 X111.856 Y106.199
G0 X111.603 Y105.946
G1 F1050 X110.953 Y105.862 E8.59294
G1 X110.546 Y105.455
G0 F3600 X109.998 Y105.472
G1 F1050 X110.725 Y106.199 E8.64423
G1 X110.795 Y106.269
G0 F3600 X110.159 Y106.199
G1 F1050 X109.475 Y105.515 E8.69249
G1 X109.405 Y105.445
G0 F3600 X108.999 Y105.605
G1 F1050 X109.593 Y106.199 E8.7344
G1 X109.663 Y106.269
G0 F3600 X108.789 Y105.961
G1 F1050 X108.306 Y106.043 E8.76221
G1 X107.83 Y106.133 E8.77785
G0 F3600 X107.764 Y106.067
G0 X107.079 Y106.68
G0 X107.12 Y106.77
;TIME_ELAPSED:24.820351
;LAYER:1
M140 S64
M106 S255
G0 F5400 X107.12 Y106.77 Z0.6
;TYPE:WALL-INNER
G1 F1575 X106.504 Y107.493 E8.82524
G1 X106.133 Y108.116 E8.86142
G1 X105.871 Y108.792 E8.89759
G1 X105.727 Y109.503 E8.93378
G1 X105.704 Y110.227 E8.96992
G1 X105.802 Y110.944 E9.00602
G1 X106.021 Y111.636 E9.04223
G1 X106.353 Y112.28 E9.07838
G1 X106.787 Y112.86 E9.11452
G1 X107.313 Y113.359 E9.15069
G1 X107.916 Y113.763 E9.18691
G1 X108.576 Y114.059 E9.22299
G1 X109.277 Y114.241 E9.25913
G1 X110 Y114.302 E9.29532
G1 X110.723 Y114.241 E9.33152
G1 X111.424 Y114.059 E9.36766
G1 X112.084 Y113.763 E9.40374
G1 X112.687 Y113.359 E9.43995
G1 X113.213 Y112.86 E9.47613
G1 X113.647 Y112.28 E9.51227
G1 X113.979 Y111.636 E9.54841
G1 X114.198 Y110.944 E9.58463
G1 X114.296 Y110.227 E9.62073
G1 X114.273 Y109.503 E9.65687
G1 X114.129 Y108.792 E9.69306
G1 X113.867 Y108.116 E9.72923
G1 X113.496 Y107.493 E9.76541
G1 X112.88 Y106.77 E9.81279
G1 X107.12 Y106.77 E10.10016
G0 F5400 X107.079 Y106.68
G0 X110.271 Y105.014
G0 X110.278 Y104.915
G1 F1575 X110.876 Y104.977 E10.13016
G1 X111.586 Y105.16 E10.16674
G1 X111.732 Y105.206 E10.17437
G1 X112.549 Y105.586 E10.21933
G1 X113.277 Y106.096 E10.26367
G1 X113.909 Y106.729 E10.3083
G1 X114.421 Y107.464 E10.35299
G1 X114.793 Y108.261 E10.39687
G1 X114.85 Y108.451 E10.40676
G1 X115.025 Y109.133 E10.44189
G1 X115.035 Y109.2 E10.44527
G1 X115.098 Y110.01 E10.4858
G1 X115.085 Y110.274 E10.49899
G1 X115.023 Y110.876 E10.52918
G1 X114.842 Y111.579 E10.5654
G1 X114.794 Y111.732 E10.5734
G1 X114.414 Y112.549 E10.61835
G1 X113.904 Y113.277 E10.6627
G1 X113.271 Y113.909 E10.70733
G1 X112.536 Y114.421 E10.75202
G1 X111.739 Y114.793 E10.7959
G1 X111.545 Y114.851 E10.806
G1 X110.864 Y115.026 E10.84108
G1 X109.99 Y115.098 E10.88483
G1 X109.722 Y115.085 E10.89822
G1 X109.124 Y115.023 E10.92821
G1 X108.414 Y114.84 E10.96479
G1 X108.268 Y114.794 E10.97243
G1 X107.451 Y114.414 E11.01738
G1 X106.723 Y113.904 E11.06173
G1 X106.091 Y113.271 E11.10635
G1 X105.579 Y112.536 E11.15104
G1 X105.207 Y111.739 E11.19492
G1 X105.144 Y111.528 E11.20591
G1 X104.975 Y110.866 E11.23999
G1 X104.965 Y110.801 E11.24328
G1 X104.902 Y109.99 E11.28386
G1 X104.915 Y109.726 E11.29705
G1 X104.976 Y109.129 E11.32698
G1 X105.158 Y108.421 E11.36346
G1 X105.206 Y108.268 E11.37146
G1 X105.586 Y107.451 E11.41641
G1 X106.096 Y106.723 E11.46075
G1 X106.729 Y106.091 E11.50538
G1 X107.464 Y105.579 E11.55007
G1 X108.261 Y105.207 E11.59395
G1 X108.455 Y105.149 E11.60405
G1 X109.136 Y104.974 E11.63913
G1 X110.01 Y104.902 E11.68288
G1 X110.278 Y104.915 E11.69627
G0 F5400 X110.311 Y104.517
;TYPE:WALL-OUTER
G1 F1050 X110.828 Y104.565 E11.72217
G1 X110.949 Y104.583 E11.72828
G1 X111.697 Y104.776 E11.76682
G1 X111.881 Y104.833 E11.77643
G1 X112.748 Y105.237 E11.82415
G1 X113.536 Y105.789 E11.87215
G1 X114.216 Y106.47 E11.92016
G1 X114.767 Y107.261 E11.96825
G1 X115.168 Y108.119 E12.0155
G1 X115.237 Y108.351 E12.02758
G1 X115.419 Y109.059 E12.06405
G1 X115.433 Y109.155 E12.06889
G1 X115.499 Y110 E12.11118
G1 X115.483 Y110.311 E12.12671
G1 X115.435 Y110.828 E12.15262
G1 X115.417 Y110.949 E12.15872
G1 X115.224 Y111.697 E12.19726
G1 X115.167 Y111.881 E12.20687
G1 X114.763 Y112.748 E12.25459
G1 X114.211 Y113.536 E12.30259
G1 X113.53 Y114.216 E12.3506
G1 X112.739 Y114.767 E12.3987
G1 X111.881 Y115.168 E12.44595
G1 X111.649 Y115.237 E12.45802
G1 X110.941 Y115.419 E12.49449
G1 X110.841 Y115.433 E12.49953
G1 X110 Y115.499 E12.54162
G1 X109.689 Y115.483 E12.55715
G1 X109.172 Y115.435 E12.58306
G1 X109.051 Y115.417 E12.58916
G1 X108.303 Y115.224 E12.6277
G1 X108.119 Y115.167 E12.63731
G1 X107.252 Y114.763 E12.68503
G1 X106.464 Y114.211 E12.73303
G1 X105.784 Y113.53 E12.78104
G1 X105.233 Y112.739 E12.82914
G1 X104.832 Y111.881 E12.87639
G1 X104.761 Y111.642 E12.88883
G1 X104.581 Y110.94 E12.92498
G1 X104.567 Y110.841 E12.92997
G1 X104.501 Y110 E12.97206
G1 X104.517 Y109.689 E12.98759
G1 X104.565 Y109.172 E13.0135
G1 X104.584 Y109.047 E13.01981
G1 X104.776 Y108.303 E13.05814
G1 X104.833 Y108.119 E13.06775
G1 X105.237 Y107.252 E13.11547
G1 X105.789 Y106.464 E13.16347
G1 X106.47 Y105.784 E13.21148
G1 X107.261 Y105.233 E13.25958
G1 X108.119 Y104.832 E13.30683
G1 X108.351 Y104.763 E13.3189
G1 X109.059 Y104.581 E13.35537
G1 X109.159 Y104.567 E13.36041
G1 X110 Y104.501 E13.4025
G1 X110.311 Y104.517 E13.41803
G0 F5400 X110.51 Y104.535
G0 X110.458 Y105.033
G0 X107.305 Y106.67
G0 X107.305 Y107.17
G1 F1050 X106.83 Y107.727 E13.45456
G1 X106.494 Y108.292 E13.48735
G1 X106.256 Y108.905 E13.52016
G1 X106.126 Y109.549 E13.55294
G1 X106.105 Y110.206 E13.58573
G1 X106.194 Y110.856 E13.61846
G1 X106.392 Y111.483 E13.65127
G1 X106.693 Y112.067 E13.68404
G1 X107.087 Y112.593 E13.71683
G1 X107.564 Y113.046 E13.74965
G1 X108.11 Y113.412 E13.78244
G1 X108.709 Y113.68 E13.81518
G1 X109.345 Y113.845 E13.84796
G1 X110 Y113.901 E13.88076
G1 X110.655 Y113.845 E13.91356
G1 X111.291 Y113.68 E13.94634
G1 X111.89 Y113.412 E13.97908
G1 X112.436 Y113.046 E14.01187
G1 X112.913 Y112.593 E14.04469
G1 X113.307 Y112.067 E14.07748
G1 X113.608 Y111.483 E14.11026
G1 X113.806 Y110.856 E14.14306
G1 X113.895 Y110.206 E14.17579
G1 X113.874 Y109.549 E14.20859
G1 X113.744 Y108.905 E14.24136
G1 X113.506 Y108.292 E14.27417
G1 X113.17 Y107.727 E14.30697
G1 X112.695 Y107.17 E14.34349
G1 X107.305 Y107.17 E14.6124
G0 F5400 X107.176 Y107.322
G0 X106.65 Y106.721
;TYPE:SKIN
G1 F1050 X106.228 Y107.216 E14.64485
G1 X106.4 Y106.97 E14.65982
G1 X106.65 Y106.721 E14.67743
G0 F5400 X106.997 Y106.38
G1 F1050 X107.661 Y105.916 E14.71784
G1 X108.397 Y105.573 E14.75835
G1 X108.552 Y105.527 E14.76642
G1 X109.206 Y105.359 E14.80011
G1 X110.008 Y105.292 E14.84026
G1 X110.255 Y105.305 E14.8526
G1 X110.804 Y105.361 E14.88013
G1 X111.485 Y105.537 E14.91522
G1 X111.598 Y105.573 E14.92114
G1 X112.347 Y105.921 E14.96234
G1 X113.001 Y106.38 E15.0022
G1 X106.997 Y106.38 E15.30174
G0 F5400 X106.144 Y107.335
G1 F1050 X105.802 Y107.91 E15.33512
G1 X105.921 Y107.653 E15.34925
G1 X106.144 Y107.335 E15.36863
G0 F5400 X105.76 Y108.002
G1 F1050 X105.495 Y108.682 E15.40504
G1 X105.339 Y109.458 E15.44453
G1 X105.314 Y110.247 E15.48391
G1 X105.42 Y111.03 E15.52333
G1 X105.659 Y111.786 E15.56289
G1 X106.021 Y112.487 E15.60225
G1 X106.495 Y113.12 E15.6417
G1 X107.069 Y113.665 E15.68119
G1 X107.727 Y114.106 E15.72071
G1 X108.446 Y114.428 E15.76002
G1 X109.211 Y114.627 E15.79945
G1 X110 Y114.694 E15.83896
G1 X110.789 Y114.627 E15.87846
G1 X111.554 Y114.428 E15.9179
G1 X112.273 Y114.106 E15.9572
G1 X112.931 Y113.665 E15.99672
G1 X113.505 Y113.12 E16.03621
G1 X113.979 Y112.487 E16.07566
G1 X114.322 Y111.823 E16.11295
G1 X114.079 Y112.347 E16.14177
G1 X113.6 Y113.03 E16.18338
G1 X113.022 Y113.607 E16.22413
G1 X112.339 Y114.084 E16.26569
G1 X111.603 Y114.427 E16.3062
G1 X111.448 Y114.473 E16.31427
G1 X110.794 Y114.641 E16.34796
G1 X109.992 Y114.708 E16.38811
G1 X109.745 Y114.695 E16.40045
G1 X109.196 Y114.639 E16.42798
G1 X108.515 Y114.463 E16.46307
G1 X108.402 Y114.427 E16.46899
G1 X107.653 Y114.079 E16.51019
G1 X106.97 Y113.6 E16.55181
G1 X106.393 Y113.022 E16.59256
G1 X105.915 Y112.336 E16.63427
G1 X105.573 Y111.603 E16.67463
G1 X105.518 Y111.417 E16.6843
G1 X105.351 Y110.744 E16.7189
G1 X105.292 Y109.993 E16.75648
G1 X105.305 Y109.746 E16.76882
G1 X105.362 Y109.196 E16.79641
G1 X105.53 Y108.538 E16.83029
G1 X105.572 Y108.404 E16.83729
G1 X105.76 Y108.002 E16.85943
G0 F5400 X107.104 Y106.734
G0 X113.351 Y106.722
G1 F1050 X113.607 Y106.978 E16.8775
G1 X113.776 Y107.221 E16.89226
G1 X113.351 Y106.722 E16.92496
G0 F5400 X113.854 Y107.332
G1 F1050 X114.084 Y107.661 E16.94499
G1 X114.206 Y107.924 E16.95946
G1 X113.854 Y107.332 E16.99382
G0 F5400 X114.231 Y107.977
G1 F1050 X114.425 Y108.393 E17.01672
G1 X114.472 Y108.548 E17.0248
G1 X114.642 Y109.21 E17.0589
G1 X114.708 Y110.005 E17.0987
G1 X114.695 Y110.253 E17.11109
G1 X114.639 Y110.799 E17.13847
G1 X114.47 Y111.462 E17.1726
G1 X114.428 Y111.596 E17.17961
G1 X114.345 Y111.773 E17.18936
G1 X114.58 Y111.03 E17.22824
G1 X114.686 Y110.247 E17.26766
