;FLAVOR:Marlin
;TIME:460
;Filament used: 0.406489m
;Layer height: 0.3
;Generated with Cura_SteamEngine 3.4.1
M190 S64
M104 S200
M109 S200
M82 ;absolute extrusion mode
G21 ;metric values
G90 ;absolute positioning
M82 ;set extruder to absolute mode
M107 ;start with the fan off
G28 X0 Y0 ;move X/Y to min endstops
G28 Z0 ;move Z to min endstops
G1 Z15.0 F9000 ;move the platform down 15mm
G92 E0 ;zero the extruded length
G1 F200 E3 ;extrude 3mm of feed stock
G92 E0 ;zero the extruded length again
G1 F9000
;Put printing message on LCD screen
M117 Printing...
G92 E0
G1 F1500 E-5
;LAYER_COUNT:55
;LAYER:0
M107
G0 F3600 X107.138 Y106.72 Z0.3
;TYPE:WALL-INNER
G1 F1500 E0
G1 F1050 X106.55 Y107.383 E0.04421
G1 X106.192 Y107.94 E0.07725
G1 X105.924 Y108.544 E0.11021
G1 X105.75 Y109.182 E0.1432
G1 X105.676 Y109.84 E0.17624
G1 X105.703 Y110.501 E0.20924
G1 X105.83 Y111.149 E0.24219
G1 X106.054 Y111.771 E0.27517
G1 X106.372 Y112.351 E0.30817
G1 X106.773 Y112.877 E0.34117
G1 X107.251 Y113.336 E0.37423
G1 X107.792 Y113.716 E0.40721
G1 X108.384 Y114.008 E0.44015
G1 X109.015 Y114.208 E0.47317
G1 X109.669 Y114.309 E0.50619
G1 X110.331 Y114.309 E0.53921
G1 X110.985 Y114.208 E0.57223
G1 X111.616 Y114.008 E0.60525
G1 X112.208 Y113.716 E0.63819
G1 X112.749 Y113.336 E0.67117
G1 X113.227 Y112.877 E0.70423
G1 X113.628 Y112.351 E0.73723
G1 X113.946 Y111.771 E0.77023
G1 X114.17 Y111.149 E0.80321
G1 X114.297 Y110.501 E0.83616
G1 X114.324 Y109.84 E0.86916
G1 X114.25 Y109.182 E0.9022
G1 X114.076 Y108.544 E0.93519
G1 X113.808 Y107.94 E0.96815
G1 X113.45 Y107.383 E1.00119
G1 X112.862 Y106.72 E1.0454
G1 X107.138 Y106.72 E1.33097
G0 F3600 X107.097 Y106.629
G0 X110.92 Y105.055
G0 X110.938 Y104.957
G1 F1050 X111.556 Y105.112 E1.36276
G1 X112.136 Y105.338 E1.39381
G1 X112.697 Y105.638 E1.42555
G1 X113.213 Y106.003 E1.45709
G1 X113.68 Y106.429 E1.48862
G1 X114.087 Y106.903 E1.51979
G1 X114.44 Y107.438 E1.55177
G1 X114.717 Y107.995 E1.5828
G1 X114.927 Y108.592 E1.61438
G1 X115.064 Y109.213 E1.64611
G1 X115.121 Y109.831 E1.67707
G1 X115.102 Y110.469 E1.70891
G1 X115.004 Y111.095 E1.74052
G1 X114.833 Y111.698 E1.77179
G1 X114.587 Y112.279 E1.80327
G1 X114.276 Y112.817 E1.83427
G1 X113.891 Y113.329 E1.86623
G1 X113.452 Y113.781 E1.89767
G1 X112.955 Y114.181 E1.9295
G1 X112.431 Y114.505 E1.96023
G1 X111.849 Y114.773 E1.9922
G1 X111.251 Y114.963 E2.02351
G1 X110.629 Y115.08 E2.05508
G1 X110 Y115.118 E2.08652
G1 X109.371 Y115.08 E2.11796
G1 X108.749 Y114.963 E2.14953
G1 X108.151 Y114.773 E2.18084
G1 X107.569 Y114.505 E2.2128
G1 X107.045 Y114.181 E2.24354
G1 X106.548 Y113.781 E2.27537
G1 X106.109 Y113.329 E2.3068
G1 X105.724 Y112.817 E2.33876
G1 X105.413 Y112.279 E2.36977
G1 X105.167 Y111.698 E2.40124
G1 X104.996 Y111.095 E2.43251
G1 X104.898 Y110.469 E2.46413
G1 X104.879 Y109.831 E2.49597
G1 X104.936 Y109.213 E2.52693
G1 X105.073 Y108.592 E2.55866
G1 X105.283 Y107.995 E2.59023
G1 X105.56 Y107.438 E2.62127
G1 X105.913 Y106.903 E2.65325
G1 X106.32 Y106.429 E2.68442
G1 X106.787 Y106.003 E2.71595
G1 X107.303 Y105.638 E2.74749
G1 X107.864 Y105.338 E2.77922
G1 X108.444 Y105.112 E2.81028
G1 X109.062 Y104.957 E2.84207
G1 X109.682 Y104.88 E2.87324
G1 X110.318 Y104.88 E2.90497
G1 X110.938 Y104.957 E2.93614
G0 F3600 X111.011 Y104.563
;TYPE:WALL-OUTER
G1 F1050 X111.68 Y104.731 E2.97055
G1 X112.305 Y104.974 E3.004
G1 X112.908 Y105.297 E3.03813
G1 X113.462 Y105.689 E3.07199
G1 X113.968 Y106.15 E3.10614
G1 X114.409 Y106.665 E3.13997
G1 X114.785 Y107.233 E3.17395
G1 X115.086 Y107.839 E3.20771
G1 X115.314 Y108.487 E3.24198
G1 X115.459 Y109.146 E3.27564
G1 X115.522 Y109.822 E3.30952
G1 X115.501 Y110.502 E3.34346
G1 X115.395 Y111.184 E3.37789
G1 X115.212 Y111.828 E3.41129
G1 X114.946 Y112.457 E3.44536
G1 X114.606 Y113.045 E3.47925
G1 X114.197 Y113.588 E3.51317
G1 X113.721 Y114.078 E3.54725
G1 X113.192 Y114.504 E3.58113
G1 X112.618 Y114.859 E3.61481
G1 X111.996 Y115.146 E3.64898
G1 X111.347 Y115.352 E3.68295
G1 X110.679 Y115.477 E3.71686
G1 X110 Y115.519 E3.7508
G1 X109.321 Y115.477 E3.78474
G1 X108.653 Y115.352 E3.81864
G1 X108.004 Y115.146 E3.85261
G1 X107.382 Y114.859 E3.88679
G1 X106.808 Y114.504 E3.92046
G1 X106.279 Y114.078 E3.95435
G1 X105.803 Y113.588 E3.98843
G1 X105.394 Y113.045 E4.02234
G1 X105.054 Y112.457 E4.05623
G1 X104.788 Y111.828 E4.0903
G1 X104.605 Y111.184 E4.1237
G1 X104.499 Y110.502 E4.15814
G1 X104.478 Y109.822 E4.19208
G1 X104.541 Y109.146 E4.22595
G1 X104.686 Y108.487 E4.25961
G1 X104.914 Y107.839 E4.29389
G1 X105.215 Y107.233 E4.32764
G1 X105.591 Y106.665 E4.36163
G1 X106.032 Y106.15 E4.39545
G1 X106.538 Y105.689 E4.4296
G1 X107.092 Y105.297 E4.46346
G1 X107.695 Y104.974 E4.49759
G1 X108.32 Y104.731 E4.53105
G1 X108.989 Y104.563 E4.56546
G1 X109.657 Y104.48 E4.59904
G1 X110.343 Y104.48 E4.63327
G1 X111.011 Y104.563 E4.66685
G0 F3600 X111.205 Y104.611
G0 X111.082 Y105.096
G0 X107.318 Y106.62
G0 X107.318 Y107.12
G1 F1050 X106.87 Y107.625 E4.70053
G1 X106.545 Y108.13 E4.73049
G1 X106.302 Y108.678 E4.7604
G1 X106.144 Y109.257 E4.79034
G1 X106.077 Y109.854 E4.82031
G1 X106.101 Y110.454 E4.85027
G1 X106.217 Y111.042 E4.88017
G1 X106.42 Y111.606 E4.91007
G1 X106.708 Y112.133 E4.94004
G1 X107.072 Y112.61 E4.96997
G1 X107.506 Y113.026 E4.99996
G1 X107.997 Y113.371 E5.0299
G1 X108.534 Y113.636 E5.05978
G1 X109.106 Y113.817 E5.08971
G1 X109.7 Y113.909 E5.1197
G1 X110.3 Y113.909 E5.14963
G1 X110.894 Y113.817 E5.17962
G1 X111.466 Y113.636 E5.20955
G1 X112.003 Y113.371 E5.23943
G1 X112.494 Y113.026 E5.26937
G1 X112.928 Y112.61 E5.29936
G1 X113.292 Y112.133 E5.3293
G1 X113.58 Y111.606 E5.35926
G1 X113.783 Y111.042 E5.38916
G1 X113.899 Y110.454 E5.41906
G1 X113.923 Y109.854 E5.44902
G1 X113.856 Y109.257 E5.47899
G1 X113.698 Y108.678 E5.50894
G1 X113.455 Y108.13 E5.53884
G1 X113.13 Y107.625 E5.5688
G1 X112.682 Y107.12 E5.60248
G1 X107.318 Y107.12 E5.87009
G0 F3600 X107.186 Y107.269
G0 X106.814 Y106.936
G0 X106.6 Y106.701
;TYPE:SKIN
G1 F1050 X106.773 Y106.544 E5.88175
G1 X106.238 Y107.147 E5.92197
G1 X105.847 Y107.755 E5.95803
G1 X105.555 Y108.413 E5.99395
G1 X105.366 Y109.108 E6.02988
G1 X105.286 Y109.826 E6.06592
G1 X105.315 Y110.546 E6.10187
G1 X105.453 Y111.253 E6.13781
G1 X105.697 Y111.931 E6.17376
G1 X106.044 Y112.564 E6.20977
G1 X106.481 Y113.138 E6.24577
G1 X107.003 Y113.638 E6.28183
G1 X107.593 Y114.053 E6.31782
G1 X108.238 Y114.371 E6.35369
G1 X108.926 Y114.589 E6.3897
G1 X109.639 Y114.699 E6.42569
G1 X110.361 Y114.699 E6.46171
G1 X111.074 Y114.589 E6.49771
G1 X111.762 Y114.371 E6.53371
G1 X112.407 Y114.053 E6.56959
G1 X112.997 Y113.638 E6.60558
G1 X113.519 Y113.138 E6.64164
G1 X113.956 Y112.564 E6.67763
G1 X114.303 Y111.931 E6.71365
G1 X114.547 Y111.253 E6.74959
G1 X114.685 Y110.546 E6.78553
G1 X114.714 Y109.826 E6.82148
G1 X114.634 Y109.108 E6.85753
G1 X114.445 Y108.413 E6.89346
G1 X114.153 Y107.755 E6.92937
G1 X113.762 Y107.147 E6.96544
G1 X113.227 Y106.544 E7.00566
G1 X113.4 Y106.701 E7.01731
G1 X113.777 Y107.141 E7.04622
G1 X114.103 Y107.633 E7.07566
G1 X114.355 Y108.144 E7.10409
G1 X114.551 Y108.698 E7.13341
G1 X114.679 Y109.277 E7.16299
G1 X114.731 Y109.837 E7.19105
G1 X114.712 Y110.429 E7.2206
G1 X114.621 Y111.017 E7.25028
G1 X114.465 Y111.57 E7.27895
G1 X114.236 Y112.109 E7.30817
G1 X113.954 Y112.597 E7.33629
G1 X113.589 Y113.081 E7.36653
G1 X113.194 Y113.487 E7.39479
G1 X112.732 Y113.86 E7.42441
G1 X112.252 Y114.157 E7.45257
G1 X111.702 Y114.411 E7.4828
G1 X111.158 Y114.582 E7.51125
G1 X110.581 Y114.692 E7.54055
G1 X110 Y114.726 E7.56959
G1 X109.419 Y114.692 E7.59863
G1 X108.842 Y114.582 E7.62793
G1 X108.298 Y114.411 E7.65638
G1 X107.748 Y114.157 E7.6866
G1 X107.268 Y113.86 E7.71477
G1 X106.806 Y113.487 E7.74439
G1 X106.411 Y113.081 E7.77265
G1 X106.046 Y112.597 E7.80289
G1 X105.764 Y112.109 E7.83101
G1 X105.535 Y111.57 E7.86023
G1 X105.379 Y111.017 E7.88889
G1 X105.288 Y110.429 E7.91858
G1 X105.269 Y109.837 E7.94813
G1 X105.321 Y109.277 E7.97619
G1 X105.449 Y108.698 E8.00577
G1 X105.645 Y108.144 E8.03509
G1 X105.897 Y107.633 E8.06352
G1 X106.223 Y107.141 E8.09296
G1 X106.6 Y106.701 E8.12187
G0 F3600 X107.008 Y106.33
M104 S195
G1 F1050 X107.505 Y105.972 E8.15243
G1 X108.029 Y105.692 E8.18207
G1 X108.563 Y105.484 E8.21066
G1 X109.132 Y105.341 E8.23993
G1 X109.706 Y105.27 E8.26878
G1 X110.294 Y105.27 E8.29812
G1 X110.868 Y105.341 E8.32697
G1 X111.437 Y105.484 E8.35625
G1 X111.971 Y105.692 E8.38484
G1 X112.495 Y105.972 E8.41448
G1 X112.992 Y106.33 E8.44504
G1 X107.008 Y106.33 E8.74358
G0 F3600 X107.795 Y106.098
G1 F1050 X108.263 Y106 E8.75771
G1 X108.749 Y105.921 E8.7843
G1 X109.253 Y105.859 E8.82098
G1 X108.893 Y105.498
G0 F3600 X109.443 Y105.483
G1 F1050 X110.109 Y106.15 E8.868
G1 X110.179 Y106.22
G0 F3600 X110.675 Y106.15
G1 F1050 X109.975 Y105.45 E8.91739
G1 X109.905 Y105.38
G0 F3600 X110.577 Y105.486
G1 F1050 X111.241 Y106.15 E8.96424
G1 X111.311 Y106.22
G0 F3600 X111.548 Y105.891
G1 F1050 X112.33 Y106.108 E8.98539
G0 F3600 X112.372 Y106.15
G0 X107.097 Y106.629
G0 X107.138 Y106.72
;TIME_ELAPSED:24.572689
;LAYER:1
M140 S64
M106 S255
G0 F5400 X107.138 Y106.72 Z0.6
;TYPE:WALL-INNER
G1 F1575 X106.55 Y107.383 E9.0296
G1 X106.192 Y107.94 E9.06264
G1 X105.924 Y108.544 E9.09561
G1 X105.75 Y109.182 E9.1286
G1 X105.676 Y109.84 E9.16163
G1 X105.703 Y110.501 E9.19464
G1 X105.83 Y111.149 E9.22758
G1 X106.054 Y111.771 E9.26056
G1 X106.372 Y112.351 E9.29356
G1 X106.773 Y112.877 E9.32656
G1 X107.251 Y113.336 E9.35962
G1 X107.792 Y113.716 E9.39261
G1 X108.384 Y114.008 E9.42554
G1 X109.015 Y114.208 E9.45856
G1 X109.669 Y114.309 E9.49158
G1 X110.331 Y114.309 E9.52461
G1 X110.985 Y114.208 E9.55762
G1 X111.616 Y114.008 E9.59065
G1 X112.208 Y113.716 E9.62358
G1 X112.749 Y113.336 E9.65656
G1 X113.227 Y112.877 E9.68962
G1 X113.628 Y112.351 E9.72262
G1 X113.946 Y111.771 E9.75562
G1 X114.17 Y111.149 E9.7886
G1 X114.297 Y110.501 E9.82155
G1 X114.324 Y109.84 E9.85455
G1 X114.25 Y109.182 E9.88759
G1 X114.076 Y108.544 E9.92058
G1 X113.808 Y107.94 E9.95355
G1 X113.45 Y107.383 E9.98658
G1 X112.862 Y106.72 E10.03079
G1 X107.138 Y106.72 E10.31636
G0 F5400 X107.097 Y106.629
G0 X110.92 Y105.055
G0 X110.938 Y104.957
G1 F1575 X111.556 Y105.112 E10.34815
G1 X112.136 Y105.338 E10.37921
G1 X112.697 Y105.638 E10.41095
G1 X113.213 Y106.003 E10.44248
G1 X113.68 Y106.429 E10.47402
G1 X114.087 Y106.903 E10.50518
G1 X114.44 Y107.438 E10.53716
G1 X114.717 Y107.995 E10.5682
G1 X114.927 Y108.592 E10.59977
G1 X115.064 Y109.213 E10.6315
G1 X115.121 Y109.831 E10.66246
G1 X115.102 Y110.469 E10.69431
G1 X115.004 Y111.095 E10.72592
G1 X114.833 Y111.698 E10.75719
G1 X114.587 Y112.279 E10.78866
G1 X114.276 Y112.817 E10.81967
G1 X113.891 Y113.329 E10.85163
G1 X113.452 Y113.781 E10.88306
G1 X112.955 Y114.181 E10.91489
G1 X112.431 Y114.505 E10.94563
G1 X111.849 Y114.773 E10.97759
G1 X111.251 Y114.963 E11.0089
G1 X110.629 Y115.08 E11.04047
G1 X110 Y115.118 E11.07191
G1 X109.371 Y115.08 E11.10335
G1 X108.749 Y114.963 E11.13493
G1 X108.151 Y114.773 E11.16623
G1 X107.569 Y114.505 E11.1982
G1 X107.045 Y114.181 E11.22893
G1 X106.548 Y113.781 E11.26076
G1 X106.109 Y113.329 E11.2922
G1 X105.724 Y112.817 E11.32416
G1 X105.413 Y112.279 E11.35516
G1 X105.167 Y111.698 E11.38664
G1 X104.996 Y111.095 E11.41791
G1 X104.898 Y110.469 E11.44952
G1 X104.879 Y109.831 E11.48136
G1 X104.936 Y109.213 E11.51233
G1 X105.073 Y108.592 E11.54405
G1 X105.283 Y107.995 E11.57563
G1 X105.56 Y107.438 E11.60666
G1 X105.913 Y106.903 E11.63864
G1 X106.32 Y106.429 E11.66981
G1 X106.787 Y106.003 E11.70135
G1 X107.303 Y105.638 E11.73288
G1 X107.864 Y105.338 E11.76462
G1 X108.444 Y105.112 E11.79567
G1 X109.062 Y104.957 E11.82746
G1 X109.682 Y104.88 E11.85863
G1 X110.318 Y104.88 E11.89036
G1 X110.938 Y104.957 E11.92153
G0 F5400 X111.011 Y104.563
;TYPE:WALL-OUTER
G1 F1050 X111.68 Y104.731 E11.95594
G1 X112.305 Y104.974 E11.9894
G1 X112.908 Y105.297 E12.02352
G1 X113.462 Y105.689 E12.05738
G1 X113.968 Y106.15 E12.09153
G1 X114.409 Y106.665 E12.12536
G1 X114.785 Y107.233 E12.15934
G1 X115.086 Y107.839 E12.1931
G1 X115.314 Y108.487 E12.22737
G1 X115.459 Y109.146 E12.26104
G1 X115.522 Y109.822 E12.29491
G1 X115.501 Y110.502 E12.32885
G1 X115.395 Y111.184 E12.36328
G1 X115.212 Y111.828 E12.39669
G1 X114.946 Y112.457 E12.43076
G1 X114.606 Y113.045 E12.46464
G1 X114.197 Y113.588 E12.49856
G1 X113.721 Y114.078 E12.53264
G1 X113.192 Y114.504 E12.56653
G1 X112.618 Y114.859 E12.6002
G1 X111.996 Y115.146 E12.63437
G1 X111.347 Y115.352 E12.66834
G1 X110.679 Y115.477 E12.70225
G1 X110 Y115.519 E12.73619
G1 X109.321 Y115.477 E12.77013
G1 X108.653 Y115.352 E12.80404
G1 X108.004 Y115.146 E12.83801
G1 X107.382 Y114.859 E12.87218
G1 X106.808 Y114.504 E12.90585
G1 X106.279 Y114.078 E12.93974
G1 X105.803 Y113.588 E12.97382
G1 X105.394 Y113.045 E13.00774
G1 X105.054 Y112.457 E13.04162
G1 X104.788 Y111.828 E13.07569
G1 X104.605 Y111.184 E13.1091
G1 X104.499 Y110.502 E13.14353
G1 X104.478 Y109.822 E13.17747
G1 X104.541 Y109.146 E13.21134
G1 X104.686 Y108.487 E13.24501
G1 X104.914 Y107.839 E13.27928
G1 X105.215 Y107.233 E13.31304
G1 X105.591 Y106.665 E13.34702
G1 X106.032 Y106.15 E13.38085
G1 X106.538 Y105.689 E13.415
G1 X107.092 Y105.297 E13.44886
G1 X107.695 Y104.974 E13.48298
G1 X108.32 Y104.731 E13.51644
G1 X108.989 Y104.563 E13.55085
G1 X109.657 Y104.48 E13.58443
G1 X110.343 Y104.48 E13.61866
G1 X111.011 Y104.563 E13.65224
G0 F5400 X111.205 Y104.611
G0 X111.082 Y105.096
G0 X107.318 Y106.62
G0 X107.318 Y107.12
G1 F1050 X106.87 Y107.625 E13.68592
G1 X106.545 Y108.13 E13.71588
G1 X106.302 Y108.678 E13.74579
G1 X106.144 Y109.257 E13.77573
G1 X106.077 Y109.854 E13.8057
G1 X106.101 Y110.454 E13.83566
G1 X106.217 Y111.042 E13.86556
G1 X106.42 Y111.606 E13.89547
G1 X106.708 Y112.133 E13.92543
G1 X107.072 Y112.61 E13.95537
G1 X107.506 Y113.026 E13.98536
G1 X107.997 Y113.371 E14.0153
G1 X108.534 Y113.636 E14.04517
G1 X109.106 Y113.817 E14.0751
G1 X109.7 Y113.909 E14.10509
G1 X110.3 Y113.909 E14.13503
G1 X110.894 Y113.817 E14.16501
G1 X111.466 Y113.636 E14.19495
G1 X112.003 Y113.371 E14.22482
G1 X112.494 Y113.026 E14.25476
G1 X112.928 Y112.61 E14.28475
G1 X113.292 Y112.133 E14.31469
G1 X113.58 Y111.606 E14.34465
G1 X113.783 Y111.042 E14.37456
G1 X113.899 Y110.454 E14.40446
G1 X113.923 Y109.854 E14.43441
G1 X113.856 Y109.257 E14.46439
G1 X113.698 Y108.678 E14.49433
G1 X113.455 Y108.13 E14.52424
G1 X113.13 Y107.625 E14.5542
G1 X112.682 Y107.12 E14.58788
G1 X107.318 Y107.12 E14.85549
G0 F5400 X107.186 Y107.269
G0 X106.814 Y106.936
G0 X106.6 Y106.701
;TYPE:SKIN
G1 F1050 X106.773 Y106.544 E14.86714
G1 X106.238 Y107.147 E14.90736
G1 X105.847 Y107.755 E14.94342
G1 X105.555 Y108.413 E14.97934
G1 X105.366 Y109.108 E15.01527
G1 X105.286 Y109.826 E15.05132
G1 X105.315 Y110.546 E15.08727
G1 X105.453 Y111.253 E15.1232
G1 X105.697 Y111.931 E15.15915
G1 X106.044 Y112.564 E15.19517
G1 X106.481 Y113.138 E15.23116
G1 X107.003 Y113.638 E15.26722
G1 X107.593 Y114.053 E15.30321
G1 X108.238 Y114.371 E15.33909
G1 X108.926 Y114.589 E15.37509
G1 X109.639 Y114.699 E15.41109
G1 X110.361 Y114.699 E15.44711
G1 X111.074 Y114.589 E15.4831
G1 X111.762 Y114.371 E15.5191
G1 X112.407 Y114.053 E15.55498
G1 X112.997 Y113.638 E15.59097
G1 X113.519 Y113.138 E15.62703
G1 X113.956 Y112.564 E15.66302
G1 X114.303 Y111.931 E15.69904
G1 X114.547 Y111.253 E15.73499
G1 X114.685 Y110.546 E15.77093
G1 X114.714 Y109.826 E15.80688
G1 X114.634 Y109.108 E15.84292
G1 X114.445 Y108.413 E15.87885
G1 X114.153 Y107.755 E15.91477
G1 X113.762 Y107.147 E15.95083
G1 X113.227 Y106.544 E15.99105
G1 X113.4 Y106.701 E16.0027
G1 X113.777 Y107.141 E16.03161
G1 X114.103 Y107.633 E16.06106
G1 X114.355 Y108.144 E16.08948
G1 X114.551 Y108.698 E16.1188
G1 X114.679 Y109.277 E16.14838
G1 X114.731 Y109.837 E16.17644
G1 X114.712 Y110.429 E16.20599
G1 X114.621 Y111.017 E16.23568
G1 X114.465 Y111.57 E16.26434
G1 X114.236 Y112.109 E16.29356
G1 X113.954 Y112.597 E16.32168
G1 X113.589 Y113.081 E16.35192
G1 X113.194 Y113.487 E16.38018
G1 X112.732 Y113.86 E16.40981
G1 X112.252 Y114.157 E16.43797
G1 X111.702 Y114.411 E16.46819
G1 X111.158 Y114.582 E16.49664
G1 X110.581 Y114.692 E16.52595
G1 X110 Y114.726 E16.55498
