;FLAVOR:Marlin
;TIME:2069
;Filament used: 2.14255m
;Layer height: 0.3
;Generated with Cura_SteamEngine 3.4.1
M190 S64
M104 S200
M109 S200
M82 ;absolute extrusion mode
G21 ;metric values
G90 ;absolute positioning
M82 ;set extruder to absolute mode
M107 ;start with the fan off
G28 X0 Y0 ;move X/Y to min endstops
G28 Z0 ;move Z to min endstops
G1 Z15.0 F9000 ;move the platform down 15mm
G92 E0 ;zero the extruded length
G1 F200 E3 ;extrude 3mm of feed stock
G92 E0 ;zero the extruded length again
G1 F9000
;Put printing message on LCD screen
M117 Printing...
G92 E0
G1 F1500 E-5
;LAYER_COUNT:126
;LAYER:0
M107
G0 F3600 X107.243 Y106.81 Z0.3
;TYPE:WALL-INNER
G1 F1500 E0
G1 F1050 X106.628 Y107.509 E0.04645
G1 X106.255 Y108.115 E0.08195
G1 X105.991 Y108.775 E0.11742
G1 X105.842 Y109.47 E0.15288
G1 X105.811 Y110.18 E0.18833
G1 X105.903 Y110.885 E0.2238
G1 X106.111 Y111.565 E0.25928
G1 X106.431 Y112.198 E0.29467
G1 X106.854 Y112.771 E0.3302
G1 X107.367 Y113.263 E0.36566
G1 X107.956 Y113.66 E0.4011
G1 X108.603 Y113.952 E0.43651
G1 X109.291 Y114.132 E0.47199
G1 X110 Y114.192 E0.50749
G1 X110.709 Y114.132 E0.54299
G1 X111.397 Y113.952 E0.57847
G1 X112.044 Y113.66 E0.61388
G1 X112.633 Y113.263 E0.64932
G1 X113.146 Y112.771 E0.68478
G1 X113.569 Y112.198 E0.72032
G1 X113.889 Y111.565 E0.7557
G1 X114.097 Y110.885 E0.79118
G1 X114.189 Y110.18 E0.82665
G1 X114.158 Y109.47 E0.86211
G1 X114.009 Y108.775 E0.89757
G1 X113.745 Y108.115 E0.93303
G1 X113.372 Y107.509 E0.96853
G1 X112.757 Y106.81 E1.01498
G1 X107.243 Y106.81 E1.29008
G0 F3600 X107.202 Y106.719
G0 X110.849 Y105.185
G0 X110.866 Y105.087
G1 F1050 X111.706 Y105.312 E1.33346
G1 X112.487 Y105.677 E1.37647
G1 X113.211 Y106.184 E1.42057
G1 X113.819 Y106.792 E1.46347
G1 X114.32 Y107.509 E1.5071
G1 X114.684 Y108.287 E1.54996
G1 X114.916 Y109.163 E1.59517
G1 X114.988 Y110.005 E1.63733
G1 X114.913 Y110.866 E1.68045
G1 X114.689 Y111.704 E1.72372
G1 X114.322 Y112.49 E1.767
G1 X113.823 Y113.202 E1.81038
G1 X113.18 Y113.841 E1.8556
G1 X112.495 Y114.32 E1.8973
G1 X111.724 Y114.68 E1.93976
G1 X110.864 Y114.913 E1.98421
G1 X110 Y114.989 E2.02748
G1 X109.134 Y114.913 E2.07085
G1 X108.294 Y114.688 E2.11424
G1 X107.509 Y114.322 E2.15745
G1 X106.794 Y113.819 E2.20106
G1 X106.177 Y113.201 E2.24463
G1 X105.679 Y112.49 E2.28794
G1 X105.316 Y111.713 E2.33072
G1 X105.084 Y110.837 E2.37593
G1 X105.012 Y109.995 E2.4181
G1 X105.087 Y109.136 E2.46111
G1 X105.313 Y108.291 E2.50475
G1 X105.679 Y107.509 E2.54783
G1 X106.177 Y106.798 E2.59114
G1 X106.821 Y106.158 E2.63643
G1 X107.505 Y105.68 E2.67807
G1 X108.272 Y105.321 E2.72031
G1 X109.138 Y105.087 E2.76507
G1 X110 Y105.011 E2.80824
G1 X110.866 Y105.087 E2.85161
G0 F3600 X110.935 Y104.692
;TYPE:WALL-OUTER
G1 F1050 X111.843 Y104.935 E2.89851
G1 X112.693 Y105.332 E2.94531
G1 X113.468 Y105.875 E2.99252
G1 X114.126 Y106.533 E3.03895
G1 X114.667 Y107.307 E3.08606
G1 X115.063 Y108.155 E3.13275
G1 X115.312 Y109.094 E3.18122
G1 X115.39 Y110 E3.22659
G1 X115.308 Y110.935 E3.27341
G1 X115.066 Y111.841 E3.3202
G1 X114.668 Y112.693 E3.36711
G1 X114.13 Y113.462 E3.41394
G1 X113.438 Y114.149 E3.46258
G1 X112.696 Y114.667 E3.50773
G1 X111.863 Y115.057 E3.55362
G1 X110.935 Y115.308 E3.60158
G1 X110 Y115.39 E3.64841
G1 X109.065 Y115.308 E3.69523
G1 X108.157 Y115.065 E3.74213
G1 X107.307 Y114.668 E3.78893
G1 X106.534 Y114.125 E3.83606
G1 X105.87 Y113.46 E3.88295
G1 X105.333 Y112.693 E3.92966
G1 X104.937 Y111.845 E3.97635
G1 X104.688 Y110.906 E4.02482
G1 X104.61 Y110 E4.07018
G1 X104.692 Y109.065 E4.11701
G1 X104.936 Y108.155 E4.16401
G1 X105.332 Y107.307 E4.21071
G1 X105.87 Y106.538 E4.25753
G1 X106.562 Y105.851 E4.30618
G1 X107.304 Y105.333 E4.35132
G1 X108.134 Y104.944 E4.39706
G1 X109.065 Y104.692 E4.44517
G1 X110 Y104.61 E4.492
G1 X110.935 Y104.692 E4.53883
G0 F3600 X111.128 Y104.743
G0 X110.999 Y105.225
G0 X107.05 Y106.879
G0 X107.424 Y107.21
G1 F1050 X106.951 Y107.748 E4.57457
G1 X106.614 Y108.296 E4.60666
G1 X106.375 Y108.892 E4.6387
G1 X106.24 Y109.521 E4.67079
G1 X106.212 Y110.163 E4.70285
G1 X106.295 Y110.8 E4.7349
G1 X106.483 Y111.415 E4.76699
G1 X106.773 Y111.988 E4.79903
G1 X107.155 Y112.506 E4.83114
G1 X107.619 Y112.95 E4.86318
G1 X108.152 Y113.309 E4.89524
G1 X108.737 Y113.574 E4.92728
G1 X109.359 Y113.736 E4.95935
G1 X110 Y113.791 E4.99144
G1 X110.641 Y113.736 E5.02354
G1 X111.263 Y113.574 E5.05561
G1 X111.848 Y113.309 E5.08765
G1 X112.381 Y112.95 E5.11971
G1 X112.845 Y112.506 E5.15175
G1 X113.227 Y111.988 E5.18386
G1 X113.517 Y111.415 E5.2159
G1 X113.705 Y110.8 E5.24798
G1 X113.788 Y110.163 E5.28003
G1 X113.76 Y109.521 E5.31209
G1 X113.625 Y108.892 E5.34419
G1 X113.386 Y108.296 E5.37622
G1 X113.049 Y107.748 E5.40832
G1 X112.576 Y107.21 E5.44406
G1 X107.424 Y107.21 E5.70109
G0 F3600 X107.292 Y107.36
G0 X106.763 Y106.766
;TYPE:SKIN
G1 F1050 X106.335 Y107.253 E5.73344
G1 X106.477 Y107.05 E5.7458
G1 X106.763 Y106.766 E5.76591
G0 F3600 X107.128 Y106.42
G1 F1050 X107.704 Y106.018 E5.80095
G1 X108.409 Y105.687 E5.83981
G1 X109.207 Y105.471 E5.88105
G1 X110.001 Y105.402 E5.92081
G1 X110.793 Y105.471 E5.96048
G1 X111.573 Y105.68 E6.00076
G1 X112.288 Y106.015 E6.04016
G1 X112.867 Y106.42 E6.07541
G1 X107.128 Y106.42 E6.36173
G0 F3600 X106.283 Y107.327
G1 F1050 X105.915 Y107.924 E6.39672
G1 X106.017 Y107.708 E6.40863
G1 X106.283 Y107.327 E6.43182
G0 F3600 X105.893 Y107.972
G1 F1050 X105.62 Y108.653 E6.46842
G1 X105.681 Y108.424 E6.48024
G1 X105.893 Y107.972 E6.50515
G0 F3600 X105.613 Y108.677
G1 F1050 X105.454 Y109.42 E6.54306
G1 X105.419 Y110.19 E6.58151
G1 X105.402 Y109.995 E6.59128
G1 X105.471 Y109.209 E6.63064
G1 X105.613 Y108.677 E6.65811
G0 F3600 X105.422 Y110.216
G1 F1050 X105.52 Y110.958 E6.69545
G1 X105.469 Y110.766 E6.70536
G1 X105.422 Y110.216 E6.7329
G0 F3600 X105.53 Y110.997
M104 S195
G1 F1050 X105.748 Y111.711 E6.77015
G1 X106.098 Y112.403 E6.80884
G1 X106.56 Y113.03 E6.84769
G1 X107.121 Y113.567 E6.88644
G1 X107.765 Y114.002 E6.92521
G1 X108.472 Y114.321 E6.96391
G1 X109.225 Y114.518 E7.00274
G1 X110 Y114.584 E7.04154
G1 X110.775 Y114.518 E7.08035
G1 X111.528 Y114.321 E7.11918
G1 X112.235 Y114.002 E7.15788
G1 X112.879 Y113.567 E7.19665
G1 X113.44 Y113.03 E7.23539
G1 X113.902 Y112.403 E7.27425
G1 X114.252 Y111.711 E7.31294
G1 X114.479 Y110.967 E7.35175
G1 X114.581 Y110.197 E7.3905
G1 X114.546 Y109.42 E7.4293
G1 X114.4 Y108.738 E7.4641
G1 X114.531 Y109.234 E7.48969
G1 X114.598 Y110.004 E7.52825
G1 X114.529 Y110.793 E7.56776
G1 X114.32 Y111.574 E7.6081
G1 X113.986 Y112.289 E7.64747
G1 X113.523 Y112.95 E7.68773
G1 X112.93 Y113.539 E7.72943
G1 X112.295 Y113.984 E7.76812
G1 X111.59 Y114.313 E7.80693
G1 X110.795 Y114.529 E7.84803
G1 X109.999 Y114.598 E7.88789
G1 X109.207 Y114.529 E7.92756
G1 X108.424 Y114.319 E7.968
G1 X107.705 Y113.984 E8.00757
G1 X107.046 Y113.52 E8.04778
G1 X106.481 Y112.954 E8.08768
G1 X106.015 Y112.29 E8.12815
G1 X105.684 Y111.579 E8.16728
G1 X105.53 Y110.997 E8.19732
G0 F3600 X105.953 Y108.764
G0 X106.22 Y108.098
G0 X106.596 Y107.486
G0 X107.227 Y106.774
G0 X113.194 Y106.717
G1 F1050 X113.513 Y107.036 E8.21982
G1 X113.664 Y107.251 E8.23293
G1 X113.194 Y106.717 E8.26842
G0 F3600 X113.72 Y107.333
G1 F1050 X113.982 Y107.707 E8.2912
G1 X114.08 Y107.916 E8.30272
G1 X113.72 Y107.333 E8.33691
G0 F3600 X114.115 Y107.99
G1 F1050 X114.316 Y108.421 E8.36063
G1 X114.372 Y108.632 E8.37152
G1 X114.115 Y107.99 E8.40602
G0 F3600 X112.908 Y106.896
G0 X111.896 Y106.239
G0 X111.7 Y106.043
G1 F1050 X111.034 Y105.942 E8.44064
G1 X110.667 Y105.576
G0 F3600 X110.765 Y106.239
G1 F1050 X110.118 Y105.592 E8.48629
G1 X110.048 Y105.522
G0 F3600 X109.578 Y105.619
G1 F1050 X110.199 Y106.239 E8.53007
G1 X110.269 Y106.309
G0 F3600 X109.359 Y105.964
G1 F1050 X108.853 Y106.024 E8.56458
G1 X108.366 Y106.104 E8.58926
G1 X107.892 Y106.194 E8.60184
G0 F3600 X107.847 Y106.15
G0 X107.202 Y106.719
G0 X107.243 Y106.81
;TIME_ELAPSED:24.512020
;LAYER:1
M140 S64
M106 S255
G0 F5400 X107.243 Y106.81 Z0.6
;TYPE:WALL-INNER
G1 F1575 X106.628 Y107.509 E8.64829
G1 X106.255 Y108.115 E8.68379
G1 X105.991 Y108.775 E8.71925
G1 X105.842 Y109.47 E8.75471
G1 X105.811 Y110.18 E8.79017
G1 X105.903 Y110.885 E8.82564
G1 X106.111 Y111.565 E8.86112
G1 X106.431 Y112.198 E8.8965
G1 X106.854 Y112.771 E8.93204
G1 X107.367 Y113.263 E8.9675
G1 X107.956 Y113.66 E9.00294
G1 X108.603 Y113.952 E9.03835
G1 X109.291 Y114.132 E9.07383
G1 X110 Y114.192 E9.10933
G1 X110.709 Y114.132 E9.14483
G1 X111.397 Y113.952 E9.18031
G1 X112.044 Y113.66 E9.21572
G1 X112.633 Y113.263 E9.25116
G1 X113.146 Y112.771 E9.28662
G1 X113.569 Y112.198 E9.32215
G1 X113.889 Y111.565 E9.35754
G1 X114.097 Y110.885 E9.39302
G1 X114.189 Y110.18 E9.42849
G1 X114.158 Y109.47 E9.46394
G1 X114.009 Y108.775 E9.4994
G1 X113.745 Y108.115 E9.53487
G1 X113.372 Y107.509 E9.57037
G1 X112.757 Y106.81 E9.61682
G1 X107.243 Y106.81 E9.89191
G0 F5400 X107.202 Y106.719
G0 X110.847 Y105.185
G0 X110.864 Y105.087
G1 F1575 X111.76 Y105.331 E9.93824
G1 X112.502 Y105.684 E9.97924
G1 X112.655 Y105.78 E9.98825
G1 X113.197 Y106.17 E10.02156
G1 X113.83 Y106.807 E10.06636
G1 X114.32 Y107.508 E10.10903
G1 X114.689 Y108.298 E10.15254
G1 X114.735 Y108.443 E10.16012
G1 X114.924 Y109.188 E10.19847
G1 X114.989 Y110.001 E10.23916
G1 X114.929 Y110.761 E10.2772
G1 X114.915 Y110.858 E10.28208
G1 X114.75 Y111.502 E10.31525
G1 X114.694 Y111.687 E10.3249
G1 X114.32 Y112.492 E10.36918
G1 X113.818 Y113.21 E10.41289
G1 X113.638 Y113.4 E10.42595
G1 X113.22 Y113.81 E10.45516
G1 X113.153 Y113.866 E10.45951
G1 X112.616 Y114.245 E10.4923
G1 X112.36 Y114.393 E10.50706
G1 X111.83 Y114.639 E10.53621
G1 X111.709 Y114.687 E10.5427
G1 X110.866 Y114.913 E10.58625
G1 X110 Y114.989 E10.62962
G1 X109.136 Y114.913 E10.67289
G1 X108.283 Y114.684 E10.71695
G1 X108.054 Y114.588 E10.72934
G1 X107.657 Y114.402 E10.75121
G1 X107.522 Y114.33 E10.75884
G1 X106.805 Y113.832 E10.8024
G1 X106.17 Y113.192 E10.84738
G1 X105.679 Y112.49 E10.89012
G1 X105.313 Y111.705 E10.93333
G1 X105.264 Y111.552 E10.94134
G1 X105.076 Y110.811 E10.97948
G1 X105.011 Y109.998 E11.02017
G1 X105.071 Y109.231 E11.05856
G1 X105.083 Y109.154 E11.06244
G1 X105.234 Y108.56 E11.09302
G1 X105.314 Y108.289 E11.10712
G1 X105.679 Y107.509 E11.15008
G1 X106.184 Y106.788 E11.194
G1 X106.365 Y106.597 E11.20713
G1 X106.78 Y106.19 E11.23613
G1 X106.847 Y106.134 E11.24048
G1 X107.4 Y105.743 E11.27427
G1 X107.62 Y105.616 E11.28695
G1 X108.144 Y105.372 E11.31578
G1 X108.298 Y105.311 E11.32405
G1 X109.134 Y105.087 E11.36723
G1 X110 Y105.011 E11.4106
G1 X110.864 Y105.087 E11.45387
G0 F5400 X110.847 Y105.185
G0 X109.151 Y105.185
G0 X109.065 Y104.692
;TYPE:WALL-OUTER
G1 F1050 X110 Y104.61 E11.5007
G1 X110.935 Y104.692 E11.54752
G1 X111.849 Y104.937 E11.59473
G1 X111.919 Y104.964 E11.59847
G1 X112.699 Y105.335 E11.64157
G1 X112.868 Y105.441 E11.65152
G1 X113.391 Y105.812 E11.68351
G1 X113.467 Y105.874 E11.6884
G1 X114.137 Y106.549 E11.73585
G1 X114.667 Y107.307 E11.782
G1 X115.062 Y108.151 E11.82849
G1 X115.123 Y108.344 E11.83859
G1 X115.31 Y109.075 E11.87623
G1 X115.322 Y109.146 E11.87982
G1 X115.39 Y110 E11.92256
G1 X115.327 Y110.811 E11.96315
G1 X115.309 Y110.93 E11.96915
G1 X115.133 Y111.617 E12.00453
G1 X115.068 Y111.833 E12.01579
G1 X114.669 Y112.691 E12.06299
G1 X114.13 Y113.462 E12.10993
G1 X113.925 Y113.678 E12.12478
G1 X113.487 Y114.108 E12.15541
G1 X113.391 Y114.188 E12.16164
G1 X112.831 Y114.584 E12.19586
G1 X112.55 Y114.746 E12.21204
G1 X111.988 Y115.007 E12.24295
G1 X111.839 Y115.066 E12.25095
G1 X110.935 Y115.308 E12.29764
G1 X110 Y115.39 E12.34447
G1 X109.065 Y115.308 E12.39129
G1 X108.153 Y115.063 E12.4384
G1 X107.89 Y114.953 E12.45263
G1 X107.487 Y114.764 E12.47483
G1 X107.306 Y114.668 E12.48506
G1 X106.607 Y114.187 E12.52739
G1 X106.533 Y114.126 E12.53217
G1 X105.862 Y113.45 E12.57969
G1 X105.333 Y112.693 E12.62577
G1 X104.938 Y111.847 E12.67235
G1 X104.877 Y111.656 E12.68235
G1 X104.69 Y110.925 E12.72
G1 X104.678 Y110.854 E12.72359
G1 X104.61 Y109.999 E12.76638
G1 X104.673 Y109.189 E12.80691
G1 X104.692 Y109.067 E12.81307
G1 X104.85 Y108.447 E12.84499
G1 X104.937 Y108.152 E12.86034
G1 X105.332 Y107.307 E12.90687
G1 X105.872 Y106.536 E12.95383
G1 X106.075 Y106.322 E12.96855
G1 X106.513 Y105.892 E12.99917
G1 X106.609 Y105.812 E13.00541
G1 X107.169 Y105.416 E13.03962
G1 X107.3 Y105.335 E13.04731
G1 X107.445 Y105.256 E13.05555
G1 X107.992 Y105.002 E13.08564
G1 X108.165 Y104.933 E13.09493
G1 X109.065 Y104.692 E13.14141
G0 F5400 X109.264 Y104.675
G0 X109.306 Y105.172
G0 X107.05 Y106.879
G0 X107.424 Y107.21
G1 F1050 X106.951 Y107.748 E13.17715
G1 X106.614 Y108.296 E13.20925
G1 X106.375 Y108.892 E13.24128
G1 X106.24 Y109.521 E13.27338
G1 X106.212 Y110.163 E13.30544
G1 X106.295 Y110.8 E13.33749
G1 X106.483 Y111.415 E13.36957
G1 X106.773 Y111.988 E13.40161
G1 X107.155 Y112.506 E13.43372
G1 X107.619 Y112.95 E13.46576
G1 X108.152 Y113.309 E13.49782
G1 X108.737 Y113.574 E13.52986
G1 X109.359 Y113.736 E13.56193
G1 X110 Y113.791 E13.59403
G1 X110.641 Y113.736 E13.62612
G1 X111.263 Y113.574 E13.65819
G1 X111.848 Y113.309 E13.69023
G1 X112.381 Y112.95 E13.72229
G1 X112.845 Y112.506 E13.75433
G1 X113.227 Y111.988 E13.78644
G1 X113.517 Y111.415 E13.81848
G1 X113.705 Y110.8 E13.85057
G1 X113.788 Y110.163 E13.88261
G1 X113.76 Y109.521 E13.91467
G1 X113.625 Y108.892 E13.94677
G1 X113.386 Y108.296 E13.97881
G1 X113.049 Y107.748 E14.0109
G1 X112.576 Y107.21 E14.04664
G1 X107.424 Y107.21 E14.30368
G0 F5400 X107.292 Y107.36
G0 X106.917 Y107.029
G0 X106.638 Y106.876
;TYPE:SKIN
G1 F1050 X106.843 Y106.675 E14.318
G1 X106.334 Y107.254 E14.35646
G1 X106.488 Y107.035 E14.36982
G1 X106.638 Y106.876 E14.38072
G0 F5400 X106.283 Y107.327
G1 F1050 X105.915 Y107.924 E14.41571
G1 X106.017 Y107.708 E14.42763
G1 X106.283 Y107.327 E14.45081
G0 F5400 X105.893 Y107.973
G1 F1050 X105.617 Y108.66 E14.48775
G1 X105.454 Y109.42 E14.52653
G1 X105.419 Y110.197 E14.56533
G1 X105.521 Y110.967 E14.60408
G1 X105.748 Y111.711 E14.64289
G1 X106.098 Y112.403 E14.68158
G1 X106.56 Y113.03 E14.72043
G1 X107.121 Y113.567 E14.75918
G1 X107.765 Y114.002 E14.79795
G1 X108.472 Y114.321 E14.83665
G1 X109.225 Y114.518 E14.87548
G1 X110 Y114.584 E14.91428
G1 X110.775 Y114.518 E14.95309
G1 X111.528 Y114.321 E14.99192
G1 X112.235 Y114.002 E15.03062
G1 X112.879 Y113.567 E15.06939
G1 X113.44 Y113.03 E15.10813
G1 X113.902 Y112.403 E15.14699
G1 X114.252 Y111.711 E15.18568
G1 X114.479 Y110.967 E15.22449
G1 X114.581 Y110.197 E15.26324
G1 X114.546 Y109.42 E15.30204
G1 X114.383 Y108.66 E15.34082
G1 X114.109 Y107.977 E15.37753
G1 X114.325 Y108.438 E15.40293
G1 X114.357 Y108.539 E15.40822
G1 X114.539 Y109.256 E15.44512
G1 X114.599 Y109.998 E15.48226
G1 X114.534 Y110.773 E15.52106
G1 X114.329 Y111.549 E15.56111
G1 X113.984 Y112.29 E15.60189
G1 X113.514 Y112.964 E15.64288
G1 X113.365 Y113.121 E15.65368
G1 X112.913 Y113.559 E15.68508
G1 X112.411 Y113.913 E15.71573
G1 X112.17 Y114.052 E15.72961
G1 X111.685 Y114.277 E15.75628
G1 X111.589 Y114.316 E15.76145
G1 X110.793 Y114.529 E15.80256
G1 X110.001 Y114.598 E15.84222
G1 X109.203 Y114.528 E15.88219
G1 X108.411 Y114.315 E15.9231
G1 X108.219 Y114.235 E15.93348
G1 X107.832 Y114.053 E15.95482
G1 X107.721 Y113.994 E15.96109
G1 X107.061 Y113.536 E16.00117
G1 X106.472 Y112.942 E16.0429
G1 X106.015 Y112.29 E16.08262
G1 X105.675 Y111.561 E16.12276
G1 X105.639 Y111.445 E16.12882
G1 X105.461 Y110.743 E16.16495
G1 X105.401 Y109.998 E16.20224
G1 X105.457 Y109.292 E16.23757
G1 X105.469 Y109.218 E16.24131
G1 X105.608 Y108.67 E16.26951
G1 X105.68 Y108.426 E16.28221
G1 X105.893 Y107.973 E16.30718
G0 F5400 X107.117 Y106.42
G1 F1050 X107.605 Y106.075 E16.337
G1 X107.81 Y105.957 E16.3488
G1 X108.289 Y105.734 E16.37516
G1 X108.418 Y105.682 E16.3821
G1 X109.207 Y105.471 E16.42284
G1 X109.999 Y105.402 E16.46251
G1 X110.793 Y105.471 E16.50227
G1 X111.618 Y105.696 E16.54493
G1 X112.324 Y106.032 E16.58394
G1 X112.437 Y106.103 E16.5906
G1 X112.877 Y106.42 E16.61765
G1 X107.117 Y106.42 E16.90502
G0 F5400 X113.222 Y106.749
G1 F1050 X113.528 Y107.057 E16.92668
G1 X113.666 Y107.254 E16.93868
G1 X113.222 Y106.749 E16.97223
G0 F5400 X113.716 Y107.326
G1 F1050 X113.984 Y107.708 E16.99551
