;FLAVOR:Marlin
;TIME:426
;Filament used: 0.37512m
;Layer height: 0.3
;Generated with Cura_SteamEngine 3.4.1
M190 S64
M104 S200
M109 S200
M82 ;absolute extrusion mode
G21 ;metric values
G90 ;absolute positioning
M82 ;set extruder to absolute mode
M107 ;start with the fan off
G28 X0 Y0 ;move X/Y to min endstops
G28 Z0 ;move Z to min endstops
G1 Z15.0 F9000 ;move the platform down 15mm
G92 E0 ;zero the extruded length
G1 F200 E3 ;extrude 3mm of feed stock
G92 E0 ;zero the extruded length again
G1 F9000
;Put printing message on LCD screen
M117 Printing...
G92 E0
G1 F1500 E-5
;LAYER_COUNT:55
;LAYER:0
M107
G0 F3600 X107.506 Y106.875 Z0.3
;TYPE:WALL-INNER
G1 F1500 E0
G1 F1050 X106.931 Y107.47 E0.04128
G1 X106.575 Y107.978 E0.07223
G1 X106.304 Y108.534 E0.10309
G1 X106.121 Y109.125 E0.13395
G1 X106.032 Y109.739 E0.16491
G1 X106.039 Y110.357 E0.19574
G1 X106.142 Y110.968 E0.22665
G1 X106.34 Y111.555 E0.25756
G1 X106.625 Y112.104 E0.28842
G1 X106.993 Y112.603 E0.31935
G1 X107.434 Y113.038 E0.35026
G1 X107.937 Y113.399 E0.38115
G1 X108.489 Y113.679 E0.41203
G1 X109.078 Y113.868 E0.44289
G1 X109.69 Y113.965 E0.4738
G1 X110.31 Y113.965 E0.50473
G1 X110.922 Y113.868 E0.53565
G1 X111.511 Y113.679 E0.56651
G1 X112.063 Y113.399 E0.59739
G1 X112.566 Y113.038 E0.62828
G1 X113.007 Y112.603 E0.65918
G1 X113.375 Y112.104 E0.69011
G1 X113.66 Y111.555 E0.72097
G1 X113.858 Y110.968 E0.75188
G1 X113.961 Y110.357 E0.78279
G1 X113.968 Y109.739 E0.81363
G1 X113.879 Y109.125 E0.84458
G1 X113.696 Y108.534 E0.87545
G1 X113.425 Y107.978 E0.90631
G1 X113.069 Y107.47 E0.93725
G1 X112.494 Y106.875 E0.97853
G1 X107.506 Y106.875 E1.22739
G0 F3600 X107.467 Y106.783
G0 X110.59 Y105.363
G0 X110.602 Y105.264
G1 F1050 X111.189 Y105.376 E1.2572
G1 X111.755 Y105.56 E1.28689
G1 X112.294 Y105.814 E1.31662
G1 X112.813 Y106.144 E1.3473
G1 X113.265 Y106.518 E1.37657
G1 X113.678 Y106.956 E1.40661
G1 X114.034 Y107.448 E1.43691
G1 X114.317 Y107.961 E1.46614
G1 X114.541 Y108.528 E1.49655
G1 X114.689 Y109.106 E1.52632
G1 X114.764 Y109.698 E1.55609
G1 X114.764 Y110.302 E1.58622
G1 X114.689 Y110.894 E1.61599
G1 X114.541 Y111.472 E1.64576
G1 X114.317 Y112.039 E1.67618
G1 X114.034 Y112.552 E1.7054
G1 X113.678 Y113.044 E1.7357
G1 X113.265 Y113.482 E1.76574
G1 X112.813 Y113.856 E1.79501
G1 X112.294 Y114.186 E1.82569
G1 X111.755 Y114.44 E1.85542
G1 X111.189 Y114.624 E1.88511
G1 X110.602 Y114.736 E1.91492
G1 X110 Y114.773 E1.94501
G1 X109.398 Y114.736 E1.9751
G1 X108.811 Y114.624 E2.00492
G1 X108.245 Y114.44 E2.03461
G1 X107.706 Y114.186 E2.06434
G1 X107.187 Y113.856 E2.09502
G1 X106.735 Y113.482 E2.12429
G1 X106.322 Y113.044 E2.15433
G1 X105.966 Y112.552 E2.18462
G1 X105.683 Y112.039 E2.21385
G1 X105.459 Y111.472 E2.24427
G1 X105.311 Y110.894 E2.27403
G1 X105.236 Y110.302 E2.30381
G1 X105.236 Y109.698 E2.33394
G1 X105.311 Y109.106 E2.36371
G1 X105.459 Y108.528 E2.39348
G1 X105.683 Y107.961 E2.42389
G1 X105.966 Y107.448 E2.45312
G1 X106.322 Y106.956 E2.48342
G1 X106.735 Y106.518 E2.51345
G1 X107.187 Y106.144 E2.54272
G1 X107.706 Y105.814 E2.57341
G1 X108.245 Y105.56 E2.60313
G1 X108.811 Y105.376 E2.63283
G1 X109.398 Y105.264 E2.66264
G1 X110 Y105.227 E2.69273
G1 X110.602 Y105.264 E2.72282
G0 F3600 X110.654 Y104.867
;TYPE:WALL-OUTER
G1 F1050 X111.286 Y104.987 E2.75492
G1 X111.904 Y105.188 E2.78734
G1 X112.492 Y105.465 E2.81977
G1 X113.044 Y105.816 E2.8524
G1 X113.538 Y106.225 E2.8844
G1 X113.989 Y106.704 E2.91722
G1 X114.37 Y107.229 E2.94958
G1 X114.68 Y107.792 E2.98165
G1 X114.921 Y108.4 E3.01428
G1 X115.084 Y109.036 E3.04703
G1 X115.164 Y109.672 E3.07901
G1 X115.164 Y110.328 E3.11174
G1 X115.084 Y110.964 E3.14372
G1 X114.921 Y111.6 E3.17648
G1 X114.68 Y112.208 E3.20911
G1 X114.37 Y112.771 E3.24117
G1 X113.989 Y113.296 E3.27353
G1 X113.538 Y113.775 E3.30636
G1 X113.044 Y114.184 E3.33835
G1 X112.492 Y114.535 E3.37099
G1 X111.904 Y114.812 E3.40342
G1 X111.286 Y115.013 E3.43584
G1 X110.654 Y115.133 E3.46793
G1 X110 Y115.174 E3.50062
G1 X109.346 Y115.133 E3.53332
G1 X108.714 Y115.013 E3.56541
G1 X108.096 Y114.812 E3.59783
G1 X107.508 Y114.535 E3.63026
G1 X106.956 Y114.184 E3.6629
G1 X106.462 Y113.775 E3.69489
G1 X106.011 Y113.296 E3.72772
G1 X105.63 Y112.771 E3.76008
G1 X105.32 Y112.208 E3.79214
G1 X105.079 Y111.6 E3.82477
G1 X104.916 Y110.964 E3.85753
G1 X104.836 Y110.328 E3.88951
G1 X104.836 Y109.672 E3.92224
G1 X104.916 Y109.036 E3.95422
G1 X105.079 Y108.4 E3.98697
G1 X105.32 Y107.792 E4.0196
G1 X105.63 Y107.229 E4.05167
G1 X106.011 Y106.704 E4.08403
G1 X106.462 Y106.225 E4.11685
G1 X106.956 Y105.816 E4.14885
G1 X107.508 Y105.465 E4.18148
G1 X108.096 Y105.188 E4.21391
G1 X108.714 Y104.987 E4.24633
G1 X109.346 Y104.867 E4.27843
G1 X110 Y104.826 E4.31112
G1 X110.654 Y104.867 E4.34381
G0 F3600 X110.85 Y104.904
G0 X110.757 Y105.395
G0 X107.676 Y106.775
G0 X107.676 Y107.275
G1 F1050 X107.241 Y107.725 E4.37504
G1 X106.921 Y108.182 E4.40287
G1 X106.677 Y108.682 E4.43063
G1 X106.512 Y109.214 E4.45842
G1 X106.432 Y109.765 E4.48619
G1 X106.439 Y110.321 E4.51394
G1 X106.531 Y110.87 E4.54171
G1 X106.709 Y111.398 E4.56951
G1 X106.966 Y111.892 E4.59729
G1 X107.296 Y112.34 E4.62505
G1 X107.693 Y112.731 E4.65285
G1 X108.145 Y113.056 E4.68062
G1 X108.642 Y113.308 E4.70842
G1 X109.171 Y113.478 E4.73614
G1 X109.721 Y113.565 E4.76392
G1 X110.279 Y113.565 E4.79176
G1 X110.829 Y113.478 E4.81954
G1 X111.358 Y113.308 E4.84726
G1 X111.855 Y113.056 E4.87507
G1 X112.307 Y112.731 E4.90284
G1 X112.704 Y112.34 E4.93064
G1 X113.034 Y111.892 E4.9584
G1 X113.291 Y111.398 E4.98618
G1 X113.469 Y110.87 E5.01398
G1 X113.561 Y110.321 E5.04175
G1 X113.568 Y109.765 E5.06949
G1 X113.488 Y109.214 E5.09727
G1 X113.323 Y108.682 E5.12506
G1 X113.079 Y108.182 E5.15282
G1 X112.759 Y107.725 E5.18065
G1 X112.324 Y107.275 E5.21187
G1 X107.676 Y107.275 E5.44376
G0 F3600 X107.537 Y107.419
G0 X107.179 Y107.071
G0 X107.006 Y106.8
M104 S195
;TYPE:SKIN
G1 F1050 X107.157 Y106.674 E5.45358
G1 X106.629 Y107.221 E5.49151
G1 X106.238 Y107.779 E5.5255
G1 X105.94 Y108.39 E5.55941
G1 X105.739 Y109.039 E5.59331
G1 X105.642 Y109.713 E5.62728
G1 X105.649 Y110.392 E5.66116
G1 X105.762 Y111.063 E5.69511
G1 X105.98 Y111.708 E5.72907
G1 X106.293 Y112.311 E5.76297
G1 X106.697 Y112.859 E5.79694
G1 X107.182 Y113.337 E5.83091
G1 X107.734 Y113.733 E5.8648
G1 X108.341 Y114.041 E5.89876
G1 X108.988 Y114.248 E5.93265
G1 X109.659 Y114.355 E5.96655
G1 X110.341 Y114.355 E6.00058
G1 X111.012 Y114.248 E6.03448
G1 X111.659 Y114.041 E6.06837
G1 X112.266 Y113.733 E6.10233
G1 X112.818 Y113.337 E6.13622
G1 X113.303 Y112.859 E6.17019
G1 X113.707 Y112.311 E6.20416
G1 X114.02 Y111.708 E6.23805
G1 X114.238 Y111.063 E6.27202
G1 X114.351 Y110.392 E6.30597
G1 X114.358 Y109.713 E6.33985
G1 X114.261 Y109.039 E6.37382
G1 X114.06 Y108.39 E6.40771
G1 X113.762 Y107.779 E6.44163
G1 X113.371 Y107.221 E6.47562
G1 X112.843 Y106.674 E6.51355
G1 X112.994 Y106.8 E6.52336
G1 X113.377 Y107.206 E6.55121
G1 X113.704 Y107.656 E6.57896
G1 X113.963 Y108.125 E6.60569
G1 X114.169 Y108.648 E6.63373
G1 X114.307 Y109.189 E6.66159
G1 X114.374 Y109.713 E6.68794
G1 X114.374 Y110.285 E6.71648
G1 X114.307 Y110.811 E6.74294
G1 X114.169 Y111.352 E6.77079
G1 X113.963 Y111.875 E6.79883
G1 X113.704 Y112.344 E6.82556
G1 X113.377 Y112.794 E6.85332
G1 X112.994 Y113.2 E6.88116
G1 X112.587 Y113.538 E6.90756
G1 X112.108 Y113.843 E6.93589
G1 X111.612 Y114.076 E6.96323
G1 X111.089 Y114.246 E6.99066
G1 X110.56 Y114.347 E7.01753
G1 X110 Y114.381 E7.04552
G1 X109.44 Y114.347 E7.07351
G1 X108.911 Y114.246 E7.10038
G1 X108.388 Y114.076 E7.12782
G1 X107.892 Y113.843 E7.15516
G1 X107.413 Y113.538 E7.18349
G1 X107.006 Y113.2 E7.20988
G1 X106.623 Y112.794 E7.23773
G1 X106.296 Y112.344 E7.26548
G1 X106.037 Y111.875 E7.29221
G1 X105.831 Y111.352 E7.32025
G1 X105.693 Y110.811 E7.34811
G1 X105.626 Y110.285 E7.37456
G1 X105.626 Y109.713 E7.4031
G1 X105.693 Y109.189 E7.42945
G1 X105.831 Y108.648 E7.45731
G1 X106.037 Y108.125 E7.48535
G1 X106.296 Y107.656 E7.51208
G1 X106.623 Y107.206 E7.53983
G1 X107.006 Y106.8 E7.56768
G0 F3600 X107.386 Y106.485
G1 F1050 X107.892 Y106.157 E7.59776
G1 X108.388 Y105.924 E7.6251
G1 X108.911 Y105.754 E7.65254
G1 X109.44 Y105.653 E7.67941
G1 X110 Y105.619 E7.7074
G1 X110.56 Y105.653 E7.73539
G1 X111.089 Y105.754 E7.76226
G1 X111.612 Y105.924 E7.78969
G1 X112.108 Y106.157 E7.81703
G1 X112.587 Y106.462 E7.84536
G1 X112.614 Y106.485 E7.84713
G1 X107.386 Y106.485 E8.10796
G0 F3600 X108.386 Y106.123
G0 X108.476 Y106.214
G1 F1050 X108.969 Y106.14 E8.12599
G1 X109.481 Y106.087 E8.15289
G1 X110.019 Y106.059 E8.18562
G1 X110.588 Y106.063 E8.21989
G1 X111.205 Y106.114 E8.2504
G0 F3600 X111.396 Y106.305
G0 X107.467 Y106.783
G0 X107.506 Y106.875
;TIME_ELAPSED:23.534703
;LAYER:1
M140 S64
M106 S255
G0 F5400 X107.506 Y106.875 Z0.6
;TYPE:WALL-INNER
G1 F1575 X106.931 Y107.47 E8.29168
G1 X106.575 Y107.978 E8.32262
G1 X106.304 Y108.534 E8.35348
G1 X106.121 Y109.125 E8.38435
G1 X106.032 Y109.739 E8.4153
G1 X106.039 Y110.357 E8.44614
G1 X106.142 Y110.968 E8.47705
G1 X106.34 Y111.555 E8.50796
G1 X106.625 Y112.104 E8.53882
G1 X106.993 Y112.603 E8.56975
G1 X107.434 Y113.038 E8.60065
G1 X107.937 Y113.399 E8.63154
G1 X108.489 Y113.679 E8.66242
G1 X109.078 Y113.868 E8.69328
G1 X109.69 Y113.965 E8.7242
G1 X110.31 Y113.965 E8.75513
G1 X110.922 Y113.868 E8.78604
G1 X111.511 Y113.679 E8.8169
G1 X112.063 Y113.399 E8.84778
G1 X112.566 Y113.038 E8.87867
G1 X113.007 Y112.603 E8.90958
G1 X113.375 Y112.104 E8.94051
G1 X113.66 Y111.555 E8.97137
G1 X113.858 Y110.968 E9.00228
G1 X113.961 Y110.357 E9.03319
G1 X113.968 Y109.739 E9.06402
G1 X113.879 Y109.125 E9.09498
G1 X113.696 Y108.534 E9.12584
G1 X113.425 Y107.978 E9.1567
G1 X113.069 Y107.47 E9.18765
G1 X112.494 Y106.875 E9.22893
G1 X107.506 Y106.875 E9.47778
G0 F5400 X107.467 Y106.783
G0 X110.59 Y105.363
G0 X110.602 Y105.264
G1 F1575 X111.189 Y105.376 E9.5076
G1 X111.755 Y105.56 E9.53729
G1 X112.294 Y105.814 E9.56702
G1 X112.813 Y106.144 E9.5977
G1 X113.265 Y106.518 E9.62697
G1 X113.678 Y106.956 E9.657
G1 X114.034 Y107.448 E9.6873
G1 X114.317 Y107.961 E9.71653
G1 X114.541 Y108.528 E9.74695
G1 X114.689 Y109.106 E9.77671
G1 X114.764 Y109.698 E9.80648
G1 X114.764 Y110.302 E9.83662
G1 X114.689 Y110.894 E9.86639
G1 X114.541 Y111.472 E9.89615
G1 X114.317 Y112.039 E9.92657
G1 X114.034 Y112.552 E9.9558
G1 X113.678 Y113.044 E9.9861
G1 X113.265 Y113.482 E10.01613
G1 X112.813 Y113.856 E10.0454
G1 X112.294 Y114.186 E10.07608
G1 X111.755 Y114.44 E10.10581
G1 X111.189 Y114.624 E10.1355
G1 X110.602 Y114.736 E10.16532
G1 X110 Y114.773 E10.19541
G1 X109.398 Y114.736 E10.2255
G1 X108.811 Y114.624 E10.25531
G1 X108.245 Y114.44 E10.28501
G1 X107.706 Y114.186 E10.31473
G1 X107.187 Y113.856 E10.34542
G1 X106.735 Y113.482 E10.37469
G1 X106.322 Y113.044 E10.40472
G1 X105.966 Y112.552 E10.43502
G1 X105.683 Y112.039 E10.46425
G1 X105.459 Y111.472 E10.49466
G1 X105.311 Y110.894 E10.52443
G1 X105.236 Y110.302 E10.5542
G1 X105.236 Y109.698 E10.58433
G1 X105.311 Y109.106 E10.61411
G1 X105.459 Y108.528 E10.64387
G1 X105.683 Y107.961 E10.67429
G1 X105.966 Y107.448 E10.70352
G1 X106.322 Y106.956 E10.73382
G1 X106.735 Y106.518 E10.76385
G1 X107.187 Y106.144 E10.79312
G1 X107.706 Y105.814 E10.8238
G1 X108.245 Y105.56 E10.85353
G1 X108.811 Y105.376 E10.88322
G1 X109.398 Y105.264 E10.91304
G1 X110 Y105.227 E10.94313
G1 X110.602 Y105.264 E10.97322
G0 F5400 X110.654 Y104.867
;TYPE:WALL-OUTER
G1 F1050 X111.286 Y104.987 E11.00531
G1 X111.904 Y105.188 E11.03773
G1 X112.492 Y105.465 E11.07016
G1 X113.044 Y105.816 E11.1028
G1 X113.538 Y106.225 E11.13479
G1 X113.989 Y106.704 E11.16762
G1 X114.37 Y107.229 E11.19998
G1 X114.68 Y107.792 E11.23204
G1 X114.921 Y108.4 E11.26467
G1 X115.084 Y109.036 E11.29743
G1 X115.164 Y109.672 E11.32941
G1 X115.164 Y110.328 E11.36214
G1 X115.084 Y110.964 E11.39412
G1 X114.921 Y111.6 E11.42687
G1 X114.68 Y112.208 E11.4595
G1 X114.37 Y112.771 E11.49157
G1 X113.989 Y113.296 E11.52393
G1 X113.538 Y113.775 E11.55675
G1 X113.044 Y114.184 E11.58875
G1 X112.492 Y114.535 E11.62138
G1 X111.904 Y114.812 E11.65381
G1 X111.286 Y115.013 E11.68623
G1 X110.654 Y115.133 E11.71833
G1 X110 Y115.174 E11.75102
G1 X109.346 Y115.133 E11.78371
G1 X108.714 Y115.013 E11.81581
G1 X108.096 Y114.812 E11.84823
G1 X107.508 Y114.535 E11.88066
G1 X106.956 Y114.184 E11.91329
G1 X106.462 Y113.775 E11.94529
G1 X106.011 Y113.296 E11.97811
G1 X105.63 Y112.771 E12.01047
G1 X105.32 Y112.208 E12.04254
G1 X105.079 Y111.6 E12.07517
G1 X104.916 Y110.964 E12.10792
G1 X104.836 Y110.328 E12.1399
G1 X104.836 Y109.672 E12.17263
G1 X104.916 Y109.036 E12.20461
G1 X105.079 Y108.4 E12.23737
G1 X105.32 Y107.792 E12.27
G1 X105.63 Y107.229 E12.30206
G1 X106.011 Y106.704 E12.33442
G1 X106.462 Y106.225 E12.36725
G1 X106.956 Y105.816 E12.39924
G1 X107.508 Y105.465 E12.43188
G1 X108.096 Y105.188 E12.46431
G1 X108.714 Y104.987 E12.49673
G1 X109.346 Y104.867 E12.52882
G1 X110 Y104.826 E12.56151
G1 X110.654 Y104.867 E12.59421
G0 F5400 X110.85 Y104.904
G0 X110.757 Y105.395
G0 X107.676 Y106.775
G0 X107.676 Y107.275
G1 F1050 X107.241 Y107.725 E12.62543
G1 X106.921 Y108.182 E12.65327
G1 X106.677 Y108.682 E12.68102
G1 X106.512 Y109.214 E12.70881
G1 X106.432 Y109.765 E12.73659
G1 X106.439 Y110.321 E12.76433
G1 X106.531 Y110.87 E12.7921
G1 X106.709 Y111.398 E12.8199
G1 X106.966 Y111.892 E12.84768
G1 X107.296 Y112.34 E12.87544
G1 X107.693 Y112.731 E12.90324
G1 X108.145 Y113.056 E12.93102
G1 X108.642 Y113.308 E12.95882
G1 X109.171 Y113.478 E12.98654
G1 X109.721 Y113.565 E13.01432
G1 X110.279 Y113.565 E13.04216
G1 X110.829 Y113.478 E13.06994
G1 X111.358 Y113.308 E13.09766
G1 X111.855 Y113.056 E13.12546
G1 X112.307 Y112.731 E13.15323
G1 X112.704 Y112.34 E13.18103
G1 X113.034 Y111.892 E13.20879
G1 X113.291 Y111.398 E13.23658
G1 X113.469 Y110.87 E13.26437
G1 X113.561 Y110.321 E13.29215
G1 X113.568 Y109.765 E13.31989
G1 X113.488 Y109.214 E13.34766
G1 X113.323 Y108.682 E13.37545
G1 X113.079 Y108.182 E13.40321
G1 X112.759 Y107.725 E13.43104
G1 X112.324 Y107.275 E13.46227
G1 X107.676 Y107.275 E13.69416
G0 F5400 X107.537 Y107.419
G0 X107.179 Y107.071
G0 X107.006 Y106.8
;TYPE:SKIN
G1 F1050 X107.157 Y106.674 E13.70397
G1 X106.629 Y107.221 E13.7419
G1 X106.238 Y107.779 E13.77589
G1 X105.94 Y108.39 E13.80981
G1 X105.739 Y109.039 E13.8437
G1 X105.642 Y109.713 E13.87768
G1 X105.649 Y110.392 E13.91155
G1 X105.762 Y111.063 E13.9455
G1 X105.98 Y111.708 E13.97947
G1 X106.293 Y112.311 E14.01336
G1 X106.697 Y112.859 E14.04733
G1 X107.182 Y113.337 E14.0813
G1 X107.734 Y113.733 E14.1152
G1 X108.341 Y114.041 E14.14916
G1 X108.988 Y114.248 E14.18305
G1 X109.659 Y114.355 E14.21695
G1 X110.341 Y114.355 E14.25097
G1 X111.012 Y114.248 E14.28487
G1 X111.659 Y114.041 E14.31876
G1 X112.266 Y113.733 E14.35272
G1 X112.818 Y113.337 E14.38661
G1 X113.303 Y112.859 E14.42059
G1 X113.707 Y112.311 E14.45455
G1 X114.02 Y111.708 E14.48845
G1 X114.238 Y111.063 E14.52242
G1 X114.351 Y110.392 E14.55636
G1 X114.358 Y109.713 E14.59024
G1 X114.261 Y109.039 E14.62421
G1 X114.06 Y108.39 E14.65811
G1 X113.762 Y107.779 E14.69202
G1 X113.371 Y107.221 E14.72602
G1 X112.843 Y106.674 E14.76395
G1 X112.994 Y106.8 E14.77376
G1 X113.377 Y107.206 E14.8016
G1 X113.704 Y107.656 E14.82936
G1 X113.963 Y108.125 E14.85609
G1 X114.169 Y108.648 E14.88413
G1 X114.307 Y109.189 E14.91198
G1 X114.374 Y109.713 E14.93834
G1 X114.374 Y110.285 E14.96688
G1 X114.307 Y110.811 E14.99333
G1 X114.169 Y111.352 E15.02119
G1 X113.963 Y111.875 E15.04923
G1 X113.704 Y112.344 E15.07596
G1 X113.377 Y112.794 E15.10371
G1 X112.994 Y113.2 E15.13156
G1 X112.587 Y113.538 E15.15795
G1 X112.108 Y113.843 E15.18628
G1 X111.612 Y114.076 E15.21362
G1 X111.089 Y114.246 E15.24106
G1 X110.56 Y114.347 E15.26793
G1 X110 Y114.381 E15.29592
G1 X109.44 Y114.347 E15.32391
G1 X108.911 Y114.246 E15.35078
G1 X108.388 Y114.076 E15.37821
G1 X107.892 Y113.843 E15.40555
G1 X107.413 Y113.538 E15.43388
G1 X107.006 Y113.2 E15.46028
G1 X106.623 Y112.794 E15.48812
G1 X106.296 Y112.344 E15.51587
G1 X106.037 Y111.875 E15.5426
G1 X105.831 Y111.352 E15.57065
G1 X105.693 Y110.811 E15.5985
G1 X105.626 Y110.285 E15.62496
G1 X105.626 Y109.713 E15.65349
