;FLAVOR:Marlin
;TIME:17499
;Filament used: 16.3929m
;Layer height: 0.3
;Generated with Cura_SteamEngine 3.4.1
M190 S64
M104 S200
M109 S200
M82 ;absolute extrusion mode
G21 ;metric values
G90 ;absolute positioning
M82 ;set extruder to absolute mode
M107 ;start with the fan off
G28 X0 Y0 ;move X/Y to min endstops
G28 Z0 ;move Z to min endstops
G1 Z15.0 F9000 ;move the platform down 15mm
G92 E0 ;zero the extruded length
G1 F200 E3 ;extrude 3mm of feed stock
G92 E0 ;zero the extruded length again
G1 F9000
;Put printing message on LCD screen
M117 Printing...
G92 E0
G1 F1500 E-5
;LAYER_COUNT:71
;LAYER:0
M107
G0 F3600 X88.655 Y35.476 Z0.3
;TYPE:WALL-INNER
G1 F1500 E0
G1 F1050 X89.006 Y35.976 E0.03048
G1 X89.438 Y36.408 E0.06096
G1 X89.938 Y36.758 E0.09141
G1 X90.49 Y37.016 E0.12181
G1 X91.08 Y37.174 E0.15228
G1 X91.689 Y37.228 E0.18278
G1 X92.297 Y37.174 E0.21323
G1 X92.888 Y37.016 E0.24375
G1 X93.44 Y36.758 E0.27415
G1 X93.94 Y36.408 E0.3046
G1 X94.372 Y35.976 E0.33508
G1 X94.722 Y35.476 E0.36553
G1 X94.98 Y34.923 E0.39598
G1 X95.138 Y34.333 E0.42645
G1 X95.192 Y33.725 E0.4569
G1 X95.138 Y33.116 E0.4874
G1 X94.98 Y32.526 E0.51788
G1 X94.722 Y31.974 E0.54827
G1 X94.372 Y31.473 E0.57877
G1 X93.94 Y31.041 E0.60925
G1 X93.44 Y30.691 E0.63969
G1 X92.887 Y30.433 E0.67014
G1 X92.296 Y30.276 E0.70065
G1 X91.689 Y30.222 E0.73105
G1 X91.081 Y30.276 E0.7615
G1 X90.491 Y30.433 E0.79196
G1 X89.938 Y30.691 E0.82241
G1 X89.438 Y31.041 E0.85286
G1 X89.005 Y31.473 E0.88337
G1 X88.655 Y31.974 E0.91386
G1 X88.398 Y32.527 E0.94428
G1 X88.24 Y33.116 E0.97471
G1 X88.186 Y33.725 E1.00521
G1 X88.24 Y34.333 E1.03566
G1 X88.398 Y34.922 E1.06609
G1 X88.655 Y35.476 E1.09656
G0 F3600 X88.569 Y35.525
G0 X89.413 Y36.438
G0 X89.918 Y36.792
G0 X90.477 Y37.053
G0 X91.074 Y37.213
G0 X91.689 Y37.268
G0 X92.303 Y37.213
G0 X92.901 Y37.053
G0 X93.46 Y36.792
G0 X93.965 Y36.438
G0 X94.402 Y36.001
G0 X94.756 Y35.496
G0 X100.772 Y33.094
G0 X100.789 Y33.192
G1 F1050 X100.015 Y33.4 E1.13654
G1 X99.288 Y33.738 E1.17654
G1 X98.631 Y34.198 E1.21655
G1 X98.063 Y34.766 E1.25663
G1 X97.603 Y35.424 E1.29668
G1 X97.264 Y36.151 E1.3367
G1 X97.057 Y36.925 E1.37667
G1 X96.989 Y37.699 E1.41544
G1 X96.989 Y50.388 E2.04849
G1 X97.057 Y51.162 E2.08726
G1 X97.264 Y51.936 E2.12723
G1 X97.603 Y52.663 E2.16725
G1 X98.063 Y53.32 E2.20726
G1 X98.631 Y53.888 E2.24734
G1 X99.288 Y54.348 E2.28735
G1 X100.015 Y54.687 E2.32737
G1 X100.789 Y54.894 E2.36734
G1 X101.563 Y54.962 E2.40611
G1 X118.515 Y54.962 E3.25185
G1 X119.288 Y54.894 E3.29056
G1 X120.063 Y54.687 E3.33058
G1 X120.79 Y54.348 E3.3706
G1 X121.447 Y53.888 E3.41061
G1 X122.015 Y53.32 E3.45069
G1 X122.475 Y52.663 E3.4907
G1 X122.814 Y51.936 E3.53072
G1 X123.021 Y51.162 E3.57069
G1 X123.089 Y50.388 E3.60946
G1 X123.089 Y37.699 E4.24251
G1 X123.021 Y36.925 E4.28128
G1 X122.814 Y36.151 E4.32125
G1 X122.475 Y35.424 E4.36127
G1 X122.015 Y34.766 E4.40132
G1 X121.447 Y34.198 E4.4414
G1 X120.79 Y33.738 E4.48141
G1 X120.063 Y33.4 E4.52141
G1 X119.288 Y33.192 E4.56145
G1 X118.515 Y33.125 E4.60015
G1 X101.563 Y33.125 E5.44589
G1 X100.789 Y33.192 E5.48465
G0 F3600 X100.772 Y33.094
G0 X118.516 Y33.086
G0 X119.294 Y33.153
G0 X119.926 Y33.323
G0 X125.269 Y35.525
G0 X125.355 Y35.476
G1 F1050 X125.706 Y35.976 E5.51513
G1 X126.138 Y36.408 E5.54561
G1 X126.638 Y36.758 E5.57606
G1 X127.19 Y37.016 E5.60646
G1 X127.78 Y37.174 E5.63693
G1 X128.389 Y37.228 E5.66743
G1 X128.997 Y37.174 E5.69789
G1 X129.588 Y37.016 E5.72841
G1 X130.14 Y36.758 E5.75881
G1 X130.64 Y36.408 E5.78926
G1 X131.072 Y35.976 E5.81974
G1 X131.422 Y35.476 E5.85018
G1 X131.68 Y34.923 E5.88063
G1 X131.838 Y34.333 E5.9111
G1 X131.892 Y33.725 E5.94155
G1 X131.838 Y33.116 E5.97206
G1 X131.68 Y32.526 E6.00253
G1 X131.422 Y31.974 E6.03293
G1 X131.072 Y31.473 E6.06342
G1 X130.64 Y31.041 E6.0939
G1 X130.14 Y30.691 E6.12435
G1 X129.587 Y30.433 E6.15479
G1 X128.996 Y30.276 E6.1853
G1 X128.389 Y30.222 E6.2157
G1 X127.781 Y30.276 E6.24616
G1 X127.191 Y30.433 E6.27661
G1 X126.638 Y30.691 E6.30706
G1 X126.138 Y31.041 E6.33751
G1 X125.705 Y31.473 E6.36802
G1 X125.355 Y31.974 E6.39851
G1 X125.098 Y32.527 E6.42894
G1 X124.94 Y33.116 E6.45936
G1 X124.886 Y33.725 E6.48986
G1 X124.94 Y34.333 E6.52032
G1 X125.098 Y34.922 E6.55074
G1 X125.355 Y35.476 E6.58121
G0 F3600 X125.269 Y35.525
G0 X124.846 Y53.725
G0 X124.89 Y54.221
G0 X125.269 Y55.525
G0 X125.355 Y55.476
G1 F1050 X125.706 Y55.976 E6.61169
G1 X126.138 Y56.408 E6.64217
G1 X126.638 Y56.758 E6.67262
G1 X127.19 Y57.016 E6.70301
G1 X127.78 Y57.174 E6.73349
G1 X128.389 Y57.228 E6.76399
G1 X128.997 Y57.174 E6.79444
G1 X129.588 Y57.016 E6.82496
G1 X130.14 Y56.758 E6.85536
G1 X130.64 Y56.408 E6.88581
G1 X131.072 Y55.976 E6.91629
G1 X131.422 Y55.476 E6.94674
G1 X131.68 Y54.923 E6.97718
G1 X131.838 Y54.333 E7.00766
G1 X131.892 Y53.725 E7.03811
G1 X131.838 Y53.116 E7.06861
G1 X131.68 Y52.526 E7.09908
G1 X131.422 Y51.974 E7.12948
G1 X131.072 Y51.473 E7.15997
G1 X130.64 Y51.041 E7.19045
G1 X130.14 Y50.691 E7.2209
G1 X129.587 Y50.433 E7.25135
G1 X128.996 Y50.276 E7.28186
G1 X128.389 Y50.222 E7.31226
G1 X127.781 Y50.276 E7.34271
G1 X127.191 Y50.433 E7.37317
G1 X126.638 Y50.691 E7.40361
G1 X126.138 Y51.041 E7.43406
G1 X125.705 Y51.473 E7.46458
G1 X125.355 Y51.974 E7.49507
G1 X125.098 Y52.527 E7.52549
G1 X124.94 Y53.116 E7.55592
G1 X124.886 Y53.725 E7.58642
G1 X124.94 Y54.333 E7.61687
G1 X125.098 Y54.922 E7.6473
G1 X125.355 Y55.476 E7.67776
G0 F3600 X125.269 Y55.525
G0 X91.689 Y57.268
G0 X91.074 Y57.213
G0 X90.477 Y57.053
G0 X89.918 Y56.792
G0 X89.51 Y56.506
G0 X88.569 Y55.525
G0 X88.655 Y55.476
G1 F1050 X89.006 Y55.976 E7.70824
G1 X89.438 Y56.408 E7.73872
G1 X89.938 Y56.758 E7.76917
G1 X90.49 Y57.016 E7.79957
G1 X91.08 Y57.174 E7.83004
G1 X91.689 Y57.228 E7.86055
G1 X92.297 Y57.174 E7.891
G1 X92.888 Y57.016 E7.92152
G1 X93.44 Y56.758 E7.95192
G1 X93.94 Y56.408 E7.98237
G1 X94.372 Y55.976 E8.01285
G1 X94.722 Y55.476 E8.0433
G1 X94.98 Y54.923 E8.07374
G1 X95.138 Y54.333 E8.10421
G1 X95.192 Y53.725 E8.13467
G1 X95.138 Y53.116 E8.16517
G1 X94.98 Y52.526 E8.19564
G1 X94.722 Y51.974 E8.22604
G1 X94.372 Y51.473 E8.25653
G1 X93.94 Y51.041 E8.28701
G1 X93.44 Y50.691 E8.31746
G1 X92.887 Y50.433 E8.3479
G1 X92.296 Y50.276 E8.37841
G1 X91.689 Y50.222 E8.40881
G1 X91.081 Y50.276 E8.43927
G1 X90.491 Y50.433 E8.46973
G1 X89.938 Y50.691 E8.50017
G1 X89.438 Y51.041 E8.53062
G1 X89.005 Y51.473 E8.56113
G1 X88.655 Y51.974 E8.59163
G1 X88.398 Y52.527 E8.62205
G1 X88.24 Y53.116 E8.65247
G1 X88.186 Y53.725 E8.68297
G1 X88.24 Y54.333 E8.71343
G1 X88.398 Y54.922 E8.74385
G1 X88.655 Y55.476 E8.77432
G0 F3600 X88.569 Y55.525
G0 X78.198 Y148.04
G0 X78.291 Y148.074
G1 F1050 X78.175 Y148.514 E8.79702
G1 X78.139 Y148.936 E8.81815
G1 X78.139 Y156.943 E9.21762
G1 X78.12 Y157.177 E9.22934
G1 X78.068 Y157.396 E9.24057
G1 X77.984 Y157.598 E9.25148
G1 X77.87 Y157.785 E9.26241
G1 X77.728 Y157.95 E9.27327
G1 X77.559 Y158.095 E9.28438
G1 X77.372 Y158.209 E9.2953
G1 X77.178 Y158.29 E9.30579
G1 X76.954 Y158.343 E9.31727
G1 X76.718 Y158.362 E9.32909
G1 X74.766 Y158.362 E9.42647
G1 X74.495 Y158.339 E9.44004
G1 X74.262 Y158.276 E9.45208
G1 X74.042 Y158.173 E9.4642
G1 X73.837 Y158.03 E9.47667
G1 X73.67 Y157.863 E9.48846
G1 X73.527 Y157.658 E9.50093
G1 X73.423 Y157.437 E9.51311
G1 X73.362 Y157.21 E9.52484
G1 X73.339 Y156.898 E9.54045
G1 X73.339 Y61.267 E14.3115
G1 X73.377 Y60.753 E14.33721
G1 X73.483 Y60.278 E14.36149
G1 X73.673 Y59.778 E14.38818
G1 X86.865 Y31.525 E15.94381
G1 X87.314 Y30.736 E15.9891
G1 X87.855 Y30.067 E16.03202
G1 X88.488 Y29.502 E16.07435
G1 X89.209 Y29.043 E16.11699
G1 X90.009 Y28.7 E16.16042
G1 X90.832 Y28.497 E16.20271
G1 X91.713 Y28.425 E16.24681
G1 X128.365 Y28.425 E18.07539
G1 X129.245 Y28.497 E18.11944
G1 X130.069 Y28.7 E18.16177
G1 X130.864 Y29.041 E18.20493
G1 X131.591 Y29.503 E18.24791
G1 X132.224 Y30.07 E18.2903
G1 X132.766 Y30.741 E18.33334
G1 X133.206 Y31.511 E18.37758
G1 X146.404 Y59.778 E19.93397
G1 X146.594 Y60.277 E19.96061
G1 X146.7 Y60.757 E19.98514
G1 X146.738 Y61.262 E20.0104
G1 X146.739 Y156.893 E24.78145
G1 X146.715 Y157.205 E24.79706
G1 X146.653 Y157.44 E24.80919
G1 X146.553 Y157.655 E24.82102
G1 X146.41 Y157.86 E24.83349
G1 X146.238 Y158.032 E24.84562
G1 X146.044 Y158.169 E24.85747
G1 X145.819 Y158.274 E24.86986
G1 X145.58 Y158.338 E24.8822
G1 X145.323 Y158.361 E24.89508
G1 X143.377 Y158.362 E24.99216
G1 X143.095 Y158.34 E25.00627
G1 X142.866 Y158.278 E25.01811
G1 X142.645 Y158.175 E25.03028
G1 X142.439 Y158.031 E25.04281
G1 X142.272 Y157.865 E25.05456
G1 X142.13 Y157.662 E25.06692
G1 X142.028 Y157.445 E25.07888
G1 X141.962 Y157.2 E25.09154
G1 X141.94 Y156.946 E25.10426
G1 X141.939 Y148.933 E25.50403
G1 X141.9 Y148.508 E25.52533
G1 X141.783 Y148.07 E25.54794
G1 X141.592 Y147.659 E25.57055
G1 X141.329 Y147.285 E25.59337
G1 X141.009 Y146.967 E25.61587
G1 X140.638 Y146.707 E25.63847
G1 X140.227 Y146.516 E25.66109
G1 X139.788 Y146.398 E25.68376
G1 X139.365 Y146.362 E25.70494
G1 X80.71 Y146.362 E28.63125
G1 X80.284 Y146.4 E28.65259
G1 X79.846 Y146.518 E28.67522
G1 X79.436 Y146.709 E28.69779
G1 X79.063 Y146.971 E28.72053
G1 X78.744 Y147.291 E28.74307
G1 X78.484 Y147.663 E28.76571
G1 X78.291 Y148.074 E28.78837
G0 F3600 X78.669 Y148.211
;TYPE:WALL-OUTER
G1 F1050 X78.571 Y148.583 E28.80756
G1 X78.539 Y148.953 E28.82609
G1 X78.539 Y156.962 E29.22566
G1 X78.517 Y157.238 E29.23947
G1 X78.449 Y157.522 E29.25404
G1 X78.343 Y157.778 E29.26787
G1 X78.194 Y158.021 E29.28209
G1 X78.011 Y158.234 E29.2961
G1 X77.795 Y158.419 E29.31028
G1 X77.557 Y158.565 E29.32421
G1 X77.299 Y158.672 E29.33815
G1 X77.015 Y158.74 E29.35272
G1 X76.736 Y158.762 E29.36668
G1 X74.744 Y158.762 E29.46606
G1 X74.427 Y158.735 E29.48194
G1 X74.122 Y158.652 E29.49771
G1 X73.843 Y158.522 E29.51306
G1 X73.578 Y158.337 E29.52919
G1 X73.364 Y158.123 E29.54428
G1 X73.18 Y157.86 E29.5603
G1 X73.047 Y157.577 E29.5759
G1 X72.966 Y157.274 E29.59155
G1 X72.939 Y156.915 E29.60951
G1 X72.939 Y61.25 E34.38225
G1 X72.98 Y60.698 E34.40987
G1 X73.1 Y60.16 E34.43737
G1 X73.299 Y59.635 E34.46538
G1 X86.517 Y31.327 E36.02405
G1 X86.982 Y30.51 E36.07095
G1 X87.561 Y29.794 E36.11689
G1 X88.248 Y29.181 E36.16282
G1 X89.026 Y28.686 E36.20883
G1 X89.877 Y28.321 E36.25502
G1 X90.771 Y28.1 E36.30097
G1 X91.693 Y28.025 E36.34712
G1 X128.385 Y28.025 E38.17769
G1 X129.306 Y28.1 E38.22379
G1 X130.201 Y28.321 E38.26978
G1 X131.052 Y28.686 E38.31598
G1 X131.831 Y29.181 E38.36203
G1 X132.513 Y29.791 E38.40768
G1 X133.097 Y30.514 E38.45404
G1 X133.561 Y31.327 E38.50075
G1 X146.778 Y59.635 E40.05939
G1 X146.979 Y60.161 E40.08748
G1 X147.097 Y60.697 E40.11487
G1 X147.138 Y61.245 E40.14228
G1 X147.139 Y156.911 E44.91508
G1 X147.111 Y157.272 E44.93314
G1 X147.031 Y157.575 E44.94878
G1 X146.901 Y157.855 E44.96418
G1 X146.716 Y158.12 E44.9803
G1 X146.498 Y158.338 E44.99568
G1 X146.242 Y158.518 E45.0113
G1 X145.959 Y158.65 E45.02688
G1 X145.653 Y158.733 E45.04269
G1 X145.335 Y158.761 E45.05862
G1 X143.358 Y158.762 E45.15725
G1 X143.029 Y158.736 E45.17372
G1 X142.725 Y158.654 E45.18943
G1 X142.446 Y158.524 E45.20478
G1 X142.184 Y158.341 E45.22073
G1 X141.964 Y158.122 E45.23621
G1 X141.782 Y157.863 E45.25201
G1 X141.649 Y157.58 E45.26761
G1 X141.568 Y157.275 E45.28335
G1 X141.54 Y156.958 E45.29923
G1 X141.539 Y148.951 E45.6987
G1 X141.505 Y148.578 E45.71739
G1 X141.406 Y148.207 E45.73654
G1 X141.244 Y147.86 E45.75565
G1 X141.022 Y147.544 E45.77491
G1 X140.751 Y147.275 E45.79396
G1 X140.437 Y147.055 E45.81309
G1 X140.09 Y146.893 E45.8322
G1 X139.719 Y146.794 E45.85136
G1 X139.348 Y146.762 E45.86993
G1 X80.728 Y146.762 E48.7945
G1 X80.354 Y146.795 E48.81323
G1 X79.984 Y146.895 E48.83235
G1 X79.637 Y147.057 E48.85146
G1 X79.322 Y147.278 E48.87065
G1 X79.052 Y147.549 E48.88974
G1 X78.832 Y147.864 E48.90891
G1 X78.669 Y148.211 E48.92803
G0 F3600 X78.618 Y148.404
G0 X78.136 Y148.276
G0 X95.177 Y54.339
G0 X95.232 Y53.725
G0 X95.177 Y53.11
G0 X95.017 Y52.513
G0 X94.756 Y51.955
G0 X94.402 Y51.448
G0 X94.009 Y51.055
G0 X92.879 Y50.329
G0 X92.75 Y50.81
G1 F1050 X92.227 Y50.671 E48.95503
G1 X91.689 Y50.624 E48.98198
G1 X91.15 Y50.671 E49.00897
G1 X90.628 Y50.81 E49.03592
G1 X90.139 Y51.039 E49.06286
G1 X89.696 Y51.349 E49.08983
G1 X89.313 Y51.731 E49.11682
G1 X89.003 Y52.175 E49.14384
G1 X88.775 Y52.664 E49.17075
G1 X88.635 Y53.186 E49.19772
G1 X88.588 Y53.725 E49.22471
G1 X88.635 Y54.263 E49.25165
G1 X88.775 Y54.785 E49.27862
G1 X89.003 Y55.275 E49.30558
G1 X89.313 Y55.718 E49.33255
G1 X89.696 Y56.1 E49.35954
G1 X90.139 Y56.41 E49.38652
G1 X90.628 Y56.639 E49.41346
G1 X91.15 Y56.779 E49.44042
G1 X91.689 Y56.826 E49.46741
G1 X92.227 Y56.779 E49.49436
G1 X92.75 Y56.639 E49.52137
G1 X93.239 Y56.41 E49.54831
G1 X93.682 Y56.1 E49.57528
G1 X94.064 Y55.718 E49.60223
G1 X94.374 Y55.275 E49.62921
G1 X94.603 Y54.785 E49.65619
G1 X94.743 Y54.263 E49.68316
G1 X94.79 Y53.725 E49.7101
G1 X94.743 Y53.186 E49.73709
G1 X94.603 Y52.664 E49.76405
G1 X94.374 Y52.175 E49.79099
G1 X94.064 Y51.731 E49.81801
G1 X93.682 Y51.349 E49.84496
G1 X93.239 Y51.039 E49.87194
G1 X92.75 Y50.81 E49.89888
G0 F3600 X92.557 Y50.759
G0 X92.685 Y50.277
G0 X97.227 Y36.138
G0 X97.569 Y35.405
G0 X98.033 Y34.741
G0 X98.606 Y34.168
G0 X99.269 Y33.704
G0 X99.684 Y33.512
G0 X100.815 Y33.09
G0 X100.859 Y33.587
G1 F1050 X100.152 Y33.777 E49.9354
G1 X99.489 Y34.086 E49.97189
G1 X98.889 Y34.506 E50.00843
G1 X98.371 Y35.024 E50.04498
G1 X97.951 Y35.625 E50.08156
G1 X97.641 Y36.288 E50.11807
G1 X97.452 Y36.995 E50.15459
G1 X97.389 Y37.716 E50.19069
G1 X97.389 Y50.371 E50.82205
G1 X97.452 Y51.092 E50.85816
G1 X97.641 Y51.799 E50.89467
G1 X97.951 Y52.462 E50.93119
G1 X98.371 Y53.062 E50.96773
G1 X98.889 Y53.58 E51.00427
G1 X99.489 Y54 E51.04081
G1 X100.152 Y54.31 E51.07733
G1 X100.859 Y54.499 E51.11384
G1 X101.58 Y54.562 E51.14995
G1 X118.498 Y54.562 E51.99399
G1 X119.218 Y54.499 E52.03005
G1 X119.926 Y54.31 E52.06661
G1 X120.589 Y54 E52.10312
G1 X121.189 Y53.58 E52.13966
G1 X121.707 Y53.062 E52.17621
G1 X122.127 Y52.462 E52.21275
G1 X122.437 Y51.799 E52.24926
G1 X122.626 Y51.092 E52.28577
G1 X122.689 Y50.371 E52.32188
G1 X122.689 Y37.716 E52.95324
G1 X122.626 Y36.995 E52.98935
G1 X122.437 Y36.288 E53.02586
G1 X122.127 Y35.625 E53.06237
G1 X121.707 Y35.024 E53.09895
G1 X121.189 Y34.506 E53.1355
G1 X120.589 Y34.086 E53.17204
G1 X119.926 Y33.777 E53.20853
G1 X119.218 Y33.587 E53.24511
G1 X118.498 Y33.525 E53.28116
G1 X101.58 Y33.525 E54.1252
G1 X100.859 Y33.587 E54.16131
G0 F3600 X100.666 Y33.638
G0 X100.538 Y33.156
G0 X92.879 Y30.329
G0 X92.75 Y30.81
G1 F1050 X92.227 Y30.671 E54.1883
G1 X91.689 Y30.624 E54.21525
G1 X91.15 Y30.671 E54.24224
G1 X90.628 Y30.81 E54.26919
G1 X90.139 Y31.039 E54.29613
G1 X89.696 Y31.349 E54.32311
G1 X89.313 Y31.731 E54.35009
G1 X89.003 Y32.175 E54.37711
G1 X88.775 Y32.664 E54.40403
G1 X88.635 Y33.186 E54.43099
G1 X88.588 Y33.725 E54.45798
G1 X88.635 Y34.263 E54.48493
G1 X88.775 Y34.785 E54.51189
G1 X89.003 Y35.275 E54.53885
G1 X89.313 Y35.718 E54.56583
G1 X89.696 Y36.1 E54.59281
G1 X90.139 Y36.41 E54.61979
G1 X90.628 Y36.639 E54.64673
G1 X91.15 Y36.779 E54.67369
G1 X91.689 Y36.826 E54.70068
G1 X92.227 Y36.779 E54.72763
G1 X92.75 Y36.639 E54.75464
G1 X93.239 Y36.41 E54.78158
G1 X93.682 Y36.1 E54.80855
G1 X94.064 Y35.718 E54.83551
G1 X94.374 Y35.275 E54.86248
G1 X94.603 Y34.785 E54.88946
G1 X94.743 Y34.263 E54.91643
G1 X94.79 Y33.725 E54.94337
G1 X94.743 Y33.186 E54.97036
G1 X94.603 Y32.664 E54.99733
G1 X94.374 Y32.175 E55.02427
G1 X94.064 Y31.731 E55.05128
G1 X93.682 Y31.349 E55.07823
G1 X93.239 Y31.039 E55.10521
G1 X92.75 Y30.81 E55.13215
G0 F3600 X92.557 Y30.759
G0 X92.685 Y30.277
G0 X128.389 Y30.182
G0 X129.579 Y30.329
G0 X129.45 Y30.81
G1 F1050 X128.927 Y30.671 E55.15915
G1 X128.389 Y30.624 E55.18609
G1 X127.85 Y30.671 E55.21308
G1 X127.328 Y30.81 E55.24003
G1 X126.839 Y31.039 E55.26697
G1 X126.396 Y31.349 E55.29395
G1 X126.013 Y31.731 E55.32093
G1 X125.703 Y32.175 E55.34795
G1 X125.475 Y32.664 E55.37487
G1 X125.335 Y33.186 E55.40183
G1 X125.288 Y33.725 E55.42882
G1 X125.335 Y34.263 E55.45577
G1 X125.475 Y34.785 E55.48273
G1 X125.703 Y35.275 E55.50969
