;FLAVOR:Marlin
;TIME:4733
;Filament used: 4.06898m
;Layer height: 0.3
;Generated with Cura_SteamEngine 3.4.1
M190 S64
M104 S200
M109 S200
M82 ;absolute extrusion mode
G21 ;metric values
G90 ;absolute positioning
M82 ;set extruder to absolute mode
M107 ;start with the fan off
G28 X0 Y0 ;move X/Y to min endstops
G28 Z0 ;move Z to min endstops
G1 Z15.0 F9000 ;move the platform down 15mm
G92 E0 ;zero the extruded length
G1 F200 E3 ;extrude 3mm of feed stock
G92 E0 ;zero the extruded length again
G1 F9000
;Put printing message on LCD screen
M117 Printing...
G92 E0
G1 F1500 E-5
;LAYER_COUNT:6
;LAYER:0
M107
G0 F3600 X74.097 Y70.6 Z0.3
;TYPE:WALL-INNER
G1 F1500 E0
G1 F1050 X74.136 Y71.035 E0.02179
G1 X74.249 Y71.457 E0.04358
G1 X74.433 Y71.851 E0.06528
G1 X74.683 Y72.208 E0.08702
G1 X74.992 Y72.517 E0.10882
G1 X75.349 Y72.767 E0.13057
G1 X75.743 Y72.951 E0.15226
G1 X76.165 Y73.064 E0.17406
G1 X76.6 Y73.103 E0.19585
G1 X77.035 Y73.064 E0.21764
G1 X77.457 Y72.951 E0.23943
G1 X77.851 Y72.767 E0.26113
G1 X78.208 Y72.517 E0.28287
G1 X78.517 Y72.208 E0.30467
G1 X78.767 Y71.851 E0.32642
G1 X78.951 Y71.457 E0.34811
G1 X79.064 Y71.035 E0.36991
G1 X79.103 Y70.6 E0.3917
G1 X79.064 Y70.165 E0.41348
G1 X78.951 Y69.743 E0.43528
G1 X78.767 Y69.349 E0.45697
G1 X78.517 Y68.992 E0.47872
G1 X78.208 Y68.683 E0.50052
G1 X77.851 Y68.433 E0.52226
G1 X77.457 Y68.249 E0.54396
G1 X77.035 Y68.136 E0.56575
G1 X76.6 Y68.097 E0.58754
G1 X76.165 Y68.136 E0.60933
G1 X75.743 Y68.249 E0.63113
G1 X75.349 Y68.433 E0.65282
G1 X74.992 Y68.683 E0.67457
G1 X74.683 Y68.992 E0.69637
G1 X74.433 Y69.349 E0.71811
G1 X74.249 Y69.743 E0.73981
G1 X74.136 Y70.165 E0.7616
G1 X74.097 Y70.6 E0.78339
G0 F3600 X73.997 Y70.6
G0 X74.212 Y69.73
G0 X74.653 Y68.967
G0 X75.329 Y68.399
G0 X75.73 Y68.212
G0 X76.434 Y68.087
G0 X140.797 Y70.6
G0 X140.897 Y70.6
G1 F1050 X140.936 Y71.035 E0.80518
G1 X141.049 Y71.457 E0.82698
G1 X141.233 Y71.851 E0.84867
G1 X141.483 Y72.208 E0.87041
G1 X141.792 Y72.517 E0.89222
G1 X142.149 Y72.767 E0.91396
G1 X142.543 Y72.951 E0.93565
G1 X142.965 Y73.064 E0.95745
G1 X143.4 Y73.103 E0.97924
G1 X143.835 Y73.064 E1.00103
G1 X144.257 Y72.951 E1.02282
G1 X144.651 Y72.767 E1.04452
G1 X145.008 Y72.517 E1.06626
G1 X145.317 Y72.208 E1.08806
G1 X145.567 Y71.851 E1.10981
G1 X145.751 Y71.457 E1.1315
G1 X145.864 Y71.035 E1.1533
G1 X145.903 Y70.6 E1.17509
G1 X145.864 Y70.165 E1.19688
G1 X145.751 Y69.743 E1.21867
G1 X145.567 Y69.349 E1.24037
G1 X145.317 Y68.992 E1.26211
G1 X145.008 Y68.683 E1.28391
G1 X144.651 Y68.433 E1.30565
G1 X144.257 Y68.249 E1.32735
G1 X143.835 Y68.136 E1.34914
G1 X143.4 Y68.097 E1.37093
G1 X142.965 Y68.136 E1.39272
G1 X142.543 Y68.249 E1.41452
G1 X142.149 Y68.433 E1.43621
G1 X141.792 Y68.683 E1.45796
G1 X141.483 Y68.992 E1.47976
G1 X141.233 Y69.349 E1.5015
G1 X141.049 Y69.743 E1.5232
G1 X140.936 Y70.165 E1.54499
G1 X140.897 Y70.6 E1.56678
G0 F3600 X140.797 Y70.6
G0 X141.012 Y69.73
G0 X141.199 Y69.329
G0 X141.767 Y68.653
G0 X144.223 Y67.101
G0 X144.24 Y67.003
G1 F1050 X144.812 Y67.156 E1.59632
G1 X145.342 Y67.403 E1.62549
G1 X145.839 Y67.752 E1.65579
G1 X146.248 Y68.161 E1.68465
G1 X146.597 Y68.658 E1.71495
G1 X146.844 Y69.188 E1.74412
G1 X146.997 Y69.76 E1.77366
G1 X147.05 Y70.362 E1.80381
G1 X147.05 Y149.638 E5.75891
G1 X146.997 Y150.24 E5.78906
G1 X146.844 Y150.812 E5.8186
G1 X146.597 Y151.342 E5.84777
G1 X146.248 Y151.839 E5.87807
G1 X145.839 Y152.248 E5.90692
G1 X145.342 Y152.597 E5.93722
G1 X144.812 Y152.844 E5.96639
G1 X144.24 Y152.997 E5.99593
G1 X143.632 Y153.05 E6.02638
G1 X76.368 Y153.05 E9.3822
G1 X75.76 Y152.997 E9.41265
G1 X75.188 Y152.844 E9.44219
G1 X74.658 Y152.597 E9.47136
G1 X74.161 Y152.248 E9.50166
G1 X73.752 Y151.839 E9.53051
G1 X73.403 Y151.342 E9.56081
G1 X73.156 Y150.812 E9.58998
G1 X73.003 Y150.24 E9.61952
G1 X72.95 Y149.638 E9.64968
G1 X72.95 Y70.362 E13.60477
G1 X73.003 Y69.76 E13.63492
G1 X73.156 Y69.188 E13.66446
G1 X73.403 Y68.658 E13.69363
G1 X73.752 Y68.161 E13.72393
G1 X74.161 Y67.752 E13.75279
G1 X74.658 Y67.403 E13.78309
G1 X75.188 Y67.156 E13.81226
G1 X75.76 Y67.003 E13.8418
G1 X76.368 Y66.95 E13.87225
G1 X143.632 Y66.95 E17.22806
G1 X144.24 Y67.003 E17.25851
G0 F3600 X144.223 Y67.101
G0 X145.601 Y69.329
G0 X145.788 Y69.73
G0 X145.927 Y70.513
G0 X140.797 Y149.4
G0 X140.897 Y149.4
G1 F1050 X140.936 Y149.835 E17.2803
G1 X141.049 Y150.257 E17.3021
G1 X141.233 Y150.651 E17.32379
G1 X141.483 Y151.008 E17.34553
G1 X141.792 Y151.317 E17.36734
G1 X142.149 Y151.567 E17.38908
G1 X142.543 Y151.751 E17.41077
G1 X142.965 Y151.864 E17.43257
G1 X143.4 Y151.903 E17.45436
G1 X143.835 Y151.864 E17.47615
G1 X144.257 Y151.751 E17.49794
G1 X144.651 Y151.567 E17.51964
G1 X145.008 Y151.317 E17.54138
G1 X145.317 Y151.008 E17.56318
G1 X145.567 Y150.651 E17.58493
G1 X145.751 Y150.257 E17.60662
G1 X145.864 Y149.835 E17.62842
G1 X145.903 Y149.4 E17.65021
G1 X145.864 Y148.965 E17.672
G1 X145.751 Y148.543 E17.69379
G1 X145.567 Y148.149 E17.71549
G1 X145.317 Y147.792 E17.73723
G1 X145.008 Y147.483 E17.75903
G1 X144.651 Y147.233 E17.78077
G1 X144.257 Y147.049 E17.80247
G1 X143.835 Y146.936 E17.82426
G1 X143.4 Y146.897 E17.84605
G1 X142.965 Y146.936 E17.86784
G1 X142.543 Y147.049 E17.88964
G1 X142.149 Y147.233 E17.91133
G1 X141.792 Y147.483 E17.93308
G1 X141.483 Y147.792 E17.95488
G1 X141.233 Y148.149 E17.97662
G1 X141.049 Y148.543 E17.99832
G1 X140.936 Y148.965 E18.02011
G1 X140.897 Y149.4 E18.0419
G0 F3600 X140.797 Y149.4
G0 X76.6 Y151.943
G0 X75.73 Y151.788
G0 X74.967 Y151.347
G0 X74.399 Y150.671
G0 X74.229 Y150.201
G0 X73.997 Y149.4
G0 X74.097 Y149.4
G1 F1050 X74.136 Y149.835 E18.06369
G1 X74.249 Y150.257 E18.08549
G1 X74.433 Y150.651 E18.10718
G1 X74.683 Y151.008 E18.12892
G1 X74.992 Y151.317 E18.15073
G1 X75.349 Y151.567 E18.17247
G1 X75.743 Y151.751 E18.19416
G1 X76.165 Y151.864 E18.21596
G1 X76.6 Y151.903 E18.23775
G1 X77.035 Y151.864 E18.25954
G1 X77.457 Y151.751 E18.28133
G1 X77.851 Y151.567 E18.30303
G1 X78.208 Y151.317 E18.32477
G1 X78.517 Y151.008 E18.34657
G1 X78.767 Y150.651 E18.36832
G1 X78.951 Y150.257 E18.39001
G1 X79.064 Y149.835 E18.41181
G1 X79.103 Y149.4 E18.4336
G1 X79.064 Y148.965 E18.45539
G1 X78.951 Y148.543 E18.47718
G1 X78.767 Y148.149 E18.49888
G1 X78.517 Y147.792 E18.52062
G1 X78.208 Y147.483 E18.54242
G1 X77.851 Y147.233 E18.56417
G1 X77.457 Y147.049 E18.58586
G1 X77.035 Y146.936 E18.60766
G1 X76.6 Y146.897 E18.62944
G1 X76.165 Y146.936 E18.65123
G1 X75.743 Y147.049 E18.67303
G1 X75.349 Y147.233 E18.69472
G1 X74.992 Y147.483 E18.71647
G1 X74.683 Y147.792 E18.73827
G1 X74.433 Y148.149 E18.76001
G1 X74.249 Y148.543 E18.78171
G1 X74.136 Y148.965 E18.8035
G1 X74.097 Y149.4 E18.82529
G0 F3600 X73.997 Y149.4
G0 X74.212 Y148.53
G0 X74.653 Y147.767
G0 X75.035 Y147.446
G0 X75.671 Y146.973
G0 X75.881 Y147.426
;TYPE:WALL-OUTER
G1 F1050 X75.55 Y147.581 E18.84353
G1 X75.25 Y147.791 E18.8618
G1 X74.991 Y148.05 E18.88007
G1 X74.781 Y148.35 E18.89834
G1 X74.626 Y148.681 E18.91657
G1 X74.531 Y149.035 E18.93486
G1 X74.499 Y149.4 E18.95314
G1 X74.531 Y149.765 E18.97142
G1 X74.626 Y150.119 E18.98971
G1 X74.781 Y150.45 E19.00794
G1 X74.991 Y150.75 E19.02621
G1 X75.25 Y151.009 E19.04448
G1 X75.55 Y151.219 E19.06275
G1 X75.881 Y151.374 E19.08099
G1 X76.235 Y151.469 E19.09927
G1 X76.6 Y151.501 E19.11755
G1 X76.965 Y151.469 E19.13583
G1 X77.319 Y151.374 E19.15412
G1 X77.65 Y151.219 E19.17235
G1 X77.95 Y151.009 E19.19062
G1 X78.209 Y150.75 E19.2089
G1 X78.419 Y150.45 E19.22717
G1 X78.574 Y150.119 E19.2454
G1 X78.669 Y149.765 E19.26369
G1 X78.701 Y149.4 E19.28197
G1 X78.669 Y149.035 E19.30025
G1 X78.574 Y148.681 E19.31853
G1 X78.419 Y148.35 E19.33677
G1 X78.209 Y148.05 E19.35504
G1 X77.95 Y147.791 E19.37331
G1 X77.65 Y147.581 E19.39158
G1 X77.319 Y147.426 E19.40982
G1 X76.965 Y147.331 E19.4281
G1 X76.6 Y147.299 E19.44638
G1 X76.235 Y147.331 E19.46466
G1 X75.881 Y147.426 E19.48295
G0 F3600 X75.7 Y147.51
G0 X75.489 Y147.058
G0 X76.388 Y146.896
G0 X142.471 Y146.973
G0 X142.681 Y147.426
G1 F1050 X142.35 Y147.581 E19.50118
G1 X142.05 Y147.791 E19.51945
G1 X141.791 Y148.05 E19.53773
G1 X141.581 Y148.35 E19.556
G1 X141.426 Y148.681 E19.57423
G1 X141.331 Y149.035 E19.59252
G1 X141.299 Y149.4 E19.6108
G1 X141.331 Y149.765 E19.62908
G1 X141.426 Y150.119 E19.64736
G1 X141.581 Y150.45 E19.6656
G1 X141.791 Y150.75 E19.68387
G1 X142.05 Y151.009 E19.70214
G1 X142.35 Y151.219 E19.72041
G1 X142.681 Y151.374 E19.73864
G1 X143.035 Y151.469 E19.75693
G1 X143.4 Y151.501 E19.77521
G1 X143.765 Y151.469 E19.79349
G1 X144.119 Y151.374 E19.81178
G1 X144.45 Y151.219 E19.83001
G1 X144.75 Y151.009 E19.84828
G1 X145.009 Y150.75 E19.86655
G1 X145.219 Y150.45 E19.88482
G1 X145.374 Y150.119 E19.90306
G1 X145.469 Y149.765 E19.92134
G1 X145.501 Y149.4 E19.93962
G1 X145.469 Y149.035 E19.9579
G1 X145.374 Y148.681 E19.97619
G1 X145.219 Y148.35 E19.99442
G1 X145.009 Y148.05 E20.01269
G1 X144.75 Y147.791 E20.03097
G1 X144.45 Y147.581 E20.04924
G1 X144.119 Y147.426 E20.06747
G1 X143.765 Y147.331 E20.08576
G1 X143.4 Y147.299 E20.10404
G1 X143.035 Y147.331 E20.12232
G1 X142.681 Y147.426 E20.1406
G0 F3600 X142.5 Y147.51
G0 X142.289 Y147.058
G0 X140.857 Y70.6
G0 X141.012 Y69.73
G0 X141.199 Y69.329
G0 X141.658 Y68.782
G0 X142.471 Y68.173
G0 X142.681 Y68.626
G1 F1050 X142.35 Y68.781 E20.15884
G1 X142.05 Y68.991 E20.17711
G1 X141.791 Y69.25 E20.19538
G1 X141.581 Y69.55 E20.21365
G1 X141.426 Y69.881 E20.23189
G1 X141.331 Y70.235 E20.25017
G1 X141.299 Y70.6 E20.26845
G1 X141.331 Y70.965 E20.28673
G1 X141.426 Y71.319 E20.30502
G1 X141.581 Y71.65 E20.32325
G1 X141.791 Y71.95 E20.34152
G1 X142.05 Y72.209 E20.35979
G1 X142.35 Y72.419 E20.37806
G1 X142.681 Y72.574 E20.3963
G1 X143.035 Y72.669 E20.41459
G1 X143.4 Y72.701 E20.43286
G1 X143.765 Y72.669 E20.45114
G1 X144.119 Y72.574 E20.46943
G1 X144.45 Y72.419 E20.48767
G1 X144.75 Y72.209 E20.50593
G1 X145.009 Y71.95 E20.52421
G1 X145.219 Y71.65 E20.54248
G1 X145.374 Y71.319 E20.56071
G1 X145.469 Y70.965 E20.579
G1 X145.501 Y70.6 E20.59728
G1 X145.469 Y70.235 E20.61556
G1 X145.374 Y69.881 E20.63384
G1 X145.219 Y69.55 E20.65208
G1 X145.009 Y69.25 E20.67035
G1 X144.75 Y68.991 E20.68862
G1 X144.45 Y68.781 E20.70689
G1 X144.119 Y68.626 E20.72513
G1 X143.765 Y68.531 E20.74341
G1 X143.4 Y68.499 E20.76169
G1 X143.035 Y68.531 E20.77997
G1 X142.681 Y68.626 E20.79826
G0 F3600 X142.5 Y68.71
G0 X142.289 Y68.258
G0 X144.223 Y67.101
G0 X144.309 Y66.608
G1 F1050 X144.949 Y66.779 E20.83131
G1 X145.548 Y67.059 E20.8643
G1 X146.096 Y67.443 E20.89768
G1 X146.557 Y67.904 E20.93021
G1 X146.941 Y68.452 E20.96359
G1 X147.221 Y69.051 E20.99658
G1 X147.392 Y69.691 E21.02963
G1 X147.45 Y70.35 E21.06263
G1 X147.45 Y149.65 E25.01893
G1 X147.392 Y150.309 E25.05193
G1 X147.221 Y150.949 E25.08498
G1 X146.941 Y151.548 E25.11797
G1 X146.557 Y152.096 E25.15135
G1 X146.096 Y152.557 E25.18388
G1 X145.548 Y152.941 E25.21726
G1 X144.949 Y153.221 E25.25025
G1 X144.309 Y153.392 E25.2833
G1 X143.644 Y153.45 E25.3166
G1 X76.356 Y153.45 E28.67362
G1 X75.691 Y153.392 E28.70692
G1 X75.051 Y153.221 E28.73997
G1 X74.452 Y152.941 E28.77296
G1 X73.904 Y152.557 E28.80634
G1 X73.443 Y152.096 E28.83887
G1 X73.059 Y151.548 E28.87225
G1 X72.779 Y150.949 E28.90524
G1 X72.608 Y150.309 E28.93829
G1 X72.55 Y149.65 E28.97129
G1 X72.55 Y70.35 E32.92759
G1 X72.608 Y69.691 E32.96059
G1 X72.779 Y69.051 E32.99364
G1 X73.059 Y68.452 E33.02663
G1 X73.443 Y67.904 E33.06001
G1 X73.904 Y67.443 E33.09254
G1 X74.452 Y67.059 E33.12592
G1 X75.051 Y66.779 E33.15891
G1 X75.691 Y66.608 E33.19196
G1 X76.356 Y66.55 E33.22526
G1 X143.644 Y66.55 E36.58227
G1 X144.309 Y66.608 E36.61558
G0 F3600 X144.502 Y66.659
G0 X144.373 Y67.141
G0 X76.159 Y68.097
G0 X75.671 Y68.173
G0 X75.881 Y68.626
G1 F1050 X75.55 Y68.781 E36.63381
G1 X75.25 Y68.991 E36.65208
G1 X74.991 Y69.25 E36.67036
G1 X74.781 Y69.55 E36.68863
G1 X74.626 Y69.881 E36.70686
G1 X74.531 Y70.235 E36.72515
G1 X74.499 Y70.6 E36.74343
G1 X74.531 Y70.965 E36.76171
G1 X74.626 Y71.319 E36.77999
G1 X74.781 Y71.65 E36.79823
G1 X74.991 Y71.95 E36.8165
G1 X75.25 Y72.209 E36.83477
G1 X75.55 Y72.419 E36.85304
G1 X75.881 Y72.574 E36.87127
G1 X76.235 Y72.669 E36.88956
G1 X76.6 Y72.701 E36.90784
G1 X76.965 Y72.669 E36.92612
G1 X77.319 Y72.574 E36.94441
G1 X77.65 Y72.419 E36.96264
G1 X77.95 Y72.209 E36.98091
G1 X78.209 Y71.95 E36.99918
G1 X78.419 Y71.65 E37.01745
G1 X78.574 Y71.319 E37.03569
G1 X78.669 Y70.965 E37.05397
G1 X78.701 Y70.6 E37.07225
G1 X78.669 Y70.235 E37.09053
G1 X78.574 Y69.881 E37.10882
G1 X78.419 Y69.55 E37.12705
G1 X78.209 Y69.25 E37.14532
G1 X77.95 Y68.991 E37.1636
G1 X77.65 Y68.781 E37.18187
G1 X77.319 Y68.626 E37.2001
G1 X76.965 Y68.531 E37.21839
G1 X76.6 Y68.499 E37.23667
G1 X76.235 Y68.531 E37.25495
G1 X75.881 Y68.626 E37.27323
G0 F3600 X75.7 Y68.71
G0 X75.489 Y68.258
G0 X75.154 Y68.094
;TYPE:SKIN
G1 F1050 X74.74 Y68.383 E37.29842
G1 X74.383 Y68.74 E37.32361
G1 X74.094 Y69.154 E37.3488
G1 X73.881 Y69.609 E37.37386
G1 X73.75 Y70.097 E37.39907
G1 X73.705 Y70.6 E37.42427
G1 X73.75 Y71.103 E37.44946
G1 X73.881 Y71.591 E37.47467
G1 X74.094 Y72.046 E37.49973
G1 X74.383 Y72.46 E37.52492
G1 X74.74 Y72.817 E37.55011
G1 X75.154 Y73.106 E37.5753
G1 X75.609 Y73.319 E37.60037
G1 X76.097 Y73.45 E37.62557
G1 X76.6 Y73.495 E37.65077
G1 X77.103 Y73.45 E37.67596
G1 X77.591 Y73.319 E37.70117
G1 X78.046 Y73.106 E37.72624
G1 X78.46 Y72.817 E37.75143
G1 X78.817 Y72.46 E37.77661
G1 X79.106 Y72.046 E37.8018
G1 X79.319 Y71.591 E37.82687
G1 X79.45 Y71.103 E37.85208
G1 X79.495 Y70.6 E37.87727
G1 X79.45 Y70.097 E37.90247
G1 X79.319 Y69.609 E37.92767
G1 X79.106 Y69.154 E37.95274
G1 X78.817 Y68.74 E37.97793
G1 X78.46 Y68.383 E38.00312
G1 X78.046 Y68.094 E38.02831
G1 X77.591 Y67.881 E38.05337
G1 X77.103 Y67.75 E38.07858
G1 X76.6 Y67.705 E38.10377
G1 X76.097 Y67.75 E38.12897
G1 X75.609 Y67.881 E38.15418
G1 X75.154 Y68.094 E38.17924
G0 F3600 X75.316 Y67.526
G1 F1050 X75.833 Y67.387 E38.20595
G1 X76.378 Y67.34 E38.23324
G1 X143.622 Y67.34 E41.58806
G1 X144.167 Y67.387 E41.61535
G1 X144.684 Y67.526 E41.64206
G1 X145.14 Y67.738 E41.66715
G1 X145.595 Y68.058 E41.6949
G1 X145.942 Y68.405 E41.71938
G1 X146.262 Y68.86 E41.74713
G1 X146.477 Y69.321 E41.77251
G1 X146.612 Y69.827 E41.79864
G1 X146.66 Y70.369 E41.82578
G1 X146.66 Y149.631 E45.78018
G1 X146.612 Y150.173 E45.80733
G1 X146.477 Y150.679 E45.83346
G1 X146.262 Y151.14 E45.85883
G1 X145.942 Y151.595 E45.88659
G1 X145.595 Y151.942 E45.91107
G1 X145.14 Y152.262 E45.93882
G1 X144.684 Y152.474 E45.96391
G1 X144.167 Y152.613 E45.99062
G1 X143.622 Y152.66 E46.01791
G1 X76.378 Y152.66 E49.37273
G1 X75.833 Y152.613 E49.40002
G1 X75.316 Y152.474 E49.42673
G1 X74.86 Y152.262 E49.45181
G1 X74.405 Y151.942 E49.47957
G1 X74.058 Y151.595 E49.50405
G1 X73.738 Y151.14 E49.5318
G1 X73.523 Y150.679 E49.55718
G1 X73.388 Y150.173 E49.58331
G1 X73.34 Y149.631 E49.61045
G1 X73.34 Y70.369 E53.56485
G1 X73.388 Y69.827 E53.592
G1 X73.523 Y69.321 E53.61812
G1 X73.738 Y68.86 E53.6435
G1 X74.058 Y68.405 E53.67125
G1 X74.405 Y68.058 E53.69574
G1 X74.86 Y67.738 E53.72349
G1 X75.316 Y67.526 E53.74858
G0 F3600 X140.505 Y70.6
G1 F1050 X140.55 Y71.103 E53.77377
G1 X140.681 Y71.591 E53.79898
G1 X140.894 Y72.046 E53.82404
G1 X141.183 Y72.46 E53.84923
G1 X141.54 Y72.817 E53.87442
G1 X141.954 Y73.106 E53.89961
G1 X142.409 Y73.319 E53.92467
G1 X142.897 Y73.45 E53.94988
G1 X143.4 Y73.495 E53.97508
G1 X143.903 Y73.45 E54.00027
G1 X144.391 Y73.319 E54.02548
G1 X144.846 Y73.106 E54.05055
G1 X145.26 Y72.817 E54.07573
G1 X145.617 Y72.46 E54.10092
G1 X145.906 Y72.046 E54.12611
G1 X146.119 Y71.591 E54.15118
G1 X146.25 Y71.103 E54.17638
G1 X146.295 Y70.6 E54.20158
G1 X146.25 Y70.097 E54.22677
G1 X146.119 Y69.609 E54.25198
G1 X145.906 Y69.154 E54.27705
G1 X145.617 Y68.74 E54.30224
G1 X145.26 Y68.383 E54.32742
G1 X144.846 Y68.094 E54.35261
G1 X144.391 Y67.881 E54.37768
G1 X143.903 Y67.75 E54.40289
G1 X143.4 Y67.705 E54.42808
G1 X142.897 Y67.75 E54.45328
G1 X142.409 Y67.881 E54.47848
G1 X141.954 Y68.094 E54.50355
G1 X141.54 Y68.383 E54.52874
G1 X141.183 Y68.74 E54.55393
G1 X140.894 Y69.154 E54.57912
G1 X140.681 Y69.609 E54.60418
G1 X140.55 Y70.097 E54.62939
