;FLAVOR:Marlin
;TIME:1871
;Filament used: 1.7647m
;Layer height: 0.3
;Generated with Cura_SteamEngine 3.4.1
M190 S64
M104 S200
M109 S200
M82 ;absolute extrusion mode
G21 ;metric values
G90 ;absolute positioning
M82 ;set extruder to absolute mode
M107 ;start with the fan off
G28 X0 Y0 ;move X/Y to min endstops
G28 Z0 ;move Z to min endstops
G1 Z15.0 F9000 ;move the platform down 15mm
G92 E0 ;zero the extruded length
G1 F200 E3 ;extrude 3mm of feed stock
G92 E0 ;zero the extruded length again
G1 F9000
;Put printing message on LCD screen
M117 Printing...
G92 E0
G1 F1500 E-5
;LAYER_COUNT:22
;LAYER:0
M107
G0 F3600 X110.913 Y79.679 Z0.3
;TYPE:WALL-INNER
G1 F1500 E0
G1 F1050 X111.801 Y79.912 E0.0458
G1 X112.637 Y80.289 E0.09156
G1 X113.396 Y80.803 E0.13729
G1 X114.06 Y81.441 E0.18323
G1 X126.438 Y95.529 E1.11883
G1 X127.949 Y97.455 E1.24097
G1 X129.229 Y99.52 E1.36217
G1 X130.269 Y101.711 E1.48317
G1 X131.063 Y104.008 E1.60442
G1 X131.595 Y106.366 E1.72502
G1 X131.865 Y108.792 E1.8468
G1 X131.865 Y111.208 E1.96734
G1 X131.595 Y113.634 E2.08912
G1 X131.064 Y115.989 E2.20956
G1 X130.269 Y118.289 E2.33097
G1 X129.229 Y120.48 E2.45197
G1 X127.949 Y122.545 E2.57318
G1 X126.446 Y124.461 E2.69467
G1 X114.079 Y138.539 E3.62954
G1 X113.392 Y139.199 E3.67707
G1 X112.637 Y139.711 E3.72258
G1 X111.801 Y140.088 E3.76833
G1 X110.913 Y140.321 E3.81413
G1 X110 Y140.398 E3.85985
G1 X109.087 Y140.321 E3.90556
G1 X108.199 Y140.088 E3.95136
G1 X107.363 Y139.711 E3.99711
G1 X106.608 Y139.199 E4.04262
G1 X105.921 Y138.539 E4.09015
G1 X93.554 Y124.461 E5.02502
G1 X92.051 Y122.545 E5.14651
G1 X90.771 Y120.48 E5.26772
G1 X89.731 Y118.289 E5.38872
G1 X88.936 Y115.989 E5.51013
G1 X88.405 Y113.634 E5.63057
G1 X88.135 Y111.208 E5.75235
G1 X88.135 Y108.792 E5.87289
G1 X88.405 Y106.366 E5.99467
G1 X88.937 Y104.008 E6.11527
G1 X89.731 Y101.711 E6.23652
G1 X90.771 Y99.52 E6.35752
G1 X92.051 Y97.455 E6.47873
G1 X93.554 Y95.539 E6.60022
G1 X105.921 Y81.461 E7.53509
G1 X106.608 Y80.801 E7.58261
G1 X107.363 Y80.289 E7.62813
G1 X108.199 Y79.912 E7.67388
G1 X109.087 Y79.679 E7.71968
G1 X110 Y79.602 E7.76539
G1 X110.913 Y79.679 E7.8111
G0 F3600 X110.897 Y79.777
G0 X107.65 Y82.221
G0 X107.21 Y82.66
G0 X106.84 Y83.193
G0 X106.574 Y83.769
G0 X106.412 Y84.383
G0 X106.358 Y85.014
G0 X106.405 Y85.527
G0 X106.795 Y86.853
G0 X106.881 Y86.803
G1 F1050 X107.252 Y87.327 E7.84314
G1 X107.697 Y87.768 E7.87439
G1 X108.211 Y88.125 E7.90561
G1 X108.782 Y88.389 E7.937
G1 X109.389 Y88.549 E7.96832
G1 X110.014 Y88.602 E7.99961
G1 X110.641 Y88.544 E8.03102
G1 X111.245 Y88.379 E8.06226
G1 X111.813 Y88.111 E8.0936
G1 X112.325 Y87.749 E8.12488
G1 X112.759 Y87.315 E8.1555
G1 X113.12 Y86.801 E8.18684
G1 X113.385 Y86.232 E8.21815
G1 X113.547 Y85.626 E8.24945
G1 X113.603 Y85 E8.2808
G1 X113.547 Y84.374 E8.31216
G1 X113.385 Y83.768 E8.34345
G1 X113.119 Y83.197 E8.37488
G1 X112.748 Y82.673 E8.40691
G1 X112.303 Y82.232 E8.43817
G1 X111.789 Y81.875 E8.46939
G1 X111.218 Y81.611 E8.50078
G1 X110.611 Y81.451 E8.53209
G1 X109.986 Y81.398 E8.56339
G1 X109.359 Y81.456 E8.5948
G1 X108.755 Y81.621 E8.62604
G1 X108.187 Y81.889 E8.65737
G1 X107.675 Y82.251 E8.68866
G1 X107.24 Y82.685 E8.71931
G1 X106.874 Y83.212 E8.75132
G1 X106.611 Y83.782 E8.78264
G1 X106.451 Y84.389 E8.81396
G1 X106.398 Y85.014 E8.84525
G1 X106.456 Y85.641 E8.87667
G1 X106.621 Y86.244 E8.90786
G1 X106.881 Y86.803 E8.93862
G0 F3600 X106.795 Y86.853
G0 X94.12 Y100.302
G0 X93.856 Y100.679
G0 X93.661 Y101.096
G0 X93.541 Y101.543
G0 X93.541 Y102.457
G0 X93.661 Y102.904
G0 X93.856 Y103.321
G0 X94.12 Y103.698
G0 X94.446 Y104.024
G0 X94.825 Y104.288
G0 X95.242 Y104.483
G0 X95.699 Y104.604
G0 X96.158 Y104.641
G0 X96.617 Y104.599
G0 X97.104 Y104.419
G0 X97.722 Y104.119
G0 X97.827 Y103.983
G1 F1050 X97.859 Y103.95 E8.94091
G1 X97.841 Y103.988
G1 X97.668 Y104.347 E8.96071
G1 X97.567 Y104.557 E8.97234
G1 X97.339 Y105.031 E8.99858
G1 X96.739 Y106.973 E9.09998
G1 X96.436 Y108.984 E9.20145
G1 X96.436 Y111.016 E9.30282
G1 X96.739 Y113.027 E9.40428
G1 X97.339 Y114.969 E9.50569
G1 X97.567 Y115.444 E9.53198
G1 X97.657 Y115.631 E9.54233
G1 X97.829 Y115.987 E9.56206
G1 X97.863 Y116.056 E9.56589
G1 X97.804 Y115.999
G1 X97.433 Y115.74 E9.57506
G1 X97.244 Y115.654 E9.58357
G1 X97.02 Y115.551 E9.59587
G1 X96.582 Y115.435 E9.61848
G1 X96.131 Y115.399 E9.64105
G1 X95.691 Y115.437 E9.66308
G1 X95.253 Y115.555 E9.68571
G1 X94.843 Y115.746 E9.70828
G1 X94.471 Y116.006 E9.73092
G1 X94.15 Y116.327 E9.75357
G1 X93.89 Y116.699 E9.77621
G1 X93.698 Y117.109 E9.7988
G1 X93.58 Y117.549 E9.82153
G1 X93.542 Y118 E9.84411
G1 X93.58 Y118.451 E9.86669
G1 X93.698 Y118.891 E9.88942
G1 X93.89 Y119.301 E9.912
G1 X94.15 Y119.673 E9.93465
G1 X94.471 Y119.994 E9.95729
G1 X94.844 Y120.254 E9.97998
G1 X95.255 Y120.446 E10.00261
G1 X95.705 Y120.565 E10.02583
G1 X96.158 Y120.601 E10.0485
G1 X96.61 Y120.56 E10.07115
G1 X97.048 Y120.438 E10.09383
G1 X97.457 Y120.246 E10.11637
G1 X97.827 Y119.983 E10.13902
G1 X98.145 Y119.661 E10.1616
G1 X98.404 Y119.288 E10.18425
G1 X98.593 Y118.875 E10.20691
G1 X98.708 Y118.438 E10.22946
G1 X98.727 Y118.22 E10.24037
G1 X98.746 Y117.985 E10.25214
G1 X98.702 Y117.533 E10.27479
G1 X98.69 Y117.489 E10.27707
G1 X98.714 Y117.524
G1 X98.938 Y117.853 E10.2842
G1 X99.07 Y118.048 E10.29362
G1 X99.365 Y118.48 E10.31972
G1 X100.749 Y119.971 E10.42121
G1 X102.338 Y121.238 E10.5226
G1 X104.099 Y122.255 E10.62406
G1 X105.991 Y122.997 E10.72545
G1 X107.972 Y123.45 E10.82683
G1 X108.498 Y123.489 E10.85315
G1 X108.706 Y123.504 E10.86355
G1 X109.098 Y123.534 E10.88316
G1 X109.175 Y123.54 E10.88702
G1 X109.096 Y123.562
G1 X108.688 Y123.754 E10.8962
G1 X108.518 Y123.874 E10.90475
G1 X108.316 Y124.017 E10.9171
G1 X107.999 Y124.339 E10.93964
G1 X107.74 Y124.712 E10.9623
G1 X107.551 Y125.123 E10.98487
G1 X107.435 Y125.562 E11.00752
G1 X107.399 Y126.014 E11.03014
G1 X107.44 Y126.466 E11.05279
G1 X107.562 Y126.904 E11.07547
G1 X107.754 Y127.312 E11.09797
G1 X108.017 Y127.684 E11.12069
G1 X108.339 Y128.001 E11.14324
G1 X108.712 Y128.26 E11.16589
G1 X109.123 Y128.449 E11.18846
G1 X109.562 Y128.565 E11.21112
G1 X110.014 Y128.601 E11.23374
G1 X110.466 Y128.56 E11.25638
G1 X110.904 Y128.438 E11.27906
G1 X111.312 Y128.246 E11.30156
G1 X111.684 Y127.983 E11.32429
G1 X112.001 Y127.661 E11.34683
G1 X112.26 Y127.288 E11.36949
G1 X112.449 Y126.877 E11.39206
G1 X112.565 Y126.438 E11.41471
G1 X112.601 Y125.986 E11.43733
G1 X112.56 Y125.534 E11.45998
G1 X112.438 Y125.096 E11.48266
G1 X112.246 Y124.688 E11.50516
G1 X111.983 Y124.316 E11.52788
G1 X111.661 Y123.999 E11.55043
G1 X111.481 Y123.874 E11.56136
G1 X111.288 Y123.74 E11.57308
G1 X110.877 Y123.551 E11.59565
G1 X110.834 Y123.54 E11.59787
G1 X110.875 Y123.537
G1 X111.269 Y123.508 E11.60493
G1 X111.504 Y123.491 E11.61436
G1 X112.028 Y123.45 E11.64058
G1 X114.023 Y122.992 E11.7427
G1 X115.901 Y122.255 E11.84335
G1 X117.662 Y121.238 E11.94481
G1 X119.251 Y119.971 E12.0462
G1 X120.635 Y118.48 E12.14769
G1 X120.93 Y118.047 E12.17383
G1 X121.047 Y117.876 E12.18417
G1 X121.271 Y117.547 E12.20402
G1 X121.312 Y117.487 E12.20765
G1 X121.292 Y117.562
G1 X121.254 Y118.015 E12.2168
G1 X121.274 Y118.222 E12.22533
G1 X121.298 Y118.467 E12.23761
G1 X121.417 Y118.902 E12.26011
G1 X121.61 Y119.312 E12.28272
G1 X121.873 Y119.684 E12.30545
G1 X122.196 Y120.001 E12.32802
G1 X122.567 Y120.26 E12.3506
G1 X122.98 Y120.449 E12.37326
G1 X123.418 Y120.565 E12.39586
G1 X123.869 Y120.601 E12.41843
G1 X124.309 Y120.563 E12.44047
G1 X124.747 Y120.445 E12.4631
G1 X125.157 Y120.254 E12.48566
G1 X125.529 Y119.994 E12.50831
G1 X125.85 Y119.673 E12.53096
G1 X126.11 Y119.301 E12.5536
G1 X126.302 Y118.891 E12.57619
G1 X126.42 Y118.451 E12.59891
G1 X126.458 Y118 E12.62149
G1 X126.42 Y117.549 E12.64407
G1 X126.302 Y117.109 E12.6668
G1 X126.11 Y116.699 E12.68939
G1 X125.85 Y116.327 E12.71203
G1 X125.529 Y116.006 E12.73468
G1 X125.156 Y115.746 E12.75736
G1 X124.745 Y115.554 E12.77999
G1 X124.295 Y115.435 E12.80322
G1 X123.842 Y115.399 E12.82589
G1 X123.39 Y115.44 E12.84853
G1 X122.952 Y115.562 E12.87122
G1 X122.755 Y115.655 E12.88208
G1 X122.543 Y115.754 E12.89376
G1 X122.173 Y116.017 E12.9164
G1 X122.141 Y116.05 E12.9187
G1 X122.159 Y116.012
G1 X122.332 Y115.653 E12.92584
G1 X122.433 Y115.443 E12.93518
G1 X122.661 Y114.969 E12.96142
G1 X123.261 Y113.027 E13.06282
G1 X123.564 Y111.016 E13.16429
G1 X123.564 Y108.984 E13.26566
G1 X123.261 Y106.973 E13.36712
G1 X122.661 Y105.031 E13.46853
G1 X122.433 Y104.556 E13.49482
G1 X122.343 Y104.369 E13.50517
G1 X122.171 Y104.013 E13.5249
G1 X122.137 Y103.944 E13.52873
G1 X122.196 Y104.001
G1 X122.567 Y104.26 E13.53789
G1 X122.756 Y104.346 E13.54641
G1 X122.98 Y104.449 E13.55871
G1 X123.418 Y104.565 E13.58132
G1 X123.869 Y104.601 E13.60389
G1 X124.309 Y104.563 E13.62592
G1 X124.747 Y104.445 E13.64855
G1 X125.157 Y104.254 E13.67112
G1 X125.529 Y103.994 E13.69376
G1 X125.85 Y103.673 E13.71641
G1 X126.11 Y103.301 E13.73905
G1 X126.302 Y102.891 E13.76164
G1 X126.42 Y102.451 E13.78437
G1 X126.458 Y102 E13.80695
G1 X126.42 Y101.549 E13.82953
G1 X126.302 Y101.109 E13.85226
G1 X126.11 Y100.699 E13.87484
G1 X125.85 Y100.327 E13.89749
G1 X125.529 Y100.006 E13.92013
G1 X125.156 Y99.746 E13.94282
G1 X124.745 Y99.554 E13.96545
G1 X124.295 Y99.435 E13.98867
G1 X123.842 Y99.399 E14.01134
G1 X123.39 Y99.44 E14.03399
G1 X122.952 Y99.562 E14.05667
G1 X122.543 Y99.754 E14.07921
G1 X122.173 Y100.017 E14.10186
G1 X121.855 Y100.339 E14.12444
G1 X121.596 Y100.712 E14.14709
G1 X121.407 Y101.125 E14.16975
G1 X121.292 Y101.562 E14.1923
G1 X121.273 Y101.78 E14.20321
G1 X121.254 Y102.015 E14.21498
G1 X121.298 Y102.467 E14.23763
G1 X121.31 Y102.511 E14.23991
G1 X121.286 Y102.476
G1 X121.062 Y102.147 E14.24704
G1 X120.93 Y101.952 E14.25646
G1 X120.635 Y101.52 E14.28256
G1 X119.251 Y100.029 E14.38405
G1 X117.662 Y98.762 E14.48544
G1 X115.901 Y97.745 E14.5869
G1 X114.009 Y97.003 E14.68829
G1 X112.028 Y96.55 E14.78967
G1 X111.502 Y96.511 E14.81599
G1 X111.294 Y96.496 E14.82639
G1 X110.902 Y96.466 E14.846
G1 X110.825 Y96.46 E14.84986
G1 X110.904 Y96.438
G1 X111.312 Y96.246 E14.85904
G1 X111.482 Y96.126 E14.86759
G1 X111.684 Y95.983 E14.87994
G1 X112.001 Y95.661 E14.90248
G1 X112.26 Y95.288 E14.92514
G1 X112.449 Y94.877 E14.94771
G1 X112.565 Y94.438 E14.97036
G1 X112.601 Y93.986 E14.99298
G1 X112.56 Y93.534 E15.01563
G1 X112.438 Y93.096 E15.03831
G1 X112.246 Y92.688 E15.06081
G1 X111.983 Y92.316 E15.08353
G1 X111.661 Y91.999 E15.10608
G1 X111.288 Y91.74 E15.12873
G1 X110.877 Y91.551 E15.1513
G1 X110.438 Y91.435 E15.17396
G1 X109.986 Y91.399 E15.19658
G1 X109.534 Y91.44 E15.21922
G1 X109.096 Y91.562 E15.2419
G1 X108.688 Y91.754 E15.2644
G1 X108.316 Y92.017 E15.28713
G1 X107.999 Y92.339 E15.30967
G1 X107.74 Y92.712 E15.33233
G1 X107.551 Y93.123 E15.3549
G1 X107.435 Y93.562 E15.37755
G1 X107.399 Y94.014 E15.40017
G1 X107.44 Y94.466 E15.42281
G1 X107.562 Y94.904 E15.4455
G1 X107.754 Y95.312 E15.468
G1 X108.017 Y95.684 E15.49072
G1 X108.339 Y96.001 E15.51327
G1 X108.519 Y96.126 E15.5242
G1 X108.712 Y96.26 E15.53592
G1 X109.123 Y96.449 E15.55849
G1 X109.166 Y96.46 E15.56071
G1 X109.125 Y96.463
G1 X108.731 Y96.492 E15.56777
G1 X108.496 Y96.509 E15.5772
G1 X107.972 Y96.55 E15.60342
G1 X105.977 Y97.008 E15.70554
G1 X104.099 Y97.745 E15.80619
G1 X102.338 Y98.762 E15.90764
G1 X100.749 Y100.029 E16.00904
G1 X99.365 Y101.52 E16.11053
G1 X99.07 Y101.953 E16.13667
G1 X98.953 Y102.124 E16.14701
G1 X98.729 Y102.453 E16.16686
G1 X98.688 Y102.513 E16.17049
G1 X98.708 Y102.438
G1 X98.746 Y101.985 E16.17964
G1 X98.726 Y101.778 E16.18817
G1 X98.702 Y101.533 E16.20045
G1 X98.583 Y101.098 E16.22295
G1 X98.39 Y100.688 E16.24556
G1 X98.127 Y100.316 E16.26829
G1 X97.804 Y99.999 E16.29086
G1 X97.433 Y99.74 E16.31344
G1 X97.02 Y99.551 E16.3361
G1 X96.582 Y99.435 E16.3587
G1 X96.131 Y99.399 E16.38127
G1 X95.691 Y99.437 E16.40331
G1 X95.253 Y99.555 E16.42594
G1 X94.843 Y99.746 E16.4485
G1 X94.471 Y100.006 E16.47115
G1 X94.15 Y100.327 E16.4938
G1 X93.89 Y100.699 E16.51644
G1 X93.698 Y101.109 E16.53903
G1 X93.58 Y101.549 E16.56175
G1 X93.542 Y102 E16.58433
G1 X93.58 Y102.451 E16.60691
G1 X93.698 Y102.891 E16.62964
G1 X93.89 Y103.301 E16.65223
G1 X94.15 Y103.673 E16.67487
G1 X94.471 Y103.994 E16.69752
G1 X94.844 Y104.254 E16.7202
G1 X95.255 Y104.446 E16.74283
G1 X95.705 Y104.565 E16.76606
G1 X96.158 Y104.601 E16.78873
G1 X96.61 Y104.56 E16.81137
G1 X97.048 Y104.438 E16.83405
G1 X97.245 Y104.345 E16.84492
G1 X97.457 Y104.246 E16.8543
G1 X97.827 Y103.983 E16.8642
G0 F3600 X97.722 Y104.119
G0 X97.302 Y105.017
G0 X93.541 Y117.543
G0 X93.541 Y118.457
G0 X93.661 Y118.904
G0 X93.818 Y119.241
G0 X106.795 Y136.853
G0 X106.881 Y136.803
G1 F1050 X107.252 Y137.327 E16.89623
G1 X107.697 Y137.768 E16.92748
G1 X108.211 Y138.125 E16.95871
G1 X108.782 Y138.389 E16.99009
G1 X109.389 Y138.549 E17.02141
G1 X110.014 Y138.602 E17.0527
G1 X110.641 Y138.544 E17.08412
G1 X111.245 Y138.379 E17.11535
G1 X111.813 Y138.111 E17.14669
G1 X112.325 Y137.749 E17.17797
G1 X112.759 Y137.315 E17.20859
G1 X113.12 Y136.801 E17.23993
G1 X113.385 Y136.232 E17.27124
G1 X113.547 Y135.626 E17.30254
G1 X113.603 Y135 E17.3339
G1 X113.547 Y134.374 E17.36525
G1 X113.385 Y133.768 E17.39655
G1 X113.119 Y133.197 E17.42797
G1 X112.748 Y132.673 E17.46
G1 X112.303 Y132.232 E17.49126
G1 X111.789 Y131.875 E17.52248
G1 X111.218 Y131.611 E17.55387
G1 X110.611 Y131.451 E17.58519
G1 X109.986 Y131.398 E17.61648
G1 X109.359 Y131.456 E17.64789
G1 X108.755 Y131.621 E17.67913
G1 X108.187 Y131.889 E17.71047
G1 X107.675 Y132.251 E17.74175
G1 X107.24 Y132.685 E17.77241
G1 X106.874 Y133.212 E17.80442
G1 X106.611 Y133.782 E17.83573
G1 X106.451 Y134.389 E17.86705
G1 X106.398 Y135.014 E17.89835
G1 X106.456 Y135.641 E17.92976
G1 X106.621 Y136.244 E17.96095
G1 X106.881 Y136.803 E17.99171
G0 F3600 X107.228 Y136.601
;TYPE:WALL-OUTER
G1 F1050 X107.558 Y137.067 E18.0202
G1 X107.954 Y137.459 E18.04799
G1 X108.411 Y137.777 E18.07577
G1 X108.918 Y138.011 E18.10363
G1 X109.457 Y138.153 E18.13144
G1 X110.013 Y138.2 E18.15928
G1 X110.569 Y138.149 E18.18713
G1 X111.106 Y138.002 E18.21491
G1 X111.611 Y137.764 E18.24276
G1 X112.066 Y137.442 E18.27057
G1 X112.452 Y137.057 E18.29777
G1 X112.772 Y136.6 E18.3256
G1 X113.008 Y136.095 E18.35341
G1 X113.152 Y135.556 E18.38125
G1 X113.201 Y135 E18.40909
G1 X113.152 Y134.444 E18.43694
G1 X113.008 Y133.905 E18.46477
G1 X112.772 Y133.399 E18.49263
G1 X112.442 Y132.933 E18.52112
G1 X112.046 Y132.541 E18.54892
G1 X111.589 Y132.223 E18.57669
G1 X111.082 Y131.989 E18.60455
G1 X110.543 Y131.847 E18.63236
G1 X109.987 Y131.8 E18.6602
G1 X109.431 Y131.851 E18.68805
G1 X108.894 Y131.998 E18.71583
G1 X108.389 Y132.236 E18.74368
G1 X107.934 Y132.558 E18.77149
G1 X107.548 Y132.943 E18.79869
G1 X107.223 Y133.411 E18.82712
G1 X106.989 Y133.918 E18.85497
G1 X106.847 Y134.457 E18.88278
G1 X106.8 Y135.013 E18.91062
G1 X106.851 Y135.569 E18.93848
G1 X106.998 Y136.106 E18.96625
G1 X107.228 Y136.601 E18.99348
G0 F3600 X107.343 Y136.764
G0 X106.935 Y137.051
G0 X106.584 Y136.257
G0 X106.417 Y135.648
G0 X106.358 Y135.014
G0 X107.396 Y125.556
G0 X107.514 Y125.11
G0 X107.706 Y124.693
G0 X107.969 Y124.314
G0 X108.291 Y123.987
G0 X108.504 Y123.836
G0 X109.076 Y123.549
G0 X109.606 Y123.835
G1 F1050 X109.236 Y123.938 E19.01265
G1 X108.89 Y124.101 E19.03173
G1 X108.576 Y124.323 E19.05091
G1 X108.308 Y124.595 E19.06996
G1 X108.089 Y124.911 E19.08914
G1 X107.929 Y125.259 E19.10825
G1 X107.831 Y125.63 E19.1274
G1 X107.8 Y126.012 E19.14652
G1 X107.835 Y126.394 E19.16566
G1 X107.938 Y126.764 E19.18482
G1 X108.101 Y127.11 E19.2039
G1 X108.323 Y127.424 E19.22308
G1 X108.595 Y127.692 E19.24213
G1 X108.911 Y127.911 E19.26132
G1 X109.259 Y128.071 E19.28043
G1 X109.63 Y128.169 E19.29957
G1 X110.012 Y128.2 E19.31869
G1 X110.394 Y128.165 E19.33783
G1 X110.764 Y128.062 E19.35699
G1 X111.11 Y127.899 E19.37607
G1 X111.424 Y127.677 E19.39526
G1 X111.692 Y127.405 E19.41431
G1 X111.911 Y127.089 E19.43349
G1 X112.071 Y126.741 E19.4526
G1 X112.169 Y126.37 E19.47174
G1 X112.2 Y125.988 E19.49086
G1 X112.165 Y125.606 E19.51
G1 X112.062 Y125.236 E19.52916
G1 X111.899 Y124.89 E19.54824
