;FLAVOR:Marlin
;TIME:697
;Filament used: 0.605282m
;Layer height: 0.3
;Generated with Cura_SteamEngine 3.4.1
M190 S64
M104 S200
M109 S200
M82 ;absolute extrusion mode
G21 ;metric values
G90 ;absolute positioning
M82 ;set extruder to absolute mode
M107 ;start with the fan off
G28 X0 Y0 ;move X/Y to min endstops
G28 Z0 ;move Z to min endstops
G1 Z15.0 F9000 ;move the platform down 15mm
G92 E0 ;zero the extruded length
G1 F200 E3 ;extrude 3mm of feed stock
G92 E0 ;zero the extruded length again
G1 F9000
;Put printing message on LCD screen
M117 Printing...
G92 E0
G1 F1500 E-5
;LAYER_COUNT:39
;LAYER:0
M107
G0 F3600 X111.202 Y98.17 Z0.3
;TYPE:WALL-INNER
G1 F1500 E0
G1 F1050 X112.389 Y98.379 E0.06013
G1 X113.539 Y98.723 E0.12002
G1 X114.658 Y99.203 E0.18076
G1 X115.696 Y99.8 E0.2405
G1 X116.658 Y100.513 E0.30024
G1 X117.544 Y101.344 E0.36085
G1 X118.323 Y102.266 E0.42106
G1 X118.983 Y103.262 E0.48067
G1 X119.532 Y104.343 E0.54116
G1 X119.952 Y105.482 E0.60173
G1 X124.4 Y120.089 E1.36351
G1 X124.4 Y121.9 E1.45386
G1 X95.6 Y121.9 E2.8907
G1 X95.6 Y120.089 E2.98105
G1 X100.048 Y105.482 E3.74284
G1 X100.468 Y104.343 E3.8034
G1 X101.017 Y103.262 E3.86389
G1 X101.677 Y102.266 E3.9235
G1 X102.456 Y101.344 E3.98372
G1 X103.342 Y100.513 E4.04432
G1 X104.304 Y99.8 E4.10406
G1 X105.342 Y99.203 E4.1638
G1 X106.461 Y98.723 E4.22455
G1 X107.611 Y98.379 E4.28443
G1 X108.798 Y98.17 E4.34456
G1 X110 Y98.101 E4.40463
G1 X111.202 Y98.17 E4.4647
G0 F3600 X111.191 Y98.269
G0 X105.049 Y103.356
G0 X104.321 Y104.171
G0 X103.727 Y105.088
G0 X103.279 Y106.086
G0 X102.989 Y107.141
G0 X102.865 Y108.227
G0 X102.906 Y109.318
G0 X103.114 Y110.391
G0 X103.484 Y111.421
G0 X104.006 Y112.381
G0 X104.38 Y112.873
G0 X105.418 Y114.057
G0 X105.481 Y113.98
G1 F1050 X106.371 Y114.604 E4.51893
G1 X107.345 Y115.087 E4.57317
G1 X108.382 Y115.415 E4.62743
G1 X109.456 Y115.581 E4.68165
G1 X110.544 Y115.581 E4.73593
G1 X111.618 Y115.415 E4.79015
G1 X112.655 Y115.087 E4.84441
G1 X113.629 Y114.604 E4.89865
G1 X114.519 Y113.98 E4.95288
G1 X115.303 Y113.225 E5.00718
G1 X115.961 Y112.36 E5.0614
G1 X116.48 Y111.405 E5.11563
G1 X116.848 Y110.381 E5.16991
G1 X117.055 Y109.314 E5.22414
G1 X117.096 Y108.228 E5.27836
G1 X116.972 Y107.148 E5.33259
G1 X116.684 Y106.099 E5.38687
G1 X116.238 Y105.107 E5.44113
G1 X115.648 Y104.195 E5.49532
G1 X114.924 Y103.384 E5.54956
G1 X114.086 Y102.691 E5.60381
G1 X113.151 Y102.135 E5.65808
G1 X112.143 Y101.73 E5.71228
G1 X111.084 Y101.482 E5.76654
G1 X110 Y101.398 E5.82078
G1 X108.916 Y101.482 E5.87503
G1 X107.857 Y101.73 E5.92929
G1 X106.849 Y102.135 E5.98349
G1 X105.914 Y102.691 E6.03776
G1 X105.076 Y103.384 E6.09201
G1 X104.352 Y104.195 E6.14625
G1 X103.762 Y105.107 E6.20044
G1 X103.316 Y106.099 E6.2547
G1 X103.028 Y107.148 E6.30897
G1 X102.904 Y108.228 E6.36321
G1 X102.945 Y109.314 E6.41743
G1 X103.152 Y110.381 E6.47165
G1 X103.52 Y111.405 E6.52594
G1 X104.039 Y112.36 E6.58017
G1 X104.697 Y113.225 E6.63439
G1 X105.481 Y113.98 E6.68869
G0 F3600 X105.736 Y113.67
;TYPE:WALL-OUTER
G1 F1050 X106.576 Y114.259 E6.73987
G1 X107.495 Y114.715 E6.79106
G1 X108.473 Y115.024 E6.84223
G1 X109.487 Y115.181 E6.89342
G1 X110.513 Y115.181 E6.94461
G1 X111.527 Y115.024 E6.9958
G1 X112.505 Y114.715 E7.04697
G1 X113.424 Y114.259 E7.09815
G1 X114.264 Y113.67 E7.14933
G1 X115.003 Y112.958 E7.20053
G1 X115.624 Y112.142 E7.25169
G1 X116.114 Y111.241 E7.30286
G1 X116.461 Y110.275 E7.35407
G1 X116.656 Y109.268 E7.40524
G1 X116.695 Y108.243 E7.45641
G1 X116.578 Y107.224 E7.50759
G1 X116.306 Y106.235 E7.55876
G1 X115.886 Y105.299 E7.60994
G1 X115.329 Y104.438 E7.6611
G1 X114.646 Y103.673 E7.71227
G1 X113.855 Y103.019 E7.76347
G1 X112.973 Y102.495 E7.81466
G1 X112.022 Y102.112 E7.8658
G1 X111.023 Y101.878 E7.91699
G1 X110 Y101.799 E7.96818
G1 X108.977 Y101.878 E8.01937
G1 X107.978 Y102.112 E8.07056
G1 X107.027 Y102.495 E8.12171
G1 X106.145 Y103.019 E8.17289
G1 X105.354 Y103.673 E8.2241
G1 X104.671 Y104.438 E8.27526
G1 X104.114 Y105.299 E8.32642
G1 X103.694 Y106.235 E8.37761
G1 X103.422 Y107.224 E8.42878
G1 X103.305 Y108.243 E8.47995
G1 X103.344 Y109.268 E8.53113
G1 X103.539 Y110.275 E8.5823
G1 X103.886 Y111.241 E8.63351
G1 X104.376 Y112.142 E8.68468
G1 X104.997 Y112.958 E8.73584
G1 X105.736 Y113.67 E8.78703
G0 F3600 X105.899 Y113.784
G0 X105.611 Y114.192
G0 X104.668 Y113.251
G0 X104.006 Y112.381
G0 X103.484 Y111.421
G0 X103.114 Y110.391
G0 X102.906 Y109.318
G0 X102.865 Y108.227
G0 X102.989 Y107.141
G0 X103.279 Y106.086
G0 X103.727 Y105.088
G0 X104.321 Y104.171
G0 X104.91 Y103.512
G0 X111.191 Y98.269
G0 X111.251 Y97.773
G1 F1050 X112.48 Y97.989 E8.84929
G1 X113.681 Y98.348 E8.91182
G1 X114.834 Y98.843 E8.97443
G1 X115.912 Y99.463 E9.03647
G1 X116.92 Y100.21 E9.09906
G1 X117.834 Y101.067 E9.16157
G1 X118.641 Y102.022 E9.22395
G1 X119.332 Y103.065 E9.28637
G1 X119.897 Y104.177 E9.3486
G1 X120.335 Y105.365 E9.41177
G1 X124.8 Y120.028 E10.17647
G1 X124.8 Y122.3 E10.28982
G1 X95.2 Y122.3 E11.76657
G1 X95.2 Y120.028 E11.87992
G1 X99.665 Y105.365 E12.64462
G1 X100.103 Y104.177 E12.70779
G1 X100.668 Y103.065 E12.77002
G1 X101.359 Y102.022 E12.83244
G1 X102.166 Y101.067 E12.89482
G1 X103.08 Y100.21 E12.95733
G1 X104.088 Y99.463 E13.01992
G1 X105.166 Y98.843 E13.08196
G1 X106.319 Y98.348 E13.14457
G1 X107.52 Y97.989 E13.2071
G1 X108.749 Y97.773 E13.26936
G1 X110 Y97.701 E13.33187
G1 X111.251 Y97.773 E13.39439
G0 F3600 X111.448 Y97.807
G0 X111.361 Y98.299
G0 X111.163 Y98.559
;TYPE:SKIN
G1 F1050 X112.298 Y98.759 E13.45189
G1 X113.402 Y99.089 E13.50937
G1 X114.487 Y99.555 E13.56829
G1 X115.48 Y100.126 E13.62543
G1 X116.406 Y100.813 E13.68296
G1 X117.262 Y101.615 E13.74148
G1 X118.013 Y102.504 E13.79954
G1 X118.646 Y103.459 E13.8567
G1 X119.172 Y104.494 E13.91462
G1 X119.582 Y105.606 E13.97375
G1 X124.01 Y120.146 E14.73205
G1 X124.01 Y121.51 E14.8001
G1 X95.99 Y121.51 E16.19802
G1 X95.99 Y120.146 E16.26607
G1 X100.418 Y105.606 E17.02437
G1 X100.828 Y104.494 E17.0835
G1 X101.354 Y103.459 E17.14142
G1 X101.987 Y102.504 E17.19858
G1 X102.738 Y101.615 E17.25664
G1 X103.594 Y100.813 E17.31516
G1 X104.52 Y100.126 E17.37269
G1 X105.513 Y99.555 E17.42983
G1 X106.598 Y99.089 E17.48875
G1 X107.702 Y98.759 E17.54623
G1 X108.837 Y98.559 E17.60373
G1 X110 Y98.493 E17.66185
G1 X111.163 Y98.559 E17.71996
G0 F3600 X111.144 Y101.096
G1 F1050 X110 Y101.006 E17.77721
G1 X108.856 Y101.096 E17.83446
G1 X107.74 Y101.357 E17.89164
G1 X106.676 Y101.784 E17.94884
G1 X105.688 Y102.371 E18.00618
G1 X104.805 Y103.103 E18.0634
G1 X104.04 Y103.957 E18.1206
G1 X103.419 Y104.92 E18.17777
G1 X102.948 Y105.966 E18.235
G1 X102.644 Y107.074 E18.29232
G1 X102.514 Y108.213 E18.34951
G1 X102.557 Y109.359 E18.40673
G1 X102.775 Y110.484 E18.4639
G1 X103.163 Y111.565 E18.5212
G1 X103.711 Y112.572 E18.57839
G1 X104.405 Y113.485 E18.63561
G1 X105.232 Y114.282 E18.69291
G1 X106.172 Y114.94 E18.75016
G1 X107.199 Y115.45 E18.80736
G1 X108.293 Y115.796 E18.86461
G1 X109.426 Y115.971 E18.9218
G1 X110.574 Y115.971 E18.97908
G1 X111.707 Y115.796 E19.03627
G1 X112.801 Y115.45 E19.09352
G1 X113.828 Y114.94 E19.15072
G1 X114.768 Y114.282 E19.20797
G1 X115.595 Y113.485 E19.26527
G1 X116.289 Y112.572 E19.32249
G1 X116.837 Y111.565 E19.37968
G1 X117.225 Y110.484 E19.43698
G1 X117.443 Y109.359 E19.49415
G1 X117.486 Y108.213 E19.55137
G1 X117.356 Y107.074 E19.60856
G1 X117.052 Y105.966 E19.66588
G1 X116.581 Y104.92 E19.72311
G1 X115.96 Y103.957 E19.78028
G1 X115.195 Y103.103 E19.83748
G1 X114.312 Y102.371 E19.8947
G1 X113.324 Y101.784 E19.95204
G1 X112.26 Y101.357 E20.00924
G1 X111.144 Y101.096 E20.06642
G0 F3600 X117.768 Y102.495
G1 F1050 X116.042 Y100.769 E20.1882
G1 X115.972 Y100.699
G0 F3600 X114.449 Y99.741
G1 F1050 X118.729 Y104.021 E20.49017
G1 X118.799 Y104.091
G0 F3600 X119.18 Y105.037
G1 F1050 X113.446 Y99.304 E20.8947
G1 X113.376 Y99.234
G0 F3600 X112.62 Y99.044
G1 F1050 X119.486 Y105.909 E21.3791
G1 X119.556 Y105.979
G0 F3600 X119.733 Y106.722
G1 F1050 X111.879 Y98.868 E21.93324
G1 X111.809 Y98.798
G0 F3600 X111.191 Y98.746
G1 F1050 X119.981 Y107.536 E22.55342
G1 X120.051 Y107.606
G0 F3600 X120.229 Y108.349
G1 F1050 X116.76 Y104.88 E22.79818
G1 X116.69 Y104.81
G0 F3600 X117.222 Y105.909
G1 F1050 X120.476 Y109.163 E23.02777
G1 X120.546 Y109.233
G0 F3600 X120.725 Y109.977
G1 F1050 X117.436 Y106.688 E23.25983
G1 X117.366 Y106.618
G0 F3600 X117.572 Y107.389
G1 F1050 X120.972 Y110.79 E23.49975
G1 X121.042 Y110.86
G0 F3600 X121.22 Y111.603
G1 F1050 X117.644 Y108.028 E23.75202
G1 X117.574 Y107.958
G0 F3600 X117.65 Y108.599
G1 F1050 X121.468 Y112.417 E24.0214
G1 X121.538 Y112.487
G0 F3600 X121.715 Y113.23
G1 F1050 X117.63 Y109.144 E24.30965
G1 X117.56 Y109.074
G0 F3600 X117.568 Y109.648
G1 F1050 X121.963 Y114.043 E24.61975
G1 X122.033 Y114.113
G0 F3600 X122.211 Y114.857
G1 F1050 X117.477 Y110.123 E24.95375
G1 X117.407 Y110.053
G0 F3600 X117.376 Y110.588
G1 F1050 X122.458 Y115.67 E25.31232
G1 X122.528 Y115.74
G0 F3600 X122.707 Y116.484
G1 F1050 X117.227 Y111.005 E25.69893
G1 X117.157 Y110.935
G0 F3600 X117.078 Y111.421
G1 F1050 X122.954 Y117.297 E26.11351
G1 X123.024 Y117.367
G0 F3600 X123.202 Y118.11
G1 F1050 X116.904 Y111.813 E26.55783
G1 X116.834 Y111.743
G0 F3600 X116.705 Y112.179
G1 F1050 X123.45 Y118.924 E27.03373
G1 X123.52 Y118.994
G0 F3600 X123.697 Y119.737
G1 F1050 X116.505 Y112.545 E27.54116
G1 X116.435 Y112.475
G0 F3600 X116.277 Y112.883
G1 F1050 X123.829 Y120.435 E28.074
G1 X123.899 Y120.505
G0 F3600 X123.829 Y121
G1 F1050 X116.033 Y113.204 E28.62405
G1 X115.963 Y113.134
G0 F3600 X115.788 Y113.525
G1 F1050 X123.592 Y121.329 E29.17466
G1 X123.662 Y121.399
G0 F3600 X123.026 Y121.329
G1 F1050 X115.512 Y113.815 E29.70481
G1 X115.442 Y113.745
G0 F3600 X115.224 Y114.093
G1 F1050 X122.46 Y121.329 E30.21535
G1 X122.53 Y121.399
G0 F3600 X121.895 Y121.329
G1 F1050 X114.936 Y114.37 E30.70635
G1 X114.866 Y114.3
G0 F3600 X114.612 Y114.612
G1 F1050 X121.329 Y121.329 E31.18027
G1 X121.399 Y121.399
G0 F3600 X120.763 Y121.329
G1 F1050 X114.279 Y114.844 E31.63779
G1 X114.209 Y114.774
G0 F3600 X113.946 Y115.077
G1 F1050 X120.198 Y121.329 E32.0789
G1 X120.268 Y121.399
G0 F3600 X119.632 Y121.329
G1 F1050 X113.571 Y115.268 E32.50653
G1 X113.501 Y115.198
G0 F3600 X113.192 Y115.455
G1 F1050 X119.066 Y121.329 E32.92098
G1 X119.136 Y121.399
G0 F3600 X118.501 Y121.329
G1 F1050 X112.808 Y115.636 E33.32265
G1 X112.738 Y115.566
G0 F3600 X112.378 Y115.772
G1 F1050 X117.935 Y121.329 E33.71472
G1 X118.005 Y121.399
G0 F3600 X117.369 Y121.329
G1 F1050 X111.948 Y115.908 E34.09721
G1 X111.878 Y115.838
G0 F3600 X111.485 Y116.011
G1 F1050 X116.804 Y121.329 E34.47245
G1 X116.874 Y121.399
G0 F3600 X116.238 Y121.329
G1 F1050 X110.996 Y116.087 E34.84231
G1 X110.926 Y116.017
G0 F3600 X110.493 Y116.15
G1 F1050 X115.672 Y121.329 E35.20771
G1 X115.742 Y121.399
G0 F3600 X115.107 Y121.329
G1 F1050 X109.928 Y116.15 E35.57312
G1 X109.858 Y116.08
G0 F3600 X109.352 Y116.14
G1 F1050 X114.541 Y121.329 E35.93923
G1 X114.611 Y121.399
G0 F3600 X113.975 Y121.329
G1 F1050 X108.683 Y116.037 E36.31261
G1 X108.613 Y115.967
G0 F3600 X107.958 Y115.878
G1 F1050 X113.41 Y121.329 E36.69724
G1 X113.48 Y121.399
G0 F3600 X112.844 Y121.329
G1 F1050 X107.13 Y115.616 E37.10036
G1 X107.06 Y115.546
G0 F3600 X105.957 Y115.008
G1 F1050 X112.278 Y121.329 E37.54634
G1 X112.348 Y121.399
G0 F3600 X111.712 Y121.329
G1 F1050 X99.528 Y109.144 E38.40602
G1 X99.458 Y109.074
G0 F3600 X99.66 Y108.711
G1 F1050 X103.492 Y112.543 E38.67639
G1 X103.562 Y112.613
G0 F3600 X102.913 Y111.398
G1 F1050 X99.792 Y108.277 E38.8966
G1 X99.722 Y108.207
G0 F3600 X99.924 Y107.843
G1 F1050 X102.599 Y110.519 E39.08537
G1 X102.669 Y110.589
G0 F3600 X102.464 Y109.817
G1 F1050 X100.056 Y107.41 E39.25523
G1 X99.986 Y107.34
G0 F3600 X100.188 Y106.976
G1 F1050 X102.37 Y109.158 E39.40918
G1 X102.44 Y109.228
G0 F3600 X102.348 Y108.57
G1 F1050 X100.32 Y106.543 E39.55223
G1 X100.25 Y106.473
G0 F3600 X100.452 Y106.109
G1 F1050 X102.356 Y108.013 E39.68657
G1 X102.426 Y108.083
G0 F3600 X102.413 Y107.504
G1 F1050 X100.584 Y105.675 E39.81561
G1 X100.514 Y105.605
G0 F3600 X100.736 Y105.262
G1 F1050 X102.476 Y107.002 E39.93838
G1 X102.546 Y107.072
G0 F3600 X102.598 Y106.558
G1 F1050 X100.889 Y104.849 E40.05896
G1 X100.819 Y104.779
G0 F3600 X101.053 Y104.447
G1 F1050 X102.72 Y106.114 E40.17658
G1 X102.79 Y106.184
G0 F3600 X102.87 Y105.699
G1 F1050 X101.243 Y104.071 E40.29141
G1 X101.173 Y104.001
G0 F3600 X101.434 Y103.697
G1 F1050 X103.046 Y105.309 E40.40514
G1 X103.116 Y105.379
G0 F3600 X103.222 Y104.919
G1 F1050 X101.645 Y103.342 E40.51641
G1 X101.575 Y103.272
G0 F3600 X101.871 Y103.002
G1 F1050 X103.434 Y104.565 E40.62668
G1 X103.504 Y104.635
G0 F3600 X103.655 Y104.221
G1 F1050 X102.097 Y102.662 E40.73664
G1 X102.027 Y102.592
G0 F3600 X102.35 Y102.35
G1 F1050 X103.876 Y103.876 E40.84431
G1 X103.946 Y103.946
G0 F3600 X104.14 Y103.574
G1 F1050 X102.609 Y102.043 E40.95233
G1 X102.539 Y101.973
G0 F3600 X102.869 Y101.738
G1 F1050 X104.407 Y103.276 E41.06085
G1 X104.477 Y103.346
G0 F3600 X104.675 Y102.978
G1 F1050 X103.161 Y101.464 E41.16767
G1 X103.091 Y101.394
G0 F3600 X103.453 Y101.191
G1 F1050 X104.982 Y102.719 E41.27551
G1 X105.052 Y102.789
G0 F3600 X105.291 Y102.463
G1 F1050 X103.75 Y100.921 E41.38427
G1 X103.68 Y100.851
G0 F3600 X104.074 Y100.68
G1 F1050 X105.603 Y102.209 E41.49215
G1 X105.673 Y102.279
G0 F3600 X105.958 Y101.998
G1 F1050 X104.4 Y100.44 E41.60208
G1 X104.33 Y100.37
G0 F3600 X104.735 Y100.21
G1 F1050 X106.313 Y101.788 E41.71341
G1 X106.383 Y101.858
G0 F3600 X106.679 Y101.587
G1 F1050 X105.094 Y100.003 E41.82521
G1 X105.024 Y99.933
G0 F3600 X105.453 Y99.796
G1 F1050 X107.082 Y101.425 E41.94014
G1 X107.152 Y101.495
G0 F3600 X107.486 Y101.264
G1 F1050 X105.835 Y99.612 E42.05667
G1 X105.765 Y99.542
G0 F3600 X106.231 Y99.443
G1 F1050 X107.918 Y101.13 E42.17569
G1 X107.988 Y101.2
G0 F3600 X108.376 Y101.022
G1 F1050 X106.627 Y99.273 E42.29909
G1 X106.557 Y99.203
G0 F3600 X107.059 Y99.139
G1 F1050 X108.836 Y100.916 E42.42447
G1 X108.906 Y100.986
G0 F3600 X109.36 Y100.875
G1 F1050 X107.495 Y99.009 E42.55609
G1 X107.425 Y98.939
G0 F3600 X107.949 Y98.898
G1 F1050 X109.884 Y100.833 E42.69262
G1 X109.954 Y100.903
G0 F3600 X110.479 Y100.862
G1 F1050 X108.43 Y98.813 E42.83719
G1 X108.36 Y98.743
G0 F3600 X108.917 Y98.735
G1 F1050 X111.093 Y100.911 E42.99071
G1 X111.163 Y100.981
G0 F3600 X111.816 Y101.068
G1 F1050 X109.453 Y98.705 E43.15744
G1 X109.383 Y98.635
G0 F3600 X109.988 Y98.674
G1 F1050 X112.623 Y101.309 E43.34335
G1 X112.693 Y101.379
G0 F3600 X113.644 Y101.765
G1 F1050 X110.586 Y98.707 E43.55911
G1 X110.516 Y98.637
G0 F3600 X105.049 Y103.356
G0 X99.395 Y109.578
G1 F1050 X111.147 Y121.329 E44.38824
G1 X111.217 Y121.399
G0 F3600 X110.581 Y121.329
G1 F1050 X99.263 Y110.011 E45.18679
G1 X99.193 Y109.941
G0 F3600 X99.132 Y110.445
G1 F1050 X110.015 Y121.329 E45.95468
G1 X110.085 Y121.399
G0 F3600 X109.449 Y121.328
G1 F1050 X98.999 Y110.879 E46.69194
G1 X98.929 Y110.809
G0 F3600 X98.867 Y111.312
G1 F1050 X108.883 Y121.328 E47.39863
G1 X108.953 Y121.398
G0 F3600 X108.318 Y121.328
G1 F1050 X98.735 Y111.746 E48.07472
G1 X98.665 Y111.676
G0 F3600 X98.603 Y112.179
G1 F1050 X107.752 Y121.328 E48.72024
G1 X107.822 Y121.398
G0 F3600 X107.186 Y121.328
G1 F1050 X98.471 Y112.613 E49.33513
G1 X98.401 Y112.543
G0 F3600 X98.339 Y113.047
G1 F1050 X106.621 Y121.328 E49.91943
G1 X106.691 Y121.398
G0 F3600 X106.055 Y121.328
G1 F1050 X98.207 Y113.48 E50.47315
G1 X98.137 Y113.41
G0 F3600 X98.075 Y113.914
G1 F1050 X105.489 Y121.328 E50.99625
G1 X105.559 Y121.398
G0 F3600 X104.924 Y121.328
G1 F1050 X97.943 Y114.348 E51.48876
G1 X97.873 Y114.278
G0 F3600 X97.811 Y114.781
G1 F1050 X104.358 Y121.328 E51.95069
G1 X104.428 Y121.398
G0 F3600 X103.792 Y121.328
G1 F1050 X97.679 Y115.215 E52.38199
G1 X97.609 Y115.145
G0 F3600 X97.546 Y115.648
G1 F1050 X103.226 Y121.328 E52.78274
G1 X103.296 Y121.398
G0 F3600 X102.661 Y121.328
G1 F1050 X97.414 Y116.082 E53.15291
G1 X97.344 Y116.012
G0 F3600 X97.283 Y116.516
G1 F1050 X102.095 Y121.328 E53.49243
G1 X102.165 Y121.398
G0 F3600 X101.529 Y121.328
G1 F1050 X97.15 Y116.949 E53.80139
G1 X97.08 Y116.879
